; Generated with MatterSlice 2.21.4
; filamentDiameter = 1.71
; extrusionWidth = 0.4
; firstLayerExtrusionWidth = 0.4
; layerThickness = 0.25
; firstLayerThickness = 0.3
; automatic settings before start_gcode
G21 ; set units to millimeters
M107 ; fan off
M140 S60 ; start heating the bed
M104 T0 S204 ; start heating T0
T0 ; set the active extruder to 0
; settings from start_gcode
G28 ; home all axes
; automatic settings after start_gcode
M190 S60 ; wait for bed temperature to be reached
M109 T0 S204 ; Finish heating T0
T0 ; set the active extruder to 0
G90 ; use absolute coordinates
G92 E0 ; reset the expected extruder position
M82 ; use absolute distance for extrusion
; Layer count: 158
; Layer Change GCode
; LAYER:0
; LAYER_HEIGHT:0.3
; TYPE:FILL
M400
M107
G1 X139.33 Y144.16 Z0.3 F7800
; TYPE:SKIRT
G1 F1800
G1 X142.48 Y147.31 E0.233 F1620
G1 X143.29 Y149.33 E0.347
G1 X143.72 Y150.54 E0.413
G1 X143.78 Y152.25 E0.503
G1 X143.74 Y153.53 E0.57
G1 X143.69 Y154.47 E0.619
G1 X142.21 Y180.5 E1.981
G1 X141.89 Y182.22 E2.072
G1 X141.43 Y183.68 E2.153
G1 X140.78 Y184.73 E2.217
G1 X139.46 Y186.59 E2.337
G1 X138.21 Y187.89 E2.431
G1 X137.47 Y188.48 E2.48
G1 X136.15 Y189.26 E2.56
G1 X134.57 Y189.78 E2.647
G1 X133.21 Y189.94 E2.718
G1 X121.29 E3.342
G1 X119.62 Y189.56 E3.431
G1 X118.42 Y189.01 E3.5
G1 X117.45 Y188.44 E3.559
G1 X116.79 Y187.89 E3.604
G1 X116.26 Y187.39 E3.642
G1 X115.77 Y186.86 E3.679
G1 X114.22 Y184.78 E3.815
G1 X113.36 Y183.17 E3.91
G1 X112.96 Y181.61 E3.994
G1 X112.84 Y180.58 E4.049
G1 X112.8 Y179.92 E4.083
G1 X111.38 Y154.65 E5.406
G1 X111.32 Y153.47 E5.467
G1 X111.33 Y152.52 E5.517
G1 X111.36 Y151.24 E5.584
G1 X111.49 Y149.94 E5.652
G1 X112.15 Y147.93 E5.763
G1 X113.37 Y146.51 E5.86
G1 X114.48 Y145.46 E5.94
G1 X115.92 Y144.11 E6.044
G1 X119.25 Y143.22 E6.224
G1 X120.29 Y143.14 E6.278
G1 X135.49 Y143.12 E7.072
G1 X139.33 Y144.16 E7.28
G1 E6.28 F1800
G1 X133.66 Y150.48 F7800
; TYPE:WALL-OUTER
G1 E7.28 F1800
G1 X133.86 Y150.26 E7.296 F1620
G1 X134.08 Y150.2 E7.308
G1 X134.1 Y149.87 E7.325
G1 X134.4 Y149.85 E7.341
G1 X134.47 Y149.55 E7.357
G1 X134.53 Y149.54 E7.36
G1 X134.55 Y149.79 E7.374
G1 X135.01 Y149.92 E7.398
G1 X135.4 E7.419
G1 X135.76 Y149.88 E7.438
G1 X135.94 Y149.9 E7.447
G1 X135.98 Y150.09 E7.458
G1 X135.97 Y150.44 E7.476
G1 X136.03 Y150.51 E7.48
G1 X136.01 Y150.83 E7.497
G1 X136.45 Y151.01 E7.522
G1 X136.83 Y150.95 E7.542
G1 X137.04 Y150.98 E7.553
G1 X137.09 Y151.17 E7.564
G1 X137.13 Y151.23 E7.567
G1 X137.15 Y151.51 E7.582
G1 X137.3 Y151.63 E7.592
G1 X137.36 Y151.77 E7.6
G1 X137.38 Y152.2 E7.622
G1 X137.23 Y152.47 E7.638
G1 Y152.65 E7.648
G1 X137.33 Y152.94 E7.664
G1 X137.34 Y153.26 E7.681
G1 X137.3 Y154.1 E7.725
G1 X137.15 Y154.49 E7.746
G1 X137.13 Y154.76 E7.76
G1 X136.95 Y155.78 E7.814
G1 X136.73 Y156.42 E7.85
G1 X136.64 Y156.74 E7.867
G1 X136.53 Y156.95 E7.88
G1 X136.35 Y157.19 E7.895
G1 X136.28 Y157.48 E7.911
G1 X135.97 Y157.82 E7.935
G1 X135.54 Y158.14 E7.963
G1 X135.43 Y158.25 E7.971
G1 X134.94 Y158.58 E8.002
G1 X134.49 Y158.71 E8.027
G1 X134.28 Y158.72 E8.038
G1 X133.92 Y158.79 E8.057
G1 X133.23 Y158.8 E8.093
G1 X132.92 Y158.75 E8.109
G1 X132.43 Y158.5 E8.138
G1 X132.25 Y158.51 E8.147
G1 X132.12 Y158.36 E8.158
G1 X131.86 Y158.26 E8.172
G1 X131.75 Y158.11 E8.182
G1 X131.67 Y157.97 E8.191
G1 X131.37 Y157.69 E8.212
G1 X131.31 Y157.59 E8.218
G1 X131.07 Y157.29 E8.238
G1 X130.88 Y157.16 E8.25
G1 X130.78 Y156.64 E8.278
G1 X130.75 Y156.56 E8.282
G1 X130.7 Y156.3 E8.296
G1 X130.57 Y155.93 E8.316
G1 X130.51 Y155.07 E8.362
G1 X130.54 Y154.79 E8.376
G1 X130.53 Y154.71 E8.38
G1 X130.56 Y154.43 E8.395
G1 X130.55 Y154.1 E8.412
G1 X130.56 Y154.07 E8.414
G1 X130.55 Y153.64 E8.437
G1 X130.57 Y153.38 E8.451
G1 X130.79 Y152.66 E8.489
G1 X130.89 Y152.07 E8.521
G1 X130.95 Y151.96 E8.527
G1 X131.03 Y151.58 E8.548
G1 X131.18 Y151.23 E8.568
G1 X131.24 Y150.96 E8.582
G1 X131.49 Y150.8 E8.598
G1 X131.68 Y150.75 E8.608
G1 X131.77 Y150.88 E8.616
G1 X132.2 Y150.91 E8.639
G1 X132.57 Y150.58 E8.665
G1 X132.97 Y150.13 E8.696
G1 X133.01 Y150.04 E8.701
G1 X133.07 Y150.02 E8.705
G1 X133.11 Y150.19 E8.714
G1 X133.22 Y150.22 E8.72
G1 X133.2 Y150.42 E8.73
G1 X133.62 Y150.47 E8.752
G1 X133.66 Y150.48
G1 X133.86 Y150.26
G1 X134.08 Y150.2
G1 X134.1 Y149.87
G1 X134.4 Y149.85
G1 X134.47 Y149.55
G1 X134.53 Y149.54
G1 X134.55 Y149.79
G1 X135.01 Y149.92
G1 X135.4
G1 X135.75 Y149.88
G1 X134.01 Y150.68 F7800
; TYPE:WALL-INNER
G1 X134.08 Y150.61 E8.757 F1620
G1 X134.48 Y150.55 E8.783
G1 X134.57 Y150.4 E8.794
G1 X134.92 Y150.46 E8.826
G1 X134.88 Y150.6 F7800
G1 X135.29 Y150.71 E8.848 F1620
G1 X135.4 Y150.79 E8.856
G1 X135.47 Y150.84 E8.86
G1 X135.54 Y150.74 F7800
G1 X135.61 Y150.87 E8.871 F1620
G1 X135.52 Y150.7 E8.888
G1 X135.56 Y150.44 F7800
G1 X135.58 Y150.31 E8.895 F1620
G1 X135.5 Y150.32 E8.899
G1 X134.95 E8.928
G1 X134.65 Y150.23 F7800
G1 X134.48 Y150.24 E8.937 F1620
G1 X134.06 Y150.69 F7800
G1 X133.97 Y150.76 E8.944 F1620
G1 X133.89 Y150.82 E8.949
G1 X135.38 Y151.28 F7800
; TYPE:WALL-OUTER
G1 Y151.56 E8.964 F1620
G1 X135.25 Y151.98 E8.987
G1 X135.17 Y152.09 E8.994
G1 X134.75 Y152.44 E9.023
G1 X134.27 Y152.52 E9.048
G1 X134.05 Y152.41 E9.061
G1 X133.74 Y151.95 E9.09
G1 Y151.43 E9.117
G1 X134.22 Y151.08 E9.148
G1 X134.67 Y150.96 E9.172
G1 X135.12 Y151.08 E9.197
G1 X135.35 Y151.25 E9.212
G1 X135.38 Y151.28
G1 Y151.56
G1 X135.25 Y151.98
G1 X135.17 Y152.09
G1 X134.75 Y152.44
G1 X134.27 Y152.52
G1 X134.05 Y152.41
G1 X133.74 Y151.95
G1 Y151.65
G1 X135.78 Y151.17 F7800
; TYPE:WALL-INNER
G1 X136.41 Y151.42 E9.247 F1620
G1 X136.74 Y151.37 E9.265
G1 X136.77 Y151.71 E9.283
G1 X136.96 Y151.87 E9.296
G1 X136.97 Y152.11 E9.308
G1 X136.83 Y152.37 E9.324
G1 X136.82 Y152.71 E9.342
G1 X136.93 Y153.02 E9.358
G1 X136.94 Y153.27 E9.372
G1 X136.9 Y154.02 E9.411
G1 X136.76 Y154.4 E9.432
G1 X136.73 Y154.71 E9.449
G1 X136.56 Y155.68 E9.5
G1 X136.35 Y156.3 E9.534
G1 X136.27 Y156.59 E9.55
G1 X136.2 Y156.73 E9.558
G1 X135.98 Y157.02 E9.577
G1 X135.91 Y157.29 E9.591
G1 X135.7 Y157.53 E9.608
G1 X135.28 Y157.83 E9.635
G1 X135.17 Y157.94 E9.643
G1 X134.77 Y158.22 E9.669
G1 X134.42 Y158.32 E9.688
G1 X134.23 Y158.33 E9.698
G1 X133.87 Y158.4 E9.717
G1 X133.27 E9.748
G1 X133.05 Y158.37 E9.76
G1 X132.52 Y158.09 E9.791
G1 X132.42 Y158.1 E9.797
G1 X132.35 Y158.02 E9.802
G1 X132.12 Y157.93 E9.815
G1 X131.99 Y157.72 E9.828
G1 X131.68 Y157.43 E9.85
G1 X131.35 Y156.99 E9.879
G1 X131.24 Y156.92 E9.885
G1 X131.16 Y156.52 E9.907
G1 X131.13 Y156.44 E9.911
G1 X131.09 Y156.2 E9.924
G1 X130.96 Y155.85 E9.943
G1 X130.91 Y155.07 E9.984
G1 X130.94 Y154.79 E9.999
G1 X130.93 Y154.71 E10.003
G1 X130.96 Y154.44 E10.017
G1 X130.95 Y154.18 E10.031
G1 X130.97 Y154.15 E10.033
G1 X130.95 Y153.65 E10.059
G1 X130.97 Y153.46 E10.069
G1 X131.18 Y152.76 E10.107
G1 X131.27 Y152.21 E10.136
G1 X131.33 Y152.11 E10.143
G1 X131.41 Y151.7 E10.164
G1 X131.56 Y151.36 E10.184
G1 X131.58 Y151.27 E10.188
G1 X132.35 Y151.32 E10.229
G1 X132.85 Y150.86 E10.264
G1 X132.92 Y150.78 E10.27
G1 X133.78 Y150.9 E10.315
G1 X133.34 Y151.23 E10.344
G1 Y152.07 E10.388
G1 X133.77 Y152.72 E10.429
G1 X134.21 Y152.94 E10.454
G1 X134.92 Y152.82 E10.492
G1 X135.46 Y152.37 E10.529
G1 X135.62 Y152.17 E10.542
G1 X135.78 Y151.62 E10.572
G1 Y151.21 E10.593
G1 Y151.17
G1 X136.22 Y151.71 F7800
; TYPE:FILL
G1 X136.06 Y151.87 E10.605 F1620
G1 X136.54 Y151.96 F7800
G1 X131.66 Y156.84 E10.966 F1620
G1 X131.9 Y157.16 F7800
G1 X136.49 Y152.58 E11.304 F1620
G1 X136.58 Y153.05 F7800
G1 X132.19 Y157.44 E11.629 F1620
G1 X132.49 Y157.71 F7800
G1 X136.58 Y153.62 E11.932 F1620
G1 X136.42 Y154.34 F7800
G1 X132.87 Y157.89 E12.194 F1620
G1 X133.27 Y158.06 F7800
G1 X136.34 Y154.99 E12.421 F1620
G1 X136.2 Y155.7 F7800
G1 X133.84 Y158.05 E12.595 F1620
G1 X134.53 Y157.93 F7800
G1 X135.89 Y156.57 E12.695 F1620
G1 X134.74 Y153.19 F7800
G1 X131.49 Y156.44 E12.935 F1620
G1 X131.37 Y155.99 F7800
G1 X134.1 Y153.26 E13.137 F1620
G1 X133.73 Y153.08 F7800
G1 X131.28 Y155.52 E13.318 F1620
G1 X131.26 Y154.97 F7800
G1 X133.43 Y152.81 E13.478 F1620
G1 X133.2 Y152.47 F7800
G1 X131.3 Y154.37 E13.618 F1620
G1 X131.29 Y153.81 F7800
G1 X133 Y152.1 E13.744 F1620
G1 Y151.54 F7800
G1 X131.43 Y153.11 E13.86 F1620
G1 X131.59 Y152.39 F7800
G1 X132.32 Y151.66 E13.914 F1620
G1 E12.914 F1800
G1 X128.34 Y154.79 F7800
; TYPE:WALL-OUTER
G1 E13.914 F1800
G1 X128.46 Y154.96 E13.925 F1620
G1 X128.53 Y155.14 E13.935
G1 X128.56 Y155.33 E13.945
G1 X128.53 Y155.55 E13.957
G1 X128.46 Y155.73 E13.967
G1 X128.34 Y155.89 E13.978
G1 X128.18 Y156.02 E13.988
G1 X128 Y156.1 E13.998
G1 X127.8 Y156.14 E14.009
G1 X127.61 Y156.12 E14.019
G1 X127.41 Y156.06 E14.03
G1 X127.24 Y155.95 E14.04
G1 X127.11 Y155.8 E14.051
G1 X127.02 Y155.63 E14.061
G1 X126.97 Y155.43 E14.072
G1 Y155.24 E14.082
G1 X127.02 Y155.04 E14.092
G1 X127.11 Y154.87 E14.102
G1 X127.25 Y154.73 E14.113
G1 X127.42 Y154.62 E14.123
G1 X127.61 Y154.56 E14.134
G1 X127.81 Y154.54 E14.144
G1 X128.01 Y154.58 E14.155
G1 X128.19 Y154.67 E14.165
G1 X128.31 Y154.77 E14.174
G1 X128.34 Y154.79
G1 X128.46 Y154.96
G1 X128.53 Y155.14
G1 X128.56 Y155.33
G1 X128.53 Y155.55
G1 X128.46 Y155.73
G1 X128.34 Y155.89
G1 X128.18 Y156.02
G1 X128 Y156.1
G1 X127.8 Y156.14
G1 X127.61 Y156.12
G1 X127.41 Y156.06
G1 X127.24 Y155.95
G1 X127.11 Y155.8
G1 X127.02 Y155.63
G1 X126.97 Y155.44
G1 X128.05 Y155.07 F7800
; TYPE:WALL-INNER
G1 X128.11 Y155.15 E14.179 F1620
G1 X128.14 Y155.24 E14.184
G1 X128.16 Y155.33 E14.189
G1 X128.14 Y155.45 E14.195
G1 X128.11 Y155.53 E14.199
G1 X128.04 Y155.62 E14.205
G1 X127.97 Y155.68 E14.21
G1 X127.88 Y155.72 E14.215
G1 X127.78 Y155.74 E14.22
G1 X127.68 Y155.73 E14.225
G1 X127.59 Y155.7 E14.23
G1 X127.51 Y155.64 E14.236
G1 X127.44 Y155.57 E14.241
G1 X127.39 Y155.48 E14.246
G1 X127.37 Y155.38 E14.252
G1 Y155.29 E14.256
G1 X127.39 Y155.2 E14.261
G1 X127.44 Y155.11 E14.267
G1 X127.51 Y155.04 E14.272
G1 X127.59 Y154.98 E14.277
G1 X127.68 Y154.95 E14.282
G1 X127.79 E14.287
G1 X127.88 Y154.97 E14.292
G1 X127.97 Y155.01 E14.298
G1 X128.02 Y155.05 E14.301
G1 X128.05 Y155.07
G1 E13.301 F1800
G1 X120.75 Y150.59 F7800
; TYPE:WALL-OUTER
G1 E14.301 F1800
G1 X121.36 Y150.56 E14.333 F1620
G1 X121.76 Y150.14 E14.363
G1 X121.89 Y150.04 E14.372
G1 X121.93 Y150.15 E14.378
G1 X122.13 Y150.22 E14.389
G1 X122.12 Y150.31 E14.393
G1 X122.2 E14.398
G1 X122.25 Y150.53 E14.409
G1 X122.36 Y150.58 E14.416
G1 Y150.83 E14.429
G1 X122.66 Y150.8 E14.445
G1 X122.77 Y150.88 E14.452
G1 X123.14 Y150.87 E14.471
G1 X123.36 Y150.74 E14.484
G1 X123.42 Y150.87 E14.492
G1 X123.7 Y150.93 E14.506
G1 X123.75 Y151.17 E14.52
G1 X123.95 Y151.31 E14.532
G1 X123.98 Y151.36 E14.535
G1 X124.04 Y151.88 E14.563
G1 X124.19 Y152.68 E14.605
G1 X124.35 Y153.01 E14.624
G1 X124.42 Y153.66 E14.659
G1 X124.44 Y153.73 E14.662
G1 X124.41 Y154.43 E14.699
G1 X124.43 Y154.7 E14.713
G1 X124.41 Y154.89 E14.723
G1 X124.44 Y155.16 E14.737
G1 X124.37 Y156.12 E14.788
G1 X124.29 Y156.62 E14.814
G1 X124.05 Y157.14 E14.844
G1 X123.71 Y157.55 E14.872
G1 X123.59 Y157.79 E14.886
G1 X123.52 Y157.88 E14.892
G1 X123.18 Y158.2 E14.916
G1 X122.8 Y158.44 E14.94
G1 X122.63 Y158.58 E14.951
G1 X121.96 Y158.78 E14.988
G1 X121.74 Y158.8 E14.999
G1 X121.28 Y158.81 E15.023
G1 X120.77 Y158.75 E15.05
G1 X120.44 Y158.64 E15.068
G1 X120.24 Y158.63 E15.079
G1 X120.09 Y158.58 E15.087
G1 X119.96 Y158.51 E15.095
G1 X119.81 Y158.31 E15.108
G1 X119.58 Y158.25 E15.12
G1 X119.42 Y158.05 E15.133
G1 X119.23 Y157.98 E15.144
G1 X119.2 Y157.93 E15.147
G1 X119.12 Y157.89 E15.152
G1 X119.02 Y157.75 E15.161
G1 X118.89 Y157.68 E15.168
G1 X118.84 Y157.59 E15.174
G1 X118.74 Y157.35 E15.187
G1 X118.58 Y157.21 E15.199
G1 X118.48 Y156.86 E15.217
G1 X118.29 Y156.56 E15.236
G1 X118.13 Y155.97 E15.268
G1 X118.07 Y155.57 E15.289
G1 X117.91 Y155.17 E15.312
G1 X117.83 Y154.75 E15.334
G1 X117.77 Y154.29 E15.358
G1 X117.72 Y153.34 E15.408
G1 X117.75 Y152.71 E15.441
G1 X117.73 Y152.61 E15.447
G1 X117.74 Y152.28 E15.464
G1 X117.79 Y152.02 E15.477
G1 Y151.88 E15.485
G1 X117.76 Y151.62 E15.498
G1 X117.79 Y151.26 E15.517
G1 X117.83 Y151.14 E15.524
G1 X117.97 Y150.98 E15.535
G1 X118.05 Y150.95 E15.539
G1 X118.46 Y150.97 E15.561
G1 X118.88 Y150.52 E15.593
G1 X118.87 Y150.18 E15.611
G1 X118.91 Y150.09 E15.616
G1 X119.12 Y149.88 E15.631
G1 X119.43 Y149.89 E15.647
G1 X119.46 Y150.1 E15.659
G1 X119.91 Y150.14 E15.682
G1 X120.14 Y149.89 E15.7
G1 X120.32 Y149.82 E15.71
G1 X120.37 Y149.55 E15.724
G1 X120.42 E15.727
G1 X120.49 Y149.83 E15.742
G1 X120.75 E15.756
G1 Y150.11 E15.77
G1 X120.79 Y150.15 E15.773
G1 X120.76 Y150.55 E15.794
G1 X120.75 Y150.59
G1 X121.36 Y150.56
G1 X121.76 Y150.14
G1 X121.89 Y150.04
G1 X121.93 Y150.15
G1 X122.13 Y150.22
G1 X122.12 Y150.31
G1 X122.2
G1 X122.25 Y150.53
G1 X122.36 Y150.58
G1 Y150.83
G1 X122.66 Y150.8
G1 X122.77 Y150.88
G1 X122.89 Y150.87
G1 X120.35 Y150.59 F7800
; TYPE:WALL-INNER
G1 X120.11 Y150.54 E15.807 F1620
G1 X120.08 Y150.55 E15.809
G1 X120.35 Y150.25 E15.83
G1 Y150.27 E15.831
G1 X120.38 Y150.3 E15.833
G1 X120.36 Y150.55 E15.846
G1 X120.35 Y150.59
G1 X119.66 Y151.21 F7800
; TYPE:WALL-OUTER
G1 X120.16 Y150.96 E15.876 F1620
G1 X120.55 Y151.04 E15.896
G1 X120.86 Y151.15 E15.914
G1 X121.11 Y151.35 E15.931
G1 X121.19 Y151.48 E15.938
G1 Y151.8 E15.955
G1 X121.21 Y151.89 E15.96
G1 X121.08 Y152.42 E15.989
G1 X120.53 Y152.53 E16.018
G1 X120.26 Y152.42 E16.033
G1 X120.2 Y152.36 E16.038
G1 X120.07 E16.044
G1 X119.94 Y152.12 E16.059
G1 X119.81 Y152.02 E16.067
G1 X119.76 Y151.89 E16.075
G1 X119.65 Y151.75 E16.084
G1 X119.57 Y151.54 E16.095
G1 X119.65 Y151.25 E16.111
G1 X119.66 Y151.21
G1 X120.16 Y150.96
G1 X120.55 Y151.04
G1 X120.86 Y151.15
G1 X121.11 Y151.35
G1 X121.19 Y151.48
G1 Y151.8
G1 X121.21 Y151.89
G1 X121.08 Y152.42
G1 X120.81 Y152.48
G1 X119.31 Y150.94 F7800
; TYPE:WALL-INNER
G1 X119.16 Y151.57 E16.145 F1620
G1 X119.3 Y151.94 E16.166
G1 X119.4 Y152.09 E16.175
G1 X119.48 Y152.27 E16.186
G1 X119.63 Y152.38 E16.196
G1 X119.83 Y152.76 E16.218
G1 X120.03 E16.228
G1 X120.5 Y152.95 E16.255
G1 X121.4 Y152.77 E16.303
G1 X121.62 Y151.89 E16.35
G1 X121.59 Y151.75 E16.358
G1 Y151.36 E16.378
G1 X121.42 Y151.09 E16.395
G1 X121.27 Y150.97 E16.405
G1 X121.55 Y150.95 E16.419
G1 X121.75 Y150.73 E16.435
G1 X121.88 E16.442
G1 X121.9 Y150.81 E16.446
G1 X121.96 Y150.84 E16.45
G1 Y151.26 E16.471
G1 X122.55 Y151.21 E16.502
G1 X122.65 Y151.28 E16.509
G1 X123.26 Y151.26 E16.541
G1 X123.28 Y151.25 E16.542
G1 X123.36 Y151.26 E16.546
G1 X123.39 Y151.42 E16.555
G1 X123.6 Y151.55 E16.567
G1 X123.64 Y151.94 E16.588
G1 X123.81 Y152.81 E16.634
G1 X123.95 Y153.1 E16.651
G1 X124.04 Y153.78 E16.687
G1 X124.01 Y154.44 E16.721
G1 X124.03 Y154.7 E16.735
G1 X124.01 Y154.9 E16.745
G1 X124.04 Y155.16 E16.759
G1 X123.97 Y156.07 E16.807
G1 X123.91 Y156.5 E16.83
G1 X123.71 Y156.92 E16.854
G1 X123.37 Y157.33 E16.882
G1 X123.25 Y157.57 E16.896
G1 X122.94 Y157.88 E16.919
G1 X122.56 Y158.11 E16.942
G1 X122.43 Y158.22 E16.951
G1 X121.88 Y158.39 E16.981
G1 X121.72 Y158.4 E16.989
G1 X121.3 Y158.41 E17.011
G1 X120.86 Y158.35 E17.034
G1 X120.5 Y158.24 E17.054
G1 X120.33 Y158.23 E17.063
G1 X120.24 Y158.2 E17.068
G1 X120.04 Y157.96 E17.085
G1 X119.81 Y157.89 E17.097
G1 X119.67 Y157.72 E17.109
G1 X119.49 Y157.65 E17.119
G1 X119.47 Y157.62 E17.121
G1 X119.38 Y157.57 E17.126
G1 X119.28 Y157.44 E17.135
G1 X119.19 Y157.39 E17.14
G1 X119.08 Y157.11 E17.156
G1 X118.93 Y156.98 E17.166
G1 X118.85 Y156.7 E17.181
G1 X118.66 Y156.39 E17.2
G1 X118.53 Y155.89 E17.228
G1 X118.45 Y155.46 E17.251
G1 X118.29 Y155.06 E17.273
G1 X118.23 Y154.7 E17.292
G1 X118.17 Y154.26 E17.315
G1 X118.12 Y153.34 E17.364
G1 X118.16 Y152.67 E17.398
G1 X118.13 Y152.57 E17.404
G1 X118.14 Y152.32 E17.417
G1 X118.19 Y152.06 E17.431
G1 Y151.85 E17.442
G1 X118.16 Y151.61 E17.454
G1 X118.19 Y151.36 E17.468
G1 X118.63 Y151.38 E17.491
G1 X119.28 Y150.68 E17.541
G1 Y150.48 E17.551
G1 X120.07 Y150.56 E17.593
G1 X119.35 Y150.92 E17.635
G1 X119.31 Y150.94
G1 X118.68 Y151.72 F7800
; TYPE:FILL
G1 X118.74 Y151.94 E17.645 F1620
G1 X118.48 Y152.49 E17.677
G1 Y153.05 F7800
G1 X119.15 Y152.37 E17.727 F1620
G1 X119.41 Y152.69 F7800
G1 X118.48 Y153.62 E17.796 F1620
G1 X118.51 Y154.15 F7800
G1 X119.6 Y153.06 E17.877 F1620
G1 X120.08 Y153.15 F7800
G1 X118.56 Y154.66 E17.989 F1620
G1 X118.68 Y155.11 F7800
G1 X120.5 Y153.29 E18.123 F1620
G1 X121.21 Y153.15 F7800
G1 X118.81 Y155.55 E18.3 F1620
G1 X118.91 Y156.01 F7800
G1 X123.21 Y151.71 E18.618 F1620
G1 X123.34 Y152.15 F7800
G1 X119.08 Y156.41 E18.933 F1620
G1 X119.25 Y156.81 F7800
G1 X123.43 Y152.63 E19.242 F1620
G1 X123.56 Y153.06 F7800
G1 X119.46 Y157.16 E19.545 F1620
G1 X119.79 Y157.4 F7800
G1 X123.66 Y153.52 E19.831 F1620
G1 X123.68 Y154.07 F7800
G1 X120.13 Y157.63 E20.094 F1620
G1 X120.42 Y157.89 F7800
G1 X123.68 Y154.64 E20.334 F1620
G1 X123.7 Y155.19 F7800
G1 X120.88 Y158 E20.542 F1620
G1 X121.38 Y158.07 F7800
G1 X123.65 Y155.8 E20.71 F1620
G1 X123.54 Y156.47 F7800
G1 X122.03 Y157.98 E20.822 F1620
G1 X121.81 Y152.55 F7800
G1 X122.74 Y151.62 E20.891 F1620
G1 X122.21 Y151.58 F7800
G1 X121.96 Y151.83 E20.91 F1620
G1 X120.95 Y150.87 F7800
G1 X120.53 Y150.83 E20.913 F1620
G1 E19.913 F1800
G1 X122.02 Y177.38 F7800
; TYPE:WALL-OUTER
G1 E20.913 F1800
G1 X122.42 Y177.29 E20.934 F1620
G1 X122.81 Y177.13 E20.957
G1 X123.48 Y176.71 E20.997
G1 X123.63 Y176.76 E21.006
G1 X123.66 Y177 E21.019
G1 X124.17 Y177.05 E21.046
G1 X124.34 Y177.19 E21.057
G1 X124.48 Y177.18 E21.064
G1 X124.6 Y177.26 E21.072
G1 X124.73 Y177.29 E21.079
G1 X124.8 Y177.72 E21.101
G1 X124.82 Y177.8 E21.105
G1 X124.89 Y178.72 E21.154
G1 X125.02 Y178.99 E21.169
G1 X125.07 Y179.68 E21.205
G1 X125.08 Y180.07 E21.226
G1 X124.95 Y180.34 E21.242
G1 Y180.51 E21.25
G1 X125.03 Y180.83 E21.268
G1 X124.87 Y181.32 E21.295
G1 X124.73 Y181.58 E21.31
G1 X124.55 Y181.78 E21.324
G1 X124.33 Y182.17 E21.347
G1 X124.11 Y182.37 E21.363
G1 X124.02 Y182.53 E21.373
G1 X123.69 Y182.87 E21.397
G1 X123.37 Y183.02 E21.416
G1 X123.24 Y183.06 E21.423
G1 X123.04 Y183.19 E21.435
G1 X122.65 Y183.34 E21.457
G1 X122.31 Y183.5 E21.477
G1 X122 Y183.54 E21.493
G1 X121.69 Y183.46 E21.509
G1 X121.55 Y183.39 E21.518
G1 X121.37 Y183.32 E21.528
G1 X121.16 Y183.19 E21.541
G1 X121.06 Y183.11 E21.547
G1 X120.95 Y182.96 E21.557
G1 X120.78 Y182.86 E21.568
G1 X120.72 Y182.79 E21.572
G1 X120.63 Y182.6 E21.583
G1 X120.53 Y182.51 E21.59
G1 X120.42 Y182.33 E21.601
G1 X120.22 Y181.94 E21.624
G1 X119.99 Y181.76 E21.64
G1 X119.88 Y181.53 E21.653
G1 X119.71 Y181.42 E21.664
G1 X119.65 Y181.34 E21.669
G1 X119.56 Y181.11 E21.682
G1 X119.36 Y180.81 E21.701
G1 X119.26 Y180.44 E21.72
G1 X119.22 Y180.03 E21.742
G1 X119.21 Y179.74 E21.757
G1 X119.19 Y179.57 E21.766
G1 X119.28 Y179.14 E21.789
G1 X119.23 Y178.73 E21.811
G1 Y178.3 E21.833
G1 X119.27 Y177.96 E21.851
G1 X119.36 Y177.94 E21.856
G1 X119.58 Y177.84 E21.869
G1 X120.1 Y177.3 E21.908
G1 Y177.19 E21.914
G1 X120.2 Y176.92 E21.929
G1 X120.27 Y176.69 E21.941
G1 X120.3 Y176.64 E21.944
G1 X120.62 Y176.61 E21.961
G1 X120.95 Y176.65 E21.978
G1 X120.98 Y176.71 E21.982
G1 X121.21 Y176.95 E21.999
G1 X121.25 Y177.19 E22.012
G1 X121.58 Y177.38 E22.032
G1 X121.98 E22.053
G1 X122.02
G1 X122.42 Y177.29
G1 X122.81 Y177.13
G1 X123.48 Y176.71
G1 X123.63 Y176.76
G1 X123.66 Y177
G1 X124.17 Y177.05
G1 X124.34 Y177.19
G1 X124.48 Y177.18
G1 X124.57 Y177.24
G1 X122.06 Y177.79 F7800
; TYPE:WALL-INNER
G1 X122.55 Y177.67 E22.079 F1620
G1 X123 Y177.48 E22.104
G1 X123.3 Y177.3 E22.123
G1 X123.31 Y177.37 E22.127
G1 X124.01 Y177.44 E22.164
G1 X124.2 Y177.6 E22.176
G1 X124.36 Y177.59 E22.185
G1 X124.43 Y177.88 E22.201
G1 X124.5 Y178.82 E22.25
G1 X124.63 Y179.1 E22.266
G1 X124.67 Y179.69 E22.297
G1 Y179.98 E22.312
G1 X124.54 Y180.25 E22.328
G1 X124.55 Y180.56 E22.344
G1 X124.61 Y180.8 E22.357
G1 X124.5 Y181.17 E22.377
G1 X124.4 Y181.35 E22.388
G1 X124.22 Y181.55 E22.402
G1 X124.02 Y181.91 E22.424
G1 X123.79 Y182.12 E22.44
G1 X123.69 Y182.29 E22.45
G1 X123.45 Y182.54 E22.468
G1 X123.23 Y182.65 E22.481
G1 X123.07 Y182.7 E22.49
G1 X122.86 Y182.83 E22.503
G1 X122.49 Y182.97 E22.523
G1 X122.2 Y183.11 E22.54
G1 X122.02 Y183.13 E22.55
G1 X121.84 Y183.09 E22.56
G1 X121.72 Y183.02 E22.566
G1 X121.56 Y182.96 E22.575
G1 X121.36 Y182.84 E22.588
G1 X121.23 Y182.67 E22.599
G1 X121.05 Y182.55 E22.61
G1 X120.96 Y182.36 E22.621
G1 X120.84 Y182.25 E22.63
G1 X120.77 Y182.14 E22.637
G1 X120.54 Y181.68 E22.664
G1 X120.31 Y181.5 E22.679
G1 X120.19 Y181.26 E22.693
G1 X119.99 Y181.12 E22.706
G1 X119.91 Y180.92 E22.717
G1 X119.73 Y180.64 E22.734
G1 X119.66 Y180.36 E22.749
G1 X119.62 Y180.01 E22.768
G1 X119.6 Y179.59 E22.79
G1 X119.69 Y179.16 E22.813
G1 X119.63 Y178.71 E22.837
G1 X119.64 Y178.25 E22.861
G1 X119.82 Y178.17 E22.871
G1 X120.49 Y177.47 E22.922
G1 X120.5 Y177.27 E22.932
G1 X120.59 Y177.02 E22.946
G1 X120.61 E22.947
G1 X120.73 Y177.03 E22.953
G1 X120.83 Y177.14 E22.961
G1 X120.88 Y177.45 E22.978
G1 X121.48 Y177.78 E23.013
G1 X122.03 E23.042
G1 X122.06 Y177.79
G1 X122.3 Y178.08 F7800
; TYPE:FILL
G1 X120.01 Y180.37 E23.211 F1620
G1 X120.2 Y180.74 F7800
G1 X123.17 Y177.78 E23.43 F1620
G1 X123.76 Y177.75 F7800
G1 X120.47 Y181.04 E23.673 F1620
G1 X120.7 Y181.37 F7800
G1 X124.09 Y177.98 E23.924 F1620
G1 X124.13 Y178.51 F7800
G1 X120.93 Y181.71 E24.16 F1620
G1 X121.14 Y182.07 F7800
G1 X124.21 Y179 E24.387 F1620
G1 X124.31 Y179.46 F7800
G1 X121.4 Y182.37 E24.602 F1620
G1 X121.69 Y182.64 F7800
G1 X124.24 Y180.1 E24.79 F1620
G1 X124.23 Y180.67 F7800
G1 X122.15 Y182.75 E24.943 F1620
G1 X123.18 Y182.29 F7800
G1 X123.46 Y182.01 E24.964 F1620
G1 X119.95 Y179.86 F7800
G1 X121.69 Y178.12 E25.093 F1620
G1 X121.22 Y178.02 F7800
G1 X120.02 Y179.23 E25.182 F1620
G1 X119.97 Y178.71 F7800
G1 X120.86 Y177.82 E25.247 F1620
G1 E24.247 F1800
G1 X132.82 Y177.38 F7800
; TYPE:WALL-OUTER
G1 E25.247 F1800
G1 X133.28 Y177.39 E25.271 F1620
G1 X133.43 Y177.28 E25.281
G1 X133.74 Y177.15 E25.298
G1 X133.81 Y176.94 E25.31
G1 X133.97 Y176.68 E25.326
G1 X134.41 Y176.61 E25.349
G1 X134.61 Y176.6 E25.36
G1 X134.63 Y176.61 E25.361
G1 X134.64 Y176.81 E25.372
G1 X134.85 Y176.93 E25.384
G1 X134.87 Y177.23 E25.4
G1 X134.89 Y177.28 E25.403
G1 X134.93 Y177.65 E25.423
G1 X135.38 Y177.77 E25.447
G1 X135.5 Y177.85 E25.454
G1 X135.62 Y177.99 E25.464
G1 X135.8 Y178.11 E25.476
G1 X135.75 Y178.32 E25.487
G1 X135.81 Y178.46 E25.494
G1 Y178.96 E25.521
G1 X135.86 Y179.4 E25.544
G1 X135.84 Y179.72 E25.56
G1 X135.78 Y179.84 E25.568
G1 X135.76 Y180.09 E25.581
G1 X135.73 Y180.21 E25.587
G1 X135.71 Y180.44 E25.599
G1 X135.67 Y180.66 E25.611
G1 X135.56 Y181 E25.629
G1 X135.45 Y181.19 E25.641
G1 X135.25 Y181.44 E25.658
G1 X135.06 Y181.58 E25.67
G1 X134.82 Y181.99 E25.695
G1 X134.69 Y182.17 E25.707
G1 X134.51 Y182.5 E25.726
G1 X134.33 Y182.64 E25.738
G1 X133.85 Y183.19 E25.776
G1 X133.6 Y183.31 E25.791
G1 X133.49 Y183.4 E25.798
G1 X133.18 Y183.5 E25.815
G1 X132.87 Y183.54 E25.832
G1 X132.56 Y183.44 E25.848
G1 X132.24 Y183.28 E25.867
G1 X132.13 Y183.21 E25.874
G1 X131.91 Y183.17 E25.886
G1 X131.67 Y183.01 E25.901
G1 X131.5 Y182.96 E25.91
G1 X131.45 Y182.92 E25.913
G1 X131.29 Y182.84 E25.923
G1 X131.18 Y182.77 E25.93
G1 X131.08 Y182.61 E25.939
G1 X130.87 Y182.47 E25.952
G1 X130.8 Y182.23 E25.965
G1 X130.68 Y182.14 E25.973
G1 X130.62 Y182.02 E25.98
G1 X130.57 Y181.86 E25.989
G1 X130.35 Y181.56 E26.008
G1 X130.18 Y181.42 E26.02
G1 X130.15 Y181.22 E26.031
G1 X130.12 Y181.14 E26.035
G1 X130.07 Y180.91 E26.047
G1 X129.98 Y180.24 E26.083
G1 X129.96 Y179.9 E26.101
G1 X129.99 Y179.53 E26.119
G1 X130.06 Y179.01 E26.147
G1 X130.17 Y177.9 E26.205
G1 X130.14 Y177.58 E26.222
G1 X130.15 Y177.5 E26.226
G1 X130.26 Y177.35 E26.236
G1 X130.43 Y177.18 E26.249
G1 X130.68 Y177.1 E26.262
G1 X130.73 E26.265
G1 X131.15 Y176.89 E26.29
G1 X131.43 Y176.69 E26.308
G1 X131.49 Y176.68 E26.311
G1 X131.54 Y176.74 E26.315
G1 X131.79 Y176.91 E26.33
G1 X132.54 Y177.28 E26.374
G1 X132.78 Y177.37 E26.388
G1 X132.82 Y177.38
G1 X133.28 Y177.39
G1 X133.43 Y177.28
G1 X133.74 Y177.15
G1 X133.81 Y176.94
G1 X133.97 Y176.68
G1 X134.41 Y176.61
G1 X134.61 Y176.6
G1 X134.63 Y176.61
G1 X134.64 Y176.81
G1 X134.85 Y176.93
G1 X134.87 Y177.23
G1 X134.89 Y177.28
G1 X132.75 Y177.78 F7800
; TYPE:WALL-INNER
G1 X133.4 Y177.79 E26.422 F1620
G1 X133.63 Y177.63 E26.436
G1 X134.06 Y177.46 E26.46
G1 X134.18 Y177.1 E26.48
G1 X134.21 Y177.04 E26.483
G1 X134.25 E26.485
G1 Y177.06 E26.486
G1 X134.46 Y177.17 E26.499
G1 X134.47 Y177.35 E26.508
G1 X134.5 Y177.41 E26.512
G1 X134.57 Y177.97 E26.541
G1 X135.23 Y178.15 E26.577
G1 X135.35 Y178.29 E26.587
G1 X135.33 Y178.36 E26.59
G1 X135.4 Y178.53 E26.6
G1 X135.41 Y178.99 E26.624
G1 X135.45 Y179.4 E26.646
G1 X135.43 Y179.63 E26.658
G1 X135.38 Y179.73 E26.664
G1 X135.36 Y180.03 E26.679
G1 X135.33 Y180.15 E26.686
G1 X135.28 Y180.56 E26.707
G1 X135.2 Y180.83 E26.722
G1 X135.12 Y180.95 E26.73
G1 X134.96 Y181.16 E26.744
G1 X134.75 Y181.31 E26.757
G1 X134.48 Y181.77 E26.785
G1 X134.35 Y181.96 E26.797
G1 X134.2 Y182.24 E26.813
G1 X134.05 Y182.35 E26.823
G1 X133.61 Y182.86 E26.858
G1 X133.38 Y182.97 E26.872
G1 X133.3 Y183.04 E26.877
G1 X133.09 Y183.11 E26.889
G1 X132.9 Y183.13 E26.898
G1 X132.71 Y183.07 E26.909
G1 X132.43 Y182.93 E26.925
G1 X132.28 Y182.83 E26.935
G1 X132.06 Y182.79 E26.946
G1 X131.84 Y182.64 E26.96
G1 X131.7 Y182.6 E26.968
G1 X131.52 Y182.51 E26.979
G1 X131.46 Y182.45 E26.983
G1 X131.37 Y182.32 E26.991
G1 X131.22 Y182.22 E27.001
G1 X131.14 Y182 E27.013
G1 X130.99 Y181.87 E27.024
G1 X130.93 Y181.67 E27.034
G1 X130.64 Y181.27 E27.06
G1 X130.55 Y181.21 E27.066
G1 X130.54 Y181.11 E27.071
G1 X130.5 Y181.01 E27.076
G1 X130.46 Y180.84 E27.085
G1 X130.38 Y180.2 E27.119
G1 X130.37 Y179.89 E27.135
G1 X130.38 Y179.59 E27.151
G1 X130.45 Y179.05 E27.18
G1 X130.58 Y177.9 E27.24
G1 X130.55 Y177.64 E27.254
G1 X130.65 Y177.52 E27.262
G1 X130.74 Y177.5 E27.267
G1 X130.83 E27.271
G1 X131.36 Y177.23 E27.302
G1 X131.45 Y177.16 E27.308
G1 X131.59 Y177.26 E27.317
G1 X132.38 Y177.65 E27.363
G1 X132.72 Y177.77 E27.382
G1 X132.75 Y177.78
G1 X132.51 Y178.05 F7800
; TYPE:FILL
G1 X130.71 Y179.85 E27.515 F1620
G1 X130.74 Y180.38 F7800
G1 X133.01 Y178.12 E27.682 F1620
G1 X133.7 Y178 F7800
G1 X130.82 Y180.88 E27.895 F1620
G1 X131.03 Y181.23 F7800
G1 X134.23 Y178.03 E28.131 F1620
G1 X134.52 Y178.31 F7800
G1 X131.25 Y181.57 E28.373 F1620
G1 X131.47 Y181.92 F7800
G1 X134.96 Y178.43 E28.63 F1620
G1 X135.07 Y178.89 F7800
G1 X131.73 Y182.23 E28.877 F1620
G1 X132.11 Y182.41 F7800
G1 X135.11 Y179.41 E29.099 F1620
G1 X135 Y180.09 F7800
G1 X132.51 Y182.58 E29.283 F1620
G1 X132.88 Y182.77 F7800
G1 X134.38 Y181.28 E29.393 F1620
G1 X132.1 Y177.89 F7800
G1 X130.77 Y179.22 E29.491 F1620
G1 X130.84 Y178.59 F7800
G1 X131.73 Y177.7 E29.556 F1620
G1 X131.15 Y177.71 F7800
G1 X130.91 Y177.95 E29.574 F1620
; Layer Change GCode
; LAYER:1
; LAYER_HEIGHT:0.25
; TYPE:FILL
M400
M106 S255
; TYPE:BRIDGE
G1 E28.574 F1800
G1 X129.97 Y177.74 Z0.55 F7800
; TYPE:WALL-OUTER
G1 E29.574 F1800
G1 X129.94 Y177.26 E29.595 F2430
G1 X130.15 Y176.71 E29.621
G1 X130.34 Y176.62 E29.63
G1 X130.75 Y176.59 E29.648
G1 X130.8 Y176.56 E29.65 F2400
G1 X131.04 Y176.43 E29.662
G1 X131.26 Y176.35 E29.672
G1 X131.28 Y176.27 E29.676
G1 X131.57 Y175.97 E29.694
G1 X131.8 Y175.86 E29.705
G1 X132.15 Y175.83 E29.721
G1 X132.55 E29.738
G1 X132.91 Y175.6 E29.756
G1 X133.2 Y175.56 E29.77
G1 X133.46 Y175.62 E29.781
G1 X133.83 Y175.92 E29.801
G1 X134.27 Y176.24 E29.826
G1 X134.55 Y176.14 E29.838
G1 X134.65 Y176.13 E29.843
G1 X134.89 Y176.21 E29.854
G1 X134.9 Y176.22 E29.855 F2430
G1 X134.97 Y176.23 E29.858
G1 X135 Y176.29 E29.861 F2400
G1 X135.15 Y176.64 E29.877 F2430
G1 X135.23 Y176.84 E29.887
G1 X135.65 Y177.35 E29.915
G1 X136.06 Y177.39 E29.933
G1 X136.32 Y177.61 E29.948
G1 X136.27 Y178.12 E29.971
G1 X136.18 Y178.64 E29.993
G1 X136.08 Y179.72 E30.041
G1 X136.02 Y180.01 E30.053
G1 X135.98 Y180.4 E30.071
G1 X135.91 Y180.73 E30.085
G1 X135.76 Y181.12 E30.103
G1 X135.59 Y181.45 E30.12
G1 X135.33 Y181.81 E30.139
G1 X134.96 Y182.41 E30.17
G1 X134.54 Y183.01 E30.202
G1 X134.26 Y183.31 E30.219
G1 X133.93 Y183.59 E30.238
G1 X133.4 Y183.88 E30.265
G1 X132.88 Y183.96 E30.287
G1 X132.51 Y183.92 E30.304
G1 X131.49 Y183.56 E30.351
G1 X131.16 Y183.37 E30.367
G1 X130.87 Y183.09 E30.385
G1 X130.14 Y182.04 E30.441
G1 X129.87 Y181.58 E30.464
G1 X129.79 Y181.41 E30.472
G1 X129.74 Y181.18 E30.482
G1 X129.72 Y180.83 E30.497
G1 X129.73 Y180.13 E30.528
G1 X129.8 Y179.03 E30.576
G1 X129.88 Y178.45 E30.602
G1 X129.91 Y178.04 E30.619
G1 X129.96 Y177.78 E30.631
G1 X129.97 Y177.74
G1 X129.94 Y177.26
G1 X130.15 Y176.71
G1 X130.34 Y176.62
G1 X130.75 Y176.59
G1 X130.8 Y176.56
G1 X131.04 Y176.43
G1 X131.26 Y176.35
G1 X131.28 Y176.27
G1 X131.57 Y175.97
G1 X131.79 Y175.86
G1 X130.38 Y177.77 F7800
; TYPE:WALL-INNER
G1 X130.35 Y177.32 E30.651 F3780
G1 X130.46 Y177.01 E30.665
G1 X130.7 Y176.99 E30.675 F2400
G1 X130.86 Y176.98 E30.683
G1 X131.21 Y176.8 E30.7
G1 X131.6 Y176.65 E30.718
G1 X131.64 Y176.47 E30.726
G1 X131.81 Y176.3 E30.736
G1 X131.89 Y176.26 E30.74
G1 X132.17 Y176.23 E30.753
G1 X132.67 E30.774
G1 X133.05 Y175.99 E30.794
G1 X133.19 Y175.97 E30.8
G1 X133.28 Y175.99 E30.804
G1 X133.58 Y176.23 E30.821
G1 X134.21 Y176.69 E30.855
G1 X134.62 Y176.54 E30.874
G1 X134.69 Y176.57 E30.877
G1 X134.88 Y177.05 E30.9
G1 X134.9 Y177.06 E30.901 F3780
G1 X135.44 Y177.73 E30.938
G1 X135.89 Y177.78 E30.958
G1 X135.88 Y178.08 E30.971
G1 X135.79 Y178.59 E30.994
G1 X135.69 Y179.67 E31.041
G1 X135.63 Y179.94 E31.053
G1 X135.58 Y180.33 E31.07
G1 X135.53 Y180.61 E31.083
G1 X135.4 Y180.95 E31.098
G1 X135.24 Y181.24 E31.113
G1 X135 Y181.59 E31.131
G1 X134.62 Y182.2 E31.162
G1 X134.23 Y182.76 E31.192
G1 X133.98 Y183.02 E31.208
G1 X133.71 Y183.25 E31.223
G1 X133.27 Y183.49 E31.245
G1 X132.87 Y183.56 E31.263
G1 X132.6 Y183.53 E31.275
G1 X131.66 Y183.19 E31.318
G1 X131.39 Y183.04 E31.331
G1 X131.17 Y182.83 E31.345
G1 X130.47 Y181.82 E31.398
G1 X130.17 Y181.28 E31.425
G1 X130.14 Y181.13 E31.432
G1 X130.12 Y180.84 E31.445
G1 X130.13 Y180.14 E31.475
G1 X130.2 Y179.08 E31.521
G1 X130.28 Y178.49 E31.547
G1 X130.3 Y178.1 E31.564
G1 X130.37 Y177.81 E31.577
G1 X130.38 Y177.77
G1 X131.92 Y176.78 F7800
; TYPE:BRIDGE
G1 X133.7 Y176.74 E31.655 F2400
G1 X133.81 Y177.14 F7800
G1 X132.17 Y177.17 E31.726 F2400
G1 X133.11 Y176.35 F7800
G1 X133.19 E31.729 F2400
; TYPE:FILL
G1 X133.9 Y176.89 F7800
G1 X135.46 Y178.45 E31.825 F4860
G1 X135.41 Y178.97 F7800
G1 X133.68 Y177.24 E31.932 F4860
G1 X133.31 Y177.44 F7800
G1 X135.36 Y179.48 E32.058 F4860
G1 X135.28 Y179.97 F7800
G1 X132.72 Y177.41 E32.216 F4860
G1 X131.71 Y176.97 F7800
G1 X135.21 Y180.47 E32.431 F4860
G1 X135.05 Y180.87 F7800
G1 X131.31 Y177.13 E32.662 F4860
G1 X130.93 Y177.32 F7800
G1 X134.84 Y181.23 E32.903 F4860
G1 X134.61 Y181.57 F7800
G1 X130.71 Y177.66 E33.143 F4860
G1 X130.64 Y178.16 F7800
G1 X134.4 Y181.92 E33.374 F4860
G1 X134.17 Y182.25 F7800
G1 X130.6 Y178.68 E33.594 F4860
G1 X130.53 Y179.18 F7800
G1 X133.93 Y182.58 E33.804 F4860
G1 X133.64 Y182.86 F7800
G1 X130.5 Y179.71 E33.997 F4860
G1 X130.47 Y180.25 F7800
G1 X133.3 Y183.08 E34.172 F4860
G1 X132.87 Y183.21 F7800
G1 X130.46 Y180.81 E34.32 F4860
G1 X130.84 Y181.75 F7800
G1 X132.06 Y182.97 E34.395 F4860
; TYPE:BRIDGE
G1 E33.395 F1800
G1 X125.28 Y181.16 F7800
; TYPE:WALL-OUTER
G1 E34.395 F1800
G1 X125.16 Y181.46 E34.409 F2430
G1 X125.15 Y181.51 E34.411
G1 X125.07 Y181.71 E34.421
G1 X124.34 Y182.83 E34.479
G1 X124.03 Y183.22 E34.5
G1 X123.6 Y183.51 E34.523
G1 X122.61 Y183.88 E34.569
G1 X122.04 Y183.96 E34.594
G1 X121.7 Y183.91 E34.609
G1 X121.36 Y183.78 E34.625
G1 X121.04 Y183.57 E34.641
G1 X120.68 Y183.26 E34.662
G1 X120.36 Y182.89 E34.684
G1 X119.42 Y181.46 E34.758
G1 X119.27 Y181.16 E34.773
G1 X119.1 Y180.77 E34.791
G1 X119.01 Y180.44 E34.806
G1 X118.95 Y180.08 E34.822
G1 X118.85 Y178.65 E34.884
G1 X118.79 Y178.25 E34.902
G1 X118.72 Y178.06 E34.911
G1 X118.71 Y177.65 E34.929
G1 X118.88 Y177.41 E34.941
G1 X119.15 Y177.36 E34.954
G1 X119.34 Y177.25 E34.963
G1 X119.62 Y177.2 E34.976
G1 X119.77 Y176.93 E34.989
G1 X119.86 Y176.58 E35.005 F2400
G1 Y176.55 E35.006 F2430
G1 X119.97 Y176.27 E35.019
G1 X120.24 Y176.12 E35.032
G1 X120.29 Y176.13 E35.035
G1 X120.36 Y176.15 E35.038
G1 X120.56 Y176.22 E35.047 F2400
G1 X120.82 Y176.11 E35.059
G1 X121.03 Y176.09 E35.068
G1 X121.24 Y175.91 E35.08
G1 X121.39 Y175.71 E35.091
G1 X121.56 Y175.62 E35.1
G1 X121.65 Y175.59 E35.104
G1 X121.97 Y175.58 E35.118
G1 X122.15 Y175.77 E35.129
G1 X122.53 Y175.79 E35.146
G1 X122.71 Y175.85 E35.154
G1 X122.83 Y175.82 E35.159
G1 X123.05 E35.169
G1 X123.37 Y175.93 E35.184
G1 X123.7 Y176.21 E35.203
G1 X124.09 Y176.59 E35.226
G1 X124.52 Y176.61 E35.245
G1 X124.77 Y176.65 E35.256
G1 X124.79 E35.257 F2430
G1 X124.81 Y176.68 E35.258
G1 X124.93 Y176.99 E35.273 F2400
G1 X124.94 Y177.03 E35.275 F2430
G1 X125.06 Y177.27 E35.286
G1 X125.11 Y177.6 E35.301
G1 X125.14 Y178.69 E35.348
G1 X125.21 Y179.05 E35.364
G1 X125.3 Y180.12 E35.411
G1 X125.31 Y180.83 E35.442
G1 X125.28 Y181.12 E35.455
G1 Y181.16
G1 X125.16 Y181.46
G1 X125.15 Y181.51
G1 X125.07 Y181.71
G1 X124.34 Y182.83
G1 X124.03 Y183.22
G1 X123.6 Y183.51
G1 X123.55 Y183.53
G1 X124.89 Y181.06 F7800
; TYPE:WALL-INNER
G1 X124.77 Y181.36 E35.469 F3780
G1 X124.76 Y181.41 E35.471
G1 X124.72 Y181.53 E35.476
G1 X124.02 Y182.59 E35.532
G1 X123.76 Y182.92 E35.55
G1 X123.42 Y183.15 E35.568
G1 X122.51 Y183.49 E35.61
G1 X122.04 Y183.56 E35.631
G1 X121.8 Y183.52 E35.641
G1 X121.55 Y183.42 E35.653
G1 X121.28 Y183.25 E35.667
G1 X120.96 Y182.98 E35.685
G1 X120.68 Y182.64 E35.704
G1 X119.77 Y181.26 E35.776
G1 X119.63 Y180.98 E35.79
G1 X119.48 Y180.63 E35.807
G1 X119.4 Y180.35 E35.819
G1 X119.34 Y180.03 E35.834
G1 X119.24 Y178.61 E35.896
G1 X119.18 Y178.15 E35.916
G1 X119.11 Y177.96 E35.924
G1 Y177.77 E35.933
G1 X119.29 Y177.74 E35.941
G1 X119.47 Y177.64 E35.95
G1 X119.89 Y177.56 E35.968
G1 X120.06 Y177.22 E35.985 F2400
G1 X120.14 Y177.07 E35.992
G1 X120.25 Y176.67 E36.01
G1 X120.29 Y176.55 E36.016
G1 X120.57 Y176.64 E36.029
G1 X120.92 Y176.5 E36.045
G1 X121.2 Y176.48 E36.057
G1 X121.53 Y176.19 E36.076
G1 X121.66 Y176.02 E36.085
G1 X121.72 Y175.99 E36.089
G1 X121.8 Y175.98 E36.092
G1 X121.96 Y176.16 E36.102
G1 X122.45 Y176.19 E36.124
G1 X122.71 Y176.26 E36.135
G1 X122.88 Y176.22 E36.143
G1 X122.98 E36.148
G1 X123.17 Y176.28 E36.156
G1 X123.42 Y176.51 E36.171
G1 X123.92 Y176.98 E36.201
G1 X124.51 Y177.01 E36.226
G1 X124.59 Y177.2 E36.235 F3780
G1 X124.67 Y177.39 E36.244
G1 X124.71 Y177.63 E36.255
G1 X124.74 Y178.73 E36.303
G1 X124.81 Y179.11 E36.319
G1 X124.9 Y180.15 E36.365
G1 X124.91 Y180.82 E36.394
G1 X124.89 Y181.02 E36.403
G1 Y181.06
G1 X122.92 Y177.13 F7800
; TYPE:BRIDGE
G1 X121.17 Y177.12 E36.479 F2400
G1 X121.43 Y176.72 F7800
G1 X123.16 Y176.73 E36.554 F2400
; TYPE:FILL
G1 X123.21 Y176.95 F7800
G1 X124.39 Y178.13 E36.627 F4860
G1 X124.4 Y178.71 F7800
G1 X122.86 Y177.17 E36.722 F4860
G1 X122.47 Y177.34 F7800
G1 X124.49 Y179.36 E36.847 F4860
G1 X124.55 Y179.99 F7800
G1 X122.01 Y177.44 E37.003 F4860
G1 X121.27 Y177.28 F7800
G1 X124.57 Y180.57 E37.206 F4860
G1 X124.51 Y181.08 F7800
G1 X120.5 Y177.06 E37.453 F4860
G1 X120.88 Y176.88 F7800
G1 X121.18 Y177.19 E37.472 F4860
G1 X120.32 Y177.46 F7800
G1 X124.34 Y181.48 E37.719 F4860
G1 X124.12 Y181.82 F7800
G1 X120.13 Y177.83 E37.965 F4860
G1 X119.68 Y177.94 F7800
G1 X123.9 Y182.16 E38.225 F4860
G1 X123.66 Y182.49 F7800
G1 X119.56 Y178.39 E38.478 F4860
G1 X119.61 Y179.01 F7800
G1 X123.37 Y182.77 E38.709 F4860
G1 X122.99 Y182.95 F7800
G1 X119.65 Y179.62 E38.914 F4860
G1 X119.73 Y180.25 F7800
G1 X122.58 Y183.1 E39.09 F4860
G1 X122.11 Y183.2 F7800
G1 X120.2 Y181.3 E39.207 F4860
G1 X124.16 Y177.33 F7800
G1 X124.35 Y177.52 E39.219 F4860
; TYPE:BRIDGE
G1 E38.219 F1800
G1 X123.01 Y168.45 F7800
G1 X121.66 Y159.37
; TYPE:WALL-OUTER
G1 E39.219 F1800
G1 X121.32 Y159.38 E39.234 F2430
G1 X120.97 Y159.35 E39.249
G1 X120.61 Y159.29 E39.265
G1 X120.08 Y159.11 E39.289
G1 X119.77 Y158.95 E39.305
G1 X119.28 Y158.6 E39.331
G1 X118.89 Y158.26 E39.353
G1 X118.55 Y157.8 E39.378
G1 X118.31 Y157.25 E39.404
G1 X117.93 Y156.18 E39.454
G1 X117.85 Y155.85 E39.469
G1 X117.78 Y155.47 E39.485
G1 X117.69 Y155.09 E39.502
G1 X117.52 Y154.05 E39.548
G1 X117.5 Y153.71 E39.563
G1 Y153.34 E39.58
G1 X117.45 Y151.54 E39.658
G1 X117.48 Y151.18 E39.673
G1 X117.78 Y150.76 E39.696
G1 X118.04 Y150.64 E39.708
G1 X118.52 Y150.63 E39.729
G1 X118.84 Y149.72 E39.771
G1 X118.89 Y149.69 E39.774
G1 X118.91 Y149.73 E39.776
G1 X119.35 Y149.65 E39.795
G1 X119.5 Y149.67 E39.802
G1 X119.88 Y149.66 E39.818
G1 X120.07 Y149.58 E39.827
G1 X120.09 Y149.48 E39.832
G1 X120.27 Y149.29 E39.843
G1 X120.52 Y149.31 E39.854
G1 X120.82 Y149.43 E39.868
G1 X120.97 Y149.81 E39.886
G1 X121.17 Y150.2 E39.905 F2400
G1 X121.23 Y150.31 E39.91
G1 X121.29 Y150.24 E39.914 F2430
G1 X121.73 Y149.76 E39.942
G1 X121.99 Y149.65 E39.955
G1 X122.26 Y149.81 E39.968
G1 X122.36 Y149.98 E39.977
G1 X122.52 Y150.31 E39.993
G1 X122.72 Y150.37 E40.002
G1 X123.05 Y150.53 E40.018
G1 X123.21 Y150.51 E40.025
G1 X123.45 Y150.42 E40.036
G1 X123.75 Y150.55 E40.05
G1 X124.07 Y150.8 E40.068
G1 X124.16 Y151.2 E40.086
G1 X124.18 Y151.38 E40.094
G1 X124.34 Y151.7 E40.109
G1 X124.41 Y152.23 E40.133
G1 X124.62 Y153.13 E40.173
G1 X124.74 Y153.71 E40.199
G1 Y154.07 E40.214
G1 X124.61 Y155.85 E40.292
G1 X124.52 Y156.55 E40.323
G1 X124.43 Y156.82 E40.335
G1 X124.34 Y157.22 E40.353
G1 X124.13 Y157.58 E40.371
G1 X123.99 Y157.88 E40.386
G1 X123.69 Y158.28 E40.407
G1 X123.33 Y158.61 E40.429
G1 X122.93 Y158.9 E40.45
G1 X122.63 Y159.08 E40.466
G1 X122.29 Y159.24 E40.482
G1 X122.01 Y159.32 E40.495
G1 X121.7 Y159.37 E40.508
G1 X121.66
G1 X121.32 Y159.38
G1 X120.97 Y159.35
G1 X120.61 Y159.29
G1 X120.08 Y159.11
G1 X119.77 Y158.95
G1 X119.28 Y158.6
G1 X118.95 Y158.31
G1 X121.63 Y158.97 F7800
; TYPE:WALL-INNER
G1 X121.33 Y158.98 E40.521 F3780
G1 X121.02 Y158.96 E40.535
G1 X120.71 Y158.9 E40.549
G1 X120.24 Y158.75 E40.57
G1 X119.98 Y158.61 E40.583
G1 X119.53 Y158.29 E40.607
G1 X119.19 Y157.98 E40.627
G1 X118.9 Y157.6 E40.648
G1 X118.68 Y157.1 E40.672
G1 X118.31 Y156.06 E40.72
G1 X118.24 Y155.77 E40.732
G1 X118.17 Y155.38 E40.75
G1 X118.08 Y155.02 E40.766
G1 X117.92 Y154 E40.811
G1 X117.9 Y153.7 E40.824
G1 Y153.33 E40.84
G1 X117.85 Y151.55 E40.917
G1 X117.87 Y151.33 E40.928
G1 X118.05 Y151.08 E40.941
G1 X118.13 Y151.04 E40.945
G1 X118.67 Y151.03 E40.968
G1 X118.81 E40.974 F2400
G1 X119.03 Y150.41 E41.003
G1 X119.14 Y150.09 E41.018 F3780
G1 X119.36 Y150.05 E41.027
G1 X119.47 Y150.07 E41.032
G1 X119.72 Y150.06 E41.043
G1 X119.96 E41.054 F2400
G1 X120.23 Y149.95 E41.066
G1 X120.42 Y149.87 E41.075 F3780
G1 X120.45 Y149.71 E41.082
G1 X120.51 Y149.73 E41.085
G1 X120.6 Y149.97 E41.096
G1 X120.63 Y150.03 E41.099
G1 X121.15 Y151 E41.147 F2400
G1 X121.62 Y150.48 E41.177
G1 X121.96 Y150.1 E41.199 F3780
G1 X122.01 Y150.17 E41.203
G1 X122.24 Y150.64 E41.226
G1 X122.58 Y150.74 E41.241
G1 X122.98 Y150.94 E41.261
G1 X123.3 Y150.9 E41.275
G1 X123.44 Y150.85 E41.281
G1 X123.54 Y150.89 E41.286
G1 X123.71 Y151.03 E41.296
G1 X123.77 Y151.25 E41.306
G1 X123.79 Y151.49 E41.316
G1 X123.95 Y151.82 E41.332
G1 X124.01 Y152.3 E41.353
G1 X124.23 Y153.22 E41.394
G1 X124.34 Y153.76 E41.418
G1 Y154.05 E41.431
G1 X124.22 Y155.79 E41.507
G1 X124.13 Y156.46 E41.537
G1 X124.05 Y156.72 E41.548
G1 X123.96 Y157.07 E41.564
G1 X123.77 Y157.4 E41.58
G1 X123.65 Y157.67 E41.594
G1 X123.39 Y158.01 E41.612
G1 X123.07 Y158.31 E41.631
G1 X122.72 Y158.56 E41.65
G1 X122.44 Y158.73 E41.664
G1 X122.15 Y158.87 E41.678
G1 X121.93 Y158.93 E41.688
G1 X121.66 Y158.97 E41.7
G1 X121.63
G1 X120.61 Y152.58 F7800
; TYPE:BRIDGE
G1 X119.81 Y151.07 E41.774 F2400
G1 X120.17 Y150.9 F7800
G1 X121.01 Y152.5 E41.853 F2400
G1 X121.23 Y152.05 F7800
G1 X120.69 Y151.02 E41.904 F2400
G1 X119.54 Y151.42 F7800
G1 X120.07 Y152.42 E41.953 F2400
; TYPE:FILL
G1 X120.23 Y152.48 F7800
G1 X123.84 Y156.08 E42.175 F4860
G1 X123.74 Y156.55 F7800
G1 X118.56 Y151.37 E42.494 F4860
G1 X118.19 Y151.56 F7800
G1 X123.61 Y156.99 E42.828 F4860
G1 X123.41 Y157.36 F7800
G1 X118.2 Y152.15 E43.149 F4860
G1 X118.22 Y152.73 F7800
G1 X123.19 Y157.7 E43.455 F4860
G1 X122.91 Y157.99 F7800
G1 X118.24 Y153.31 E43.743 F4860
G1 X118.25 Y153.89 F7800
G1 X122.59 Y158.23 E44.011 F4860
G1 X122.24 Y158.44 F7800
G1 X118.35 Y154.55 E44.25 F4860
G1 X118.49 Y155.26 F7800
G1 X121.83 Y158.6 E44.456 F4860
G1 X121.3 Y158.64 F7800
G1 X118.65 Y155.98 E44.619 F4860
G1 X118.95 Y156.85 F7800
G1 X120.61 Y158.51 E44.721 F4860
G1 X123.89 Y155.57 F7800
G1 X120.85 Y152.53 E44.909 F4860
G1 X121.17 Y152.29 F7800
G1 X123.93 Y155.04 E45.078 F4860
G1 X123.97 Y154.52 F7800
G1 X121.25 Y151.79 E45.246 F4860
G1 X121.32 Y151.3 F7800
G1 X124 Y153.98 E45.411 F4860
G1 X123.91 Y153.32 F7800
G1 X121.59 Y151.01 E45.553 F4860
G1 X121.86 Y150.71 F7800
G1 X121.93 Y150.78 E45.557 F4860
G1 X122.11 Y150.96 F7800
G1 X123.73 Y152.58 E45.657 F4860
G1 X123.61 Y151.9 F7800
G1 X122.99 Y151.28 E45.695 F4860
G1 X120.4 Y150.94 F7800
G1 X119.85 Y150.4 E45.729 F4860
G1 X120.3 Y150.29 F7800
G1 X120.47 Y150.45 E45.739 F4860
G1 X119.91 Y151.02 F7800
G1 X119.36 Y150.47 E45.773 F4860
G1 X119.22 Y150.89 F7800
G1 X119.58 Y151.26 E45.795 F4860
G1 X119.07 Y151.31 F7800
G1 X119.72 Y151.97 E45.836 F4860
G1 E44.836 F1800
G1 X127.03 Y155.02 F7800
; TYPE:WALL-OUTER
G1 E45.836 F1800
G1 X127.15 Y154.83 E45.845 F2430
G1 X127.32 Y154.68 E45.855
G1 X127.49 Y154.59 E45.864
G1 X127.69 Y154.55 E45.872
G1 X127.91 Y154.56 E45.882
G1 X128.13 Y154.63 E45.892
G1 X128.29 Y154.74 E45.901
G1 X128.42 Y154.9 E45.91
G1 X128.51 Y155.07 E45.918
G1 X128.56 Y155.29 E45.928
G1 X128.54 Y155.49 E45.937
G1 X128.48 Y155.68 E45.945
G1 X128.38 Y155.85 E45.954
G1 X128.23 Y155.99 E45.963
G1 X128.05 Y156.08 E45.971
G1 X127.86 Y156.13 E45.98
G1 X127.66 E45.989
G1 X127.47 Y156.08 E45.998
G1 X127.29 Y155.99 E46.006
G1 X127.15 Y155.85 E46.015
G1 X127.04 Y155.68 E46.024
G1 X126.98 Y155.49 E46.032
G1 X126.97 Y155.25 E46.043
G1 X127.02 Y155.06 E46.052
G1 X127.03 Y155.02
G1 X127.15 Y154.83
G1 X127.32 Y154.68
G1 X127.49 Y154.59
G1 X127.69 Y154.55
G1 X127.91 Y154.56
G1 X128.13 Y154.63
G1 X128.29 Y154.74
G1 X128.42 Y154.9
G1 X128.51 Y155.07
G1 X128.56 Y155.29
G1 X128.54 Y155.49
G1 X128.48 Y155.68
G1 X128.38 Y155.85
G1 X128.23 Y155.99
G1 X128.15 Y156.03
G1 X127.4 Y155.18 F7800
; TYPE:WALL-INNER
G1 X127.46 Y155.09 E46.056 F3780
G1 X127.55 Y155.01 E46.062
G1 X127.63 Y154.97 E46.066
G1 X127.72 Y154.95 E46.07
G1 X127.83 E46.075
G1 X127.95 Y154.99 E46.08
G1 X128.02 Y155.05 E46.084
G1 X128.09 Y155.12 E46.088
G1 X128.13 Y155.21 E46.092
G1 X128.15 Y155.32 E46.097
G1 Y155.42 E46.102
G1 X128.12 Y155.51 E46.106
G1 X128.06 Y155.59 E46.11
G1 X127.99 Y155.66 E46.114
G1 X127.91 Y155.71 E46.119
G1 X127.81 Y155.73 E46.123
G1 X127.71 E46.127
G1 X127.61 Y155.71 E46.132
G1 X127.53 Y155.66 E46.136
G1 X127.46 Y155.59 E46.14
G1 X127.4 Y155.51 E46.145
G1 X127.37 Y155.42 E46.149
G1 Y155.31 E46.154
G1 X127.39 Y155.22 E46.158
G1 X127.4 Y155.18
G1 E45.158 F1800
G1 X130.26 Y154.42 F7800
; TYPE:WALL-OUTER
G1 E46.158 F1800
G1 X130.27 Y154.11 E46.171 F2430
G1 X130.37 Y153.89 E46.182
G1 Y153.67 E46.191
G1 X130.33 Y153.36 E46.205
G1 X130.43 Y153.02 E46.22
G1 X130.51 Y152.54 E46.241
G1 X130.65 Y152 E46.266
G1 X130.67 Y151.58 E46.284
G1 X130.84 Y150.9 E46.315
G1 X131.15 Y150.6 E46.334
G1 X131.46 Y150.43 E46.349
G1 X131.74 E46.361
G1 X132.2 Y150.6 E46.383
G1 X132.54 Y150.2 E46.405
G1 X132.68 Y149.9 E46.42
G1 X132.93 Y149.65 E46.435
G1 X133.14 Y149.68 E46.445
G1 X133.34 Y149.89 E46.457
G1 X133.36 Y149.99 E46.461
G1 X133.56 Y150.05 E46.471
G1 X133.79 Y149.98 E46.481
G1 Y149.94 E46.483
G1 X134.01 Y149.88 E46.493
G1 X134.12 Y149.5 E46.51
G1 X134.39 Y149.29 E46.525
G1 X134.63 Y149.24 E46.535
G1 X135.37 Y149.75 E46.575
G1 X135.73 Y149.56 E46.592
G1 X135.97 Y149.66 E46.603
G1 X136.03 E46.606
G1 X136.22 Y149.83 E46.617
G1 X136.29 Y150.11 E46.629
G1 X136.67 Y150.62 E46.657
G1 X137.13 Y150.75 E46.678
G1 X137.4 Y150.92 E46.692
G1 X137.45 Y151.13 E46.701
G1 X137.5 Y151.23 E46.706
G1 X137.57 Y151.55 E46.721
G1 Y152.24 E46.751
G1 X137.48 Y154.03 E46.829
G1 X137.41 Y154.31 E46.841
G1 X137.37 Y154.75 E46.86
G1 X137.31 Y155.11 E46.876
G1 X137.16 Y155.83 E46.908
G1 X136.95 Y156.53 E46.94
G1 X136.56 Y157.6 E46.99
G1 X136.34 Y157.96 E47.008
G1 X136.05 Y158.29 E47.027
G1 X135.67 Y158.63 E47.049
G1 X135.28 Y158.93 E47.071
G1 X134.94 Y159.1 E47.087
G1 X134.66 Y159.22 E47.101
G1 X134.39 Y159.29 E47.113
G1 X133.95 Y159.36 E47.132
G1 X133.61 Y159.38 E47.147
G1 X133.27 Y159.37 E47.162
G1 X132.91 Y159.31 E47.178
G1 X132.58 Y159.18 E47.193
G1 X132.29 Y159.04 E47.207
G1 X131.88 Y158.77 E47.228
G1 X131.62 Y158.57 E47.243
G1 X131.21 Y158.15 E47.268
G1 X130.85 Y157.61 E47.297
G1 X130.66 Y157.24 E47.315
G1 X130.52 Y156.76 E47.337
G1 X130.46 Y156.2 E47.361
G1 X130.38 Y155.83 E47.377
G1 X130.26 Y154.46 E47.437
G1 Y154.42
G1 X130.27 Y154.11
G1 X130.37 Y153.89
G1 Y153.67
G1 X130.33 Y153.36
G1 X130.43 Y153.02
G1 X130.51 Y152.54
G1 X130.65 Y152
G1 X130.67 Y151.58
G1 X130.69 Y151.49
G1 X130.66 Y154.41 F7800
; TYPE:WALL-INNER
G1 X130.67 Y154.21 E47.446 F3780
G1 X130.77 Y153.97 E47.457
G1 Y153.64 E47.472
G1 X130.74 Y153.4 E47.482
G1 X130.82 Y153.11 E47.495
G1 X130.9 Y152.62 E47.517
G1 X131.05 Y152.06 E47.542
G1 X131.07 Y151.64 E47.56
G1 X131.2 Y151.11 E47.585
G1 X131.39 Y150.92 E47.596
G1 X131.56 Y150.83 E47.605
G1 X131.67 E47.609
G1 X132.33 Y151.07 E47.64
G1 X132.88 Y150.42 E47.677
G1 X132.99 Y150.18 E47.689
G1 X133.02 Y150.3 E47.694
G1 X133.42 Y150.42 E47.712
G1 X133.56 Y150.47 E47.719 F2400
G1 X134.18 Y150.28 E47.747
G1 Y150.24 E47.749
G1 X134.34 Y150.19 E47.756
G1 X134.39 Y150 E47.765
G1 X134.47 Y149.73 E47.777 F3780
G1 X134.55 Y149.67 E47.781
G1 X135.08 Y150.04 E47.81
G1 X135.35 Y150.22 E47.823 F2400
G1 X135.5 Y150.14 E47.831
G1 X135.76 Y150 E47.844 F3780
G1 X135.86 Y150.05 E47.849
G1 X135.92 Y150.28 E47.859
G1 X136.16 Y150.61 E47.877
G1 X136.38 Y150.91 E47.893 F2400
G1 X136.43 Y150.97 E47.896 F3780
G1 X136.97 Y151.12 E47.921
G1 X137.05 Y151.18 E47.925
G1 X137.12 Y151.36 E47.933
G1 X137.17 Y151.6 E47.944
G1 Y152.25 E47.972
G1 X137.09 Y153.97 E48.048
G1 X137.02 Y154.24 E48.06
G1 X136.97 Y154.7 E48.08
G1 X136.92 Y155.04 E48.095
G1 X136.77 Y155.73 E48.126
G1 X136.57 Y156.39 E48.156
G1 X136.2 Y157.43 E48.203
G1 X136.02 Y157.72 E48.219
G1 X135.77 Y158.01 E48.235
G1 X135.42 Y158.32 E48.255
G1 X135.07 Y158.59 E48.275
G1 X134.77 Y158.74 E48.289
G1 X134.53 Y158.84 E48.3
G1 X134.31 Y158.9 E48.311
G1 X133.91 Y158.96 E48.328
G1 X133.6 Y158.98 E48.342
G1 X133.31 Y158.97 E48.354
G1 X133.02 Y158.92 E48.367
G1 X132.74 Y158.82 E48.38
G1 X132.49 Y158.69 E48.392
G1 X132.11 Y158.44 E48.412
G1 X131.88 Y158.27 E48.424
G1 X131.52 Y157.9 E48.447
G1 X131.19 Y157.41 E48.472
G1 X131.04 Y157.1 E48.488
G1 X130.92 Y156.67 E48.507
G1 X130.85 Y156.14 E48.53
G1 X130.78 Y155.79 E48.546
G1 X130.66 Y154.45 E48.605
G1 Y154.41
G1 X131.03 Y154.22 F7800
; TYPE:FILL
G1 X135.01 Y158.2 E48.85 F4860
G1 X135.32 Y157.95 F7800
G1 X131.11 Y153.74 E49.109 F4860
G1 X131.15 Y153.21 F7800
G1 X135.61 Y157.67 E49.384 F4860
G1 X135.85 Y157.34 F7800
G1 X131.23 Y152.73 E49.668 F4860
G1 X131.34 Y152.27 F7800
G1 X136.01 Y156.94 E49.956 F4860
G1 X136.16 Y156.53 F7800
G1 X131.4 Y151.76 E50.249 F4860
G1 X131.5 Y151.3 F7800
G1 X136.3 Y156.1 E50.545 F4860
G1 X136.43 Y155.67 F7800
G1 X132.13 Y151.36 E50.81 F4860
G1 X132.6 Y151.27 F7800
G1 X136.53 Y155.2 E51.052 F4860
G1 X136.62 Y154.72 F7800
G1 X134.45 Y152.55 E51.186 F4860
G1 X133.68 Y151.78 E51.233 F2400
G1 X132.86 Y150.96 E51.284 F4860
G1 X133.16 Y150.7 F7800
G1 X133.78 Y151.32 E51.322 F4860
G1 X134.88 Y152.41 E51.389 F2400
G1 X136.68 Y154.22 E51.5 F4860
G1 X136.76 Y153.73 F7800
G1 X135.19 Y152.16 E51.597 F4860
G1 X134.11 Y151.08 E51.663 F2400
G1 X133.78 Y150.75 E51.683 F4860
G1 X134.22 Y150.63 F7800
G1 X134.53 Y150.93 E51.702 F4860
G1 X135.38 Y151.78 E51.755 F2400
G1 X136.78 Y153.19 E51.841 F4860
G1 X136.81 Y152.65 F7800
G1 X135.44 Y151.28 E51.925 F4860
G1 X135.3 Y151.14 E51.934 F2400
G1 X134.61 Y150.45 E51.976 F4860
G1 X135.33 Y150.61 F7800
G1 X136.83 Y152.1 E52.068 F4860
G1 X136.8 Y151.51 F7800
G1 X136.69 Y151.4 E52.075 F4860
G1 X131.03 Y154.79 F7800
G1 X134.66 Y158.42 E52.298 F4860
G1 X134.24 Y158.56 F7800
G1 X131.09 Y155.41 E52.492 F4860
G1 X131.18 Y156.07 F7800
G1 X133.74 Y158.63 E52.65 F4860
G1 X133.14 Y158.59 F7800
G1 X131.29 Y156.75 E52.764 F4860
; Layer Change GCode
; LAYER:2
; LAYER_HEIGHT:0.25
; TYPE:FILL
G1 E51.764 F1800
G1 X132.24 Y150.45 Z0.8 F7800
; TYPE:WALL-OUTER
G1 E52.764 F1800
G1 X132.41 Y150.24 E52.775 F2182
G1 X132.63 Y149.76 E52.798
G1 X132.85 Y149.55 E52.811
G1 X133.2 Y149.56 E52.827
G1 X133.32 Y149.61 E52.832
G1 X133.52 Y149.83 E52.845
G1 X133.82 Y149.71 E52.86
G1 X133.86 Y149.6 E52.864
G1 X134.04 Y149.53 E52.873
G1 X134.2 Y149.41 E52.882
G1 X134.39 Y149.19 E52.894
G1 X134.65 Y149.15 E52.906
G1 X134.81 Y149.19 E52.913
G1 X135.37 Y149.61 E52.944
G1 X135.53 Y149.53 E52.952
G1 X135.75 Y149.46 E52.962
G1 X136.1 Y149.54 E52.977
G1 X136.3 Y149.74 E52.989
G1 X136.34 Y150.17 E53.008
G1 X136.59 Y150.37 E53.022
G1 X136.71 Y150.54 E53.031
G1 X136.96 Y150.58 E53.042
G1 X137.14 Y150.64 E53.05
G1 X137.46 Y150.86 E53.067
G1 X137.61 Y151.3 E53.087
G1 Y151.62 E53.101
G1 X137.56 Y152.34 E53.133
G1 X137.46 Y152.96 E53.16
G1 X137.44 Y153.51 E53.184
G1 X137.48 Y153.71 E53.193
G1 X137.47 Y154.04 E53.207
G1 X137.45 Y154.11 E53.211
G1 X137.36 Y155 E53.249
G1 X137.21 Y155.83 E53.286
G1 X137.11 Y156.2 E53.303
G1 X136.67 Y157.59 E53.366
G1 X136.6 Y157.76 E53.374
G1 X136.32 Y158.24 E53.398
G1 X136.02 Y158.58 E53.418
G1 X135.64 Y158.93 E53.441
G1 X135.27 Y159.2 E53.461
G1 X134.94 Y159.39 E53.477
G1 X134.74 Y159.47 E53.487
G1 X134.25 Y159.63 E53.509
G1 X133.91 Y159.7 E53.524
G1 X133.58 Y159.73 E53.539
G1 X133.24 Y159.71 E53.553
G1 X132.92 Y159.64 E53.568
G1 X132.69 Y159.54 E53.579
G1 X132.58 Y159.51 E53.584
G1 X132.19 Y159.32 E53.603
G1 X132.02 Y159.16 E53.613
G1 X131.88 Y159.08 E53.62
G1 X131.58 Y158.82 E53.637
G1 X131.24 Y158.46 E53.658
G1 X131.1 Y158.29 E53.668
G1 X130.84 Y157.88 E53.689
G1 X130.73 Y157.62 E53.702
G1 X130.65 Y157.35 E53.714
G1 X130.6 Y157.25 E53.719
G1 X130.52 Y156.94 E53.733
G1 X130.38 Y155.86 E53.78
G1 X130.28 Y154.75 E53.828
G1 X130.21 Y154.44 E53.843
G1 X130.16 Y154.06 E53.859
G1 X130.17 Y153.78 E53.871
G1 X130.2 Y153.72 E53.874
G1 X130.19 Y153.64 E53.878
G1 X130.41 Y152.74 E53.918
G1 X130.54 Y151.84 E53.958
G1 X130.75 Y150.88 E54
G1 X130.83 Y150.77 E54.006
G1 X131.08 Y150.55 E54.021
G1 X131.51 Y150.34 E54.042
G1 X131.78 Y150.32 E54.053
G1 X132.01 Y150.37 E54.064
G1 X132.2 Y150.43 E54.072
G1 X132.24 Y150.45
G1 X132.41 Y150.24
G1 X132.63 Y149.76
G1 X132.85 Y149.55
G1 X133.2 Y149.56
G1 X133.32 Y149.61
G1 X133.52 Y149.83
G1 X133.82 Y149.71
G1 X133.86 Y149.6
G1 X134.04 Y149.53
G1 X134.2 Y149.41
G1 X134.39 Y149.19
G1 X131.91 Y150.75 F7800
; TYPE:WALL-INNER
G1 X132.36 Y150.92 E54.093 F3394
G1 X132.75 Y150.46 E54.12
G1 X132.96 Y150 E54.142
G1 X133 Y149.96 E54.144
G1 X133.09 E54.148
G1 X133.42 Y150.31 E54.169
G1 X134.14 Y150.01 E54.203
G1 X134.18 Y149.9 E54.208
G1 X134.24 Y149.88 E54.211
G1 X134.48 Y149.7 E54.224
G1 X134.6 Y149.56 E54.232
G1 X134.63 E54.233
G1 X135.33 Y150.09 E54.272
G1 X135.68 Y149.9 E54.289
G1 X135.78 Y149.87 E54.293
G1 X135.89 Y149.9 E54.298
G1 X135.91 Y149.93 E54.3
G1 X135.96 Y150.37 E54.319
G1 X136.29 Y150.65 E54.338
G1 X136.48 Y150.91 E54.352
G1 X136.87 Y150.97 E54.369
G1 X136.96 Y151 E54.373
G1 X137.13 Y151.12 E54.382
G1 X137.21 Y151.35 E54.393
G1 Y151.6 E54.404
G1 X137.16 Y152.29 E54.434
G1 X137.06 Y152.92 E54.462
G1 X137.04 Y153.53 E54.488
G1 X137.07 Y153.74 E54.497
G1 Y153.98 E54.508
G1 X136.97 Y154.94 E54.55
G1 X136.82 Y155.75 E54.586
G1 X136.73 Y156.09 E54.601
G1 X136.3 Y157.44 E54.663
G1 X136.24 Y157.58 E54.669
G1 X135.99 Y158 E54.691
G1 X135.73 Y158.3 E54.708
G1 X135.39 Y158.62 E54.728
G1 X135.06 Y158.86 E54.746
G1 X134.76 Y159.03 E54.761
G1 X134.6 Y159.1 E54.769
G1 X134.14 Y159.25 E54.79
G1 X133.85 Y159.31 E54.803
G1 X133.58 Y159.33 E54.815
G1 X133.3 Y159.31 E54.827
G1 X133.04 Y159.26 E54.838
G1 X132.82 Y159.16 E54.849
G1 X132.72 Y159.13 E54.853
G1 X132.42 Y158.99 E54.868
G1 X132.26 Y158.83 E54.878
G1 X132.12 Y158.75 E54.885
G1 X131.85 Y158.52 E54.9
G1 X131.54 Y158.19 E54.92
G1 X131.43 Y158.06 E54.927
G1 X131.2 Y157.7 E54.946
G1 X131.1 Y157.47 E54.957
G1 X131.02 Y157.2 E54.969
G1 X130.97 Y157.1 E54.974
G1 X130.91 Y156.87 E54.984
G1 X130.78 Y155.83 E55.03
G1 X130.68 Y154.69 E55.08
G1 X130.6 Y154.37 E55.094
G1 X130.56 Y154.04 E55.109
G1 X130.57 Y153.88 E55.115
G1 X130.61 Y153.79 E55.12
G1 X130.6 Y153.66 E55.125
G1 X130.8 Y152.81 E55.163
G1 X130.93 Y151.92 E55.203
G1 X131.13 Y151.04 E55.242
G1 X131.3 Y150.89 E55.252
G1 X131.61 Y150.73 E55.267
G1 X131.75 E55.273
G1 X131.87 Y150.75 E55.278
G1 X131.91
G1 X131.77 Y151.07 F7800
; TYPE:FILL
G1 X131.38 Y151.46 E55.302 F4364
G1 X131.24 Y152.17 F7800
G1 X132.19 Y151.22 E55.361 F4364
G1 X133.3 Y150.68 F7800
G1 X131.14 Y152.83 E55.493 F4364
G1 X130.97 Y153.57 F7800
G1 X134.18 Y150.36 E55.691 F4364
G1 X134.91 Y150.19 F7800
G1 X130.92 Y154.18 E55.937 F4364
G1 X131.01 Y154.66 F7800
G1 X135.23 Y150.44 E56.197 F4364
G1 X135.67 Y150.57 F7800
G1 X131.06 Y155.18 E56.48 F4364
G1 X131.11 Y155.69 F7800
G1 X135.98 Y150.83 E56.78 F4364
G1 X136.23 Y151.14 F7800
G1 X131.17 Y156.2 E57.091 F4364
G1 X131.23 Y156.7 F7800
G1 X133.94 Y154 E57.258 F4364
G1 X136.65 Y151.29 E57.425
G1 X136.86 Y151.64 F7800
G1 X134.11 Y154.39 E57.594 F4364
G1 X131.36 Y157.14 E57.763
G1 X131.51 Y157.55 F7800
G1 X134.17 Y154.9 E57.927 F4364
G1 X136.82 Y152.24 E58.091
G1 X136.72 Y152.91 F7800
G1 X131.74 Y157.89 E58.398 F4364
G1 X132.01 Y158.19 F7800
G1 X136.7 Y153.49 E58.687 F4364
G1 X136.72 Y154.04 F7800
G1 X132.3 Y158.46 E58.959 F4364
G1 X132.62 Y158.7 F7800
G1 X136.65 Y154.68 E59.207 F4364
G1 X136.55 Y155.35 F7800
G1 X133.02 Y158.88 E59.424 F4364
G1 X133.48 Y158.98 F7800
G1 X136.37 Y156.09 E59.603 F4364
G1 X136.11 Y156.91 F7800
G1 X134.14 Y158.89 E59.724 F4364
G1 E58.724 F1800
G1 X128.49 Y155.67 F7800
; TYPE:WALL-OUTER
G1 E59.724 F1800
G1 X128.39 Y155.84 E59.733 F2182
G1 X128.24 Y155.98 E59.742
G1 X128.07 Y156.08 E59.751
G1 X127.88 Y156.13 E59.759
G1 X127.68 E59.768
G1 X127.48 Y156.09 E59.777
G1 X127.3 Y156 E59.785
G1 X127.16 Y155.86 E59.794
G1 X127.04 Y155.69 E59.803
G1 X126.98 Y155.51 E59.811
G1 X126.96 Y155.29 E59.821
G1 X126.99 Y155.15 E59.827
G1 X127.06 Y154.96 E59.836
G1 X127.18 Y154.8 E59.845
G1 X127.33 Y154.67 E59.854
G1 X127.51 Y154.58 E59.862
G1 X127.71 Y154.54 E59.871
G1 X127.91 Y154.56 E59.88
G1 X128.1 Y154.62 E59.888
G1 X128.27 Y154.73 E59.897
G1 X128.41 Y154.87 E59.906
G1 X128.5 Y155.05 E59.915
G1 X128.55 Y155.25 E59.924
G1 Y155.48 E59.934
G1 X128.5 Y155.63 E59.94
G1 X128.49 Y155.67
G1 X128.39 Y155.84
G1 X128.24 Y155.98
G1 X128.07 Y156.08
G1 X127.88 Y156.13
G1 X127.68
G1 X127.48 Y156.09
G1 X127.3 Y156
G1 X127.16 Y155.86
G1 X127.04 Y155.69
G1 X126.98 Y155.51
G1 X126.96 Y155.29
G1 X126.99 Y155.15
G1 X127.06 Y154.96
G1 X127.18 Y154.8
G1 X127.33 Y154.67
G1 X128.12 Y155.5 F7800
; TYPE:WALL-INNER
G1 X128.07 Y155.59 E59.945 F3394
G1 X128 Y155.66 E59.949
G1 X127.91 Y155.71 E59.953
G1 X127.82 Y155.73 E59.958
G1 X127.72 E59.962
G1 X127.62 Y155.71 E59.966
G1 X127.53 Y155.66 E59.971
G1 X127.46 Y155.6 E59.975
G1 X127.41 Y155.52 E59.979
G1 X127.38 Y155.42 E59.983
G1 X127.37 Y155.25 E59.991
G1 X127.41 Y155.15 E59.996
G1 X127.47 Y155.07 E60
G1 X127.55 Y155.01 E60.004
G1 X127.64 Y154.97 E60.009
G1 X127.74 Y154.95 E60.013
G1 X127.84 E60.017
G1 X127.93 Y154.98 E60.021
G1 X128.01 Y155.04 E60.026
G1 X128.08 Y155.11 E60.03
G1 X128.13 Y155.19 E60.034
G1 X128.15 Y155.3 E60.039
G1 Y155.41 E60.044
G1 X128.13 Y155.46 E60.046
G1 X128.12 Y155.5
G1 E59.046 F1800
G1 X121.25 Y150.14 F7800
; TYPE:WALL-OUTER
G1 E60.046 F1800
G1 X121.74 Y149.56 E60.079 F2182
G1 X121.99 Y149.51 E60.091
G1 X122.16 Y149.55 E60.098
G1 X122.23 Y149.6 E60.102
G1 X122.39 Y149.81 E60.113
G1 X122.47 Y150.04 E60.124
G1 X122.6 Y150.25 E60.135
G1 X122.86 Y150.3 E60.146
G1 X123.05 Y150.39 E60.156
G1 X123.45 Y150.33 E60.173
G1 X123.73 Y150.44 E60.186
G1 X124.05 Y150.66 E60.203
G1 X124.23 Y150.88 E60.215
G1 X124.33 Y151.17 E60.229
G1 X124.46 Y151.85 E60.259
G1 X124.51 Y152.29 E60.279
G1 X124.54 Y152.4 E60.283
G1 X124.58 Y152.65 E60.294
G1 X124.8 Y153.62 E60.338
G1 X124.83 Y154.06 E60.357
G1 X124.78 Y154.49 E60.376
G1 X124.7 Y154.85 E60.392
G1 X124.54 Y156.56 E60.466
G1 X124.52 Y156.63 E60.47
G1 X124.47 Y156.92 E60.483
G1 X124.4 Y157.26 E60.498
G1 X124.34 Y157.42 E60.505
G1 X124.26 Y157.57 E60.513
G1 X124.11 Y157.95 E60.53
G1 X123.99 Y158.15 E60.541
G1 X123.68 Y158.56 E60.563
G1 X123.32 Y158.91 E60.585
G1 X122.97 Y159.2 E60.605
G1 X122.88 Y159.25 E60.609
G1 X122.79 Y159.32 E60.614
G1 X122.47 Y159.5 E60.63
G1 X121.95 Y159.67 E60.654
G1 X121.62 Y159.73 E60.669
G1 X121.29 E60.683
G1 X120.96 Y159.68 E60.697
G1 X120.57 Y159.54 E60.715
G1 X120.32 Y159.48 E60.727
G1 X119.97 Y159.35 E60.743
G1 X119.67 Y159.16 E60.758
G1 X119.26 Y158.85 E60.781
G1 X118.9 Y158.49 E60.803
G1 X118.73 Y158.29 E60.815
G1 X118.52 Y157.99 E60.83
G1 X118.38 Y157.69 E60.845
G1 X118.23 Y157.29 E60.863
G1 X117.99 Y156.54 E60.898
G1 X117.79 Y155.83 E60.93
G1 X117.66 Y155.11 E60.962
G1 X117.53 Y153.96 E61.012
G1 X117.55 Y153.45 E61.034
G1 X117.54 Y153.06 E61.051
G1 X117.44 Y152.23 E61.088
G1 X117.39 Y151.61 E61.115
G1 X117.4 Y151.19 E61.133
G1 X117.47 Y150.96 E61.144
G1 X117.52 Y150.89 E61.147
G1 X117.77 Y150.66 E61.162
G1 X118.07 Y150.53 E61.177
G1 X118.32 Y150.46 E61.188
G1 X118.54 E61.197
G1 X118.64 Y150.2 E61.209
G1 X118.67 Y149.87 E61.224
G1 X118.69 Y149.79 E61.228
G1 X118.86 Y149.57 E61.24
G1 X119.11 Y149.47 E61.251
G1 X119.33 Y149.51 E61.261
G1 X119.64 Y149.53 E61.274
G1 X120.01 Y149.37 E61.292
G1 X120.13 Y149.23 E61.3
G1 X120.24 Y149.17 E61.306
G1 X120.54 Y149.2 E61.318
G1 X120.69 Y149.25 E61.326
G1 X120.79 Y149.3 E61.33
G1 X120.87 Y149.43 E61.337
G1 X120.91 Y149.55 E61.342
G1 X121.23 Y150.11 E61.37
G1 X121.25 Y150.14
G1 X121.74 Y149.56
G1 X121.99 Y149.51
G1 X122.16 Y149.55
G1 X122.23 Y149.6
G1 X122.39 Y149.81
G1 X122.47 Y150.04
G1 X122.6 Y150.25
G1 X122.86 Y150.3
G1 X123.05 Y150.39
G1 X123.45 Y150.33
G1 X123.53 Y150.37
G1 X121.18 Y150.84 F7800
; TYPE:WALL-INNER
G1 X121.97 Y149.92 E61.423 F3394
G1 X122.03 Y149.99 E61.427
G1 X122.1 Y150.21 E61.437
G1 X122.36 Y150.62 E61.458
G1 X122.74 Y150.68 E61.475
G1 X122.98 Y150.8 E61.487
G1 X123.42 Y150.75 E61.506
G1 X123.54 Y150.8 E61.512
G1 X123.77 Y150.95 E61.524
G1 X123.87 Y151.08 E61.531
G1 X123.94 Y151.27 E61.54
G1 X124.06 Y151.9 E61.568
G1 X124.12 Y152.37 E61.588
G1 X124.15 Y152.48 E61.593
G1 X124.19 Y152.73 E61.604
G1 X124.41 Y153.68 E61.647
G1 X124.43 Y154.05 E61.663
G1 X124.38 Y154.43 E61.679
G1 X124.31 Y154.79 E61.696
G1 X124.15 Y156.47 E61.769
G1 X124.01 Y157.15 E61.799
G1 X123.98 Y157.26 E61.804
G1 X123.9 Y157.39 E61.811
G1 X123.75 Y157.77 E61.829
G1 X123.66 Y157.92 E61.836
G1 X123.38 Y158.29 E61.857
G1 X123.06 Y158.61 E61.876
G1 X122.74 Y158.87 E61.894
G1 X122.66 Y158.91 E61.898
G1 X122.56 Y158.99 E61.904
G1 X122.31 Y159.13 E61.916
G1 X121.85 Y159.29 E61.937
G1 X121.59 Y159.33 E61.949
G1 X121.31 E61.961
G1 X121.06 Y159.29 E61.972
G1 X120.68 Y159.16 E61.989
G1 X120.43 Y159.1 E62
G1 X120.15 Y158.99 E62.014
G1 X119.9 Y158.84 E62.026
G1 X119.52 Y158.55 E62.047
G1 X119.19 Y158.22 E62.068
G1 X119.05 Y158.05 E62.077
G1 X118.87 Y157.79 E62.091
G1 X118.6 Y157.16 E62.121
G1 X118.37 Y156.41 E62.155
G1 X118.18 Y155.74 E62.185
G1 X118.05 Y155.06 E62.215
G1 X117.93 Y153.94 E62.264
G1 X117.95 Y153.46 E62.285
G1 X117.94 Y153.04 E62.304
G1 X117.84 Y152.19 E62.341
G1 X117.79 Y151.59 E62.367
G1 Y151.27 E62.381
G1 X117.83 Y151.15 E62.387
G1 X117.99 Y151 E62.396
G1 X118.2 Y150.91 E62.406
G1 X118.37 Y150.86 E62.414
G1 X118.82 E62.433
G1 X119.04 Y150.29 E62.46
G1 X119.06 Y149.97 E62.474
G1 X119.12 Y149.89 E62.478
G1 X119.15 Y149.88 E62.479
G1 X119.28 Y149.91 E62.485
G1 X119.71 Y149.94 E62.504
G1 X120.24 Y149.7 E62.529
G1 X120.36 Y149.58 E62.536
G1 X120.51 Y149.61 E62.543
G1 X120.55 Y149.72 E62.548
G1 X121.16 Y150.8 E62.602
G1 X121.18 Y150.84
G1 X120.96 Y151.13 F7800
; TYPE:FILL
G1 X118.27 Y153.82 E62.768 F4364
G1 X118.31 Y154.35 F7800
G1 X121.99 Y150.67 E62.994 F4364
G1 X122.28 Y150.95 F7800
G1 X118.37 Y154.85 E63.235 F4364
G1 X118.45 Y155.34 F7800
G1 X122.73 Y151.06 E63.499 F4364
G1 X123.25 Y151.11 F7800
G1 X118.55 Y155.81 E63.788 F4364
G1 X118.67 Y156.25 F7800
G1 X123.6 Y151.32 E64.091 F4364
G1 X123.69 Y151.79 F7800
G1 X118.81 Y156.68 E64.392 F4364
G1 X118.95 Y157.1 F7800
G1 X123.76 Y152.29 E64.689 F4364
G1 X123.85 Y152.77 F7800
G1 X119.12 Y157.5 E64.98 F4364
G1 X119.34 Y157.85 F7800
G1 X123.95 Y153.23 E65.264 F4364
G1 X124.06 Y153.69 F7800
G1 X119.6 Y158.15 E65.539 F4364
G1 X119.91 Y158.41 F7800
G1 X124.06 Y154.26 E65.794 F4364
G1 X123.95 Y154.93 F7800
G1 X120.24 Y158.64 E66.023 F4364
G1 X120.65 Y158.8 F7800
G1 X123.89 Y155.56 E66.223 F4364
G1 X123.83 Y156.18 F7800
G1 X121.08 Y158.93 E66.392 F4364
G1 X121.6 Y158.98 F7800
G1 X123.72 Y156.86 E66.523 F4364
G1 X123.27 Y157.87 F7800
G1 X122.61 Y158.54 E66.564 F4364
G1 X118.28 Y153.25 F7800
G1 X120.75 Y150.77 E66.716 F4364
G1 X120.55 Y150.41 F7800
G1 X118.24 Y152.72 E66.858 F4364
G1 X118.19 Y152.21 F7800
G1 X120.34 Y150.05 E66.991 F4364
G1 X119.57 Y150.27 F7800
G1 X119.31 Y150.52 E67.007 F4364
G1 X118.64 Y151.2 F7800
G1 X118.14 Y151.69 E67.037 F4364
G1 E66.037 F1800
G1 X118.94 Y159.8 F7800
G1 X119.75 Y167.92
G1 X120.55 Y176.03
; TYPE:WALL-OUTER
G1 E67.037 F1800
G1 X120.77 Y175.94 E67.047 F2182
G1 X121.09 Y175.72 E67.064
G1 X121.2 Y175.58 E67.071
G1 X121.42 Y175.39 E67.084
G1 X121.64 Y175.31 E67.094
G1 X121.82 Y175.37 E67.103
G1 X121.94 Y175.36 E67.108
G1 X122.48 Y175.62 E67.134
G1 X122.7 Y175.69 E67.144
G1 X123.05 Y175.6 E67.16
G1 X123.37 Y175.68 E67.174
G1 X123.68 Y175.98 E67.193
G1 X124.09 Y176.41 E67.218
G1 X124.44 Y176.4 E67.234
G1 X124.79 Y176.44 E67.249
G1 X124.98 Y176.63 E67.261
G1 X125.04 Y176.75 E67.266
G1 X125.19 Y177.6 E67.304
G1 Y178.69 E67.352
G1 X125.21 Y178.79 E67.356
G1 Y179.03 E67.367
G1 X125.23 Y179.41 E67.383
G1 X125.35 Y180.49 E67.43
G1 X125.36 Y180.85 E67.446
G1 X125.35 Y181.16 E67.46
G1 X125.32 Y181.24 E67.464
G1 X125.29 Y181.52 E67.476
G1 X125.2 Y181.84 E67.49
G1 X125.08 Y182.09 E67.502
G1 X124.38 Y183.2 E67.559
G1 X124.1 Y183.53 E67.578
G1 X123.67 Y183.81 E67.6
G1 X123.37 Y183.97 E67.615
G1 X122.65 Y184.23 E67.649
G1 X122.34 Y184.29 E67.663
G1 X122.02 Y184.3 E67.676
G1 X121.66 Y184.21 E67.693
G1 X121.36 Y184.09 E67.707
G1 X121.13 Y183.94 E67.719
G1 X120.74 Y183.65 E67.74
G1 X120.4 Y183.31 E67.761
G1 X120.02 Y182.78 E67.789
G1 X119.78 Y182.32 E67.812
G1 X119.64 Y182.1 E67.823
G1 X119.15 Y181.13 E67.87
G1 X118.96 Y180.56 E67.896
G1 X118.87 Y180.09 E67.917
G1 X118.81 Y179.1 E67.961
G1 X118.74 Y178.64 E67.981
G1 X118.64 Y178.21 E68
G1 X118.6 Y178.09 E68.006
G1 X118.56 Y177.92 E68.013
G1 Y177.61 E68.027
G1 X118.59 Y177.47 E68.033
G1 X118.87 Y177.16 E68.051
G1 X119.17 Y177.12 E68.064
G1 X119.37 Y177 E68.075
G1 X119.62 Y176.62 E68.094
G1 X119.74 Y176.2 E68.113
G1 X119.89 Y175.96 E68.126
G1 X120.18 Y175.88 E68.139
G1 X120.52 Y176.01 E68.154
G1 X120.55 Y176.03
G1 X120.77 Y175.94
G1 X121.09 Y175.72
G1 X121.2 Y175.58
G1 X121.42 Y175.39
G1 X121.64 Y175.31
G1 X121.82 Y175.37
G1 X121.94 Y175.36
G1 X122.48 Y175.62
G1 X122.7 Y175.69
G1 X123.05 Y175.6
G1 X123.23 Y175.65
G1 X120.55 Y176.46 F7800
; TYPE:WALL-INNER
G1 X120.96 Y176.29 E68.174 F3394
G1 X121.37 Y176.01 E68.195
G1 X121.49 Y175.86 E68.203
G1 X121.62 Y175.74 E68.211
G1 X121.65 Y175.73 E68.213
G1 X121.77 Y175.77 E68.218
G1 X121.86 E68.222
G1 X122.33 Y175.99 E68.245
G1 X122.69 Y176.1 E68.261
G1 X123.05 Y176.01 E68.277
G1 X123.17 Y176.04 E68.282
G1 X123.4 Y176.26 E68.296
G1 X123.91 Y176.81 E68.329
G1 X124.43 Y176.8 E68.351
G1 X124.6 Y176.82 E68.359
G1 X124.65 Y176.88 E68.363
G1 X124.79 Y177.64 E68.396
G1 X124.8 Y178.73 E68.444
G1 X124.81 Y178.82 E68.448
G1 X124.83 Y179.44 E68.475
G1 X124.95 Y180.54 E68.523
G1 X124.96 Y180.84 E68.536
G1 Y181.08 E68.547
G1 X124.93 Y181.15 E68.55
G1 X124.9 Y181.45 E68.563
G1 X124.83 Y181.69 E68.574
G1 X124.73 Y181.9 E68.584
G1 X124.06 Y182.96 E68.638
G1 X123.83 Y183.22 E68.654
G1 X123.46 Y183.47 E68.673
G1 X123.21 Y183.61 E68.685
G1 X122.55 Y183.84 E68.716
G1 X122.29 Y183.89 E68.727
G1 X122.06 Y183.9 E68.737
G1 X121.78 Y183.83 E68.75
G1 X121.55 Y183.74 E68.761
G1 X121.35 Y183.61 E68.771
G1 X121 Y183.35 E68.79
G1 X120.7 Y183.05 E68.809
G1 X120.37 Y182.57 E68.834
G1 X120.12 Y182.12 E68.856
G1 X119.99 Y181.9 E68.868
G1 X119.53 Y180.99 E68.912
G1 X119.35 Y180.47 E68.936
G1 X119.27 Y180.04 E68.955
G1 X119.21 Y179.05 E68.998
G1 X119.14 Y178.58 E69.019
G1 X119.03 Y178.1 E69.04
G1 X118.96 Y177.88 E69.05
G1 Y177.65 E69.06
G1 X119.06 Y177.54 E69.067
G1 X119.31 Y177.51 E69.078
G1 X119.66 Y177.29 E69.095
G1 X119.99 Y176.79 E69.122
G1 X120.11 Y176.37 E69.141
G1 X120.15 Y176.3 E69.144
G1 X120.52 Y176.44 E69.161
G1 X120.55 Y176.46
G1 X120.85 Y176.71 F7800
; TYPE:FILL
G1 X119.39 Y178.16 E69.251 F4364
G1 X119.49 Y178.63 F7800
G1 X121.94 Y176.18 E69.402 F4364
G1 X122.33 Y176.35 F7800
G1 X119.55 Y179.13 E69.573 F4364
G1 X119.59 Y179.66 F7800
G1 X122.83 Y176.41 E69.773 F4364
G1 X123.23 Y176.59 F7800
G1 X119.64 Y180.17 E69.994 F4364
G1 X119.76 Y180.62 F7800
G1 X123.5 Y176.88 E70.224 F4364
G1 X123.79 Y177.15 F7800
G1 X119.93 Y181.02 E70.462 F4364
G1 X120.12 Y181.39 F7800
G1 X124.36 Y177.15 E70.724 F4364
G1 X124.45 Y177.63 F7800
G1 X120.31 Y181.77 E70.979 F4364
G1 X120.51 Y182.13 F7800
G1 X124.45 Y178.19 E71.221 F4364
G1 X124.46 Y178.75 F7800
G1 X120.72 Y182.49 E71.451 F4364
G1 X120.96 Y182.82 F7800
G1 X124.49 Y179.29 E71.668 F4364
G1 X124.53 Y179.81 F7800
G1 X121.24 Y183.1 E71.871 F4364
G1 X121.56 Y183.34 F7800
G1 X124.58 Y180.32 E72.057 F4364
G1 X124.61 Y180.86 F7800
G1 X121.95 Y183.52 E72.221 F4364
G1 X122.56 Y183.47 F7800
G1 X124.52 Y181.51 E72.342 F4364
G1 E71.342 F1800
G1 X134.27 Y176.04 F7800
; TYPE:WALL-OUTER
G1 E72.342 F1800
G1 X134.69 Y175.9 E72.361 F2182
G1 X134.8 Y175.92 E72.366
G1 X134.98 Y175.89 E72.374
G1 X135.11 Y175.97 E72.381
G1 X135.28 Y176.22 E72.394
G1 X135.36 Y176.63 E72.412
G1 X135.5 Y176.92 E72.426
G1 X135.65 Y177.11 E72.437
G1 X136.08 Y177.15 E72.456
G1 X136.34 Y177.34 E72.47
G1 X136.43 Y177.61 E72.482
G1 X136.41 Y177.99 E72.499
G1 X136.2 Y179 E72.544
G1 X136.12 Y180.09 E72.591
G1 X136.06 Y180.44 E72.607
G1 X135.98 Y180.77 E72.621
G1 X135.91 Y180.98 E72.631
G1 X135.57 Y181.7 E72.665
G1 X135.5 Y181.81 E72.671
G1 X135.2 Y182.39 E72.7
G1 X134.93 Y182.87 E72.724
G1 X134.7 Y183.19 E72.741
G1 X134.51 Y183.4 E72.753
G1 X134.15 Y183.74 E72.775
G1 X133.84 Y183.97 E72.792
G1 X133.46 Y184.16 E72.81
G1 X133.21 Y184.26 E72.822
G1 X132.86 Y184.31 E72.837
G1 X132.53 Y184.27 E72.852
G1 X132.27 Y184.21 E72.863
G1 X131.99 Y184.11 E72.876
G1 X131.46 Y183.88 E72.902
G1 X131.26 Y183.77 E72.911
G1 X131.15 Y183.72 E72.917
G1 X130.85 Y183.48 E72.933
G1 X130.42 Y182.9 E72.965
G1 X129.77 Y181.78 E73.022
G1 X129.7 Y181.52 E73.033
G1 X129.65 Y181.19 E73.047
G1 X129.67 Y180.5 E73.078
G1 X129.78 Y179.54 E73.12
G1 X129.82 Y178.3 E73.174
G1 X129.79 Y178.07 E73.184
G1 X129.8 Y177.6 E73.204
G1 X129.9 Y177.02 E73.23
G1 X129.98 Y176.82 E73.239
G1 X130.02 Y176.6 E73.249
G1 X130.09 Y176.5 E73.254
G1 X130.33 Y176.41 E73.265
G1 X130.77 E73.285
G1 X130.94 Y176.32 E73.293
G1 X131.2 Y176.14 E73.307
G1 X131.58 Y175.72 E73.331
G1 X131.79 Y175.61 E73.342
G1 X132.06 Y175.67 E73.354
G1 X132.56 Y175.68 E73.375
G1 X132.95 Y175.41 E73.396
G1 X133.19 Y175.32 E73.407
G1 X133.5 Y175.35 E73.421
G1 X133.84 Y175.61 E73.439
G1 X134.08 Y175.91 E73.456
G1 X134.24 Y176.02 E73.465
G1 X134.27 Y176.04
G1 X134.69 Y175.9
G1 X134.8 Y175.92
G1 X134.98 Y175.89
G1 X135.11 Y175.97
G1 X135.28 Y176.22
G1 X135.36 Y176.63
G1 X135.5 Y176.92
G1 X135.65 Y177.11
G1 X136.08 Y177.15
G1 X136.34 Y177.34
G1 X136.37 Y177.41
G1 X134.2 Y176.49 F7800
; TYPE:WALL-INNER
G1 X134.73 Y176.31 E73.489 F3394
G1 X134.86 E73.495
G1 X134.91 Y176.37 E73.498
G1 X134.97 Y176.75 E73.515
G1 X135.16 Y177.14 E73.533
G1 X135.45 Y177.49 E73.553
G1 X135.93 Y177.54 E73.574
G1 X136.01 Y177.6 E73.579
G1 X136.03 Y177.67 E73.582
G1 X136.02 Y177.93 E73.593
G1 X135.81 Y178.94 E73.638
G1 X135.72 Y180.05 E73.687
G1 X135.67 Y180.36 E73.7
G1 X135.6 Y180.66 E73.714
G1 X135.54 Y180.83 E73.721
G1 X135.23 Y181.5 E73.754
G1 X135.15 Y181.6 E73.759
G1 X134.86 Y182.19 E73.788
G1 X134.58 Y182.66 E73.811
G1 X134.38 Y182.94 E73.827
G1 X134.22 Y183.13 E73.837
G1 X133.89 Y183.43 E73.857
G1 X133.63 Y183.63 E73.871
G1 X133.3 Y183.8 E73.887
G1 X133.11 Y183.87 E73.896
G1 X132.85 Y183.9 E73.908
G1 X132.6 Y183.88 E73.919
G1 X132.38 Y183.82 E73.928
G1 X132.13 Y183.73 E73.94
G1 X131.64 Y183.53 E73.963
G1 X131.44 Y183.41 E73.973
G1 X131.35 Y183.37 E73.977
G1 X131.14 Y183.2 E73.989
G1 X130.74 Y182.67 E74.018
G1 X130.14 Y181.62 E74.071
G1 X130.09 Y181.44 E74.079
G1 X130.05 Y181.16 E74.091
G1 X130.06 Y180.52 E74.119
G1 X130.18 Y179.57 E74.161
G1 X130.22 Y178.27 E74.217
G1 X130.19 Y178.06 E74.227
G1 X130.2 Y177.64 E74.245
G1 X130.29 Y177.12 E74.268
G1 X130.36 Y176.93 E74.277
G1 X130.38 Y176.82 E74.282
G1 X130.87 Y176.81 E74.303
G1 X131.15 Y176.66 E74.317
G1 X131.47 Y176.44 E74.334
G1 X131.85 Y176.04 E74.358
G1 X132.01 Y176.07 E74.365
G1 X132.68 Y176.08 E74.394
G1 X133.14 Y175.77 E74.419
G1 X133.24 Y175.72 E74.423
G1 X133.35 Y175.74 E74.428
G1 X133.56 Y175.9 E74.44
G1 X133.8 Y176.2 E74.456
G1 X134.17 Y176.47 E74.476
G1 X134.2 Y176.49
G1 X134.32 Y176.81 F7800
; TYPE:FILL
G1 X130.4 Y180.73 E74.717 F4364
G1 X130.42 Y181.28 F7800
G1 X134.71 Y176.99 E74.982 F4364
G1 X134.9 Y177.36 F7800
G1 X130.57 Y181.69 E75.248 F4364
G1 X130.78 Y182.05 F7800
G1 X135.15 Y177.67 E75.518 F4364
G1 X135.55 Y177.84 F7800
G1 X130.98 Y182.41 E75.799 F4364
G1 X131.22 Y182.74 F7800
G1 X135.58 Y178.38 E76.067 F4364
G1 X135.46 Y179.07 F7800
G1 X131.48 Y183.04 E76.312 F4364
G1 X131.84 Y183.24 F7800
G1 X135.4 Y179.68 E76.531 F4364
G1 X135.33 Y180.33 F7800
G1 X132.24 Y183.41 E76.721 F4364
G1 X132.68 Y183.54 F7800
G1 X134.96 Y181.26 E76.862 F4364
G1 X134.26 Y182.52 F7800
G1 X133.44 Y183.34 E76.912 F4364
G1 X130.46 Y180.11 F7800
G1 X133.88 Y176.68 E77.123 F4364
G1 X133.56 Y176.44 F7800
G1 X130.52 Y179.48 E77.311 F4364
G1 X130.54 Y178.89 F7800
G1 X133.3 Y176.13 E77.481 F4364
G1 X132.45 Y176.42 F7800
G1 X130.56 Y178.31 E77.597 F4364
G1 X130.54 Y177.76 F7800
G1 X131.39 Y176.91 E77.649 F4364
; Layer Change GCode
; LAYER:3
; LAYER_HEIGHT:0.25
; TYPE:FILL
G1 E76.649 F1800
G1 X134.18 Y175.83 Z1.05 F7800
; TYPE:WALL-OUTER
G1 E77.649 F1800
G1 X134.49 Y175.85 E77.663 F1911
G1 X134.71 Y175.77 E77.673
G1 X134.99 Y175.73 E77.685
G1 X135.25 Y175.89 E77.699
G1 X135.39 Y176.2 E77.713
G1 X135.44 Y176.39 E77.722
G1 X135.46 Y176.57 E77.73
G1 X135.59 Y176.86 E77.744
G1 X135.86 Y176.98 E77.757
G1 X136.09 Y176.99 E77.767
G1 X136.17 Y177.04 E77.771
G1 X136.34 Y177.17 E77.78
G1 X136.46 Y177.49 E77.795
G1 X136.48 Y177.59 E77.8
G1 X136.47 Y177.92 E77.814
G1 X136.4 Y178.25 E77.828
G1 X136.29 Y178.66 E77.847
G1 X136.22 Y179.01 E77.862
G1 X136.16 Y179.95 E77.903
G1 X136.1 Y180.44 E77.925
G1 X135.95 Y180.96 E77.949
G1 X135.75 Y181.49 E77.973
G1 X135.65 Y181.7 E77.983
G1 X135.56 Y181.97 E77.996
G1 X135.33 Y182.42 E78.018
G1 X135.21 Y182.73 E78.032
G1 X134.84 Y183.36 E78.064
G1 X134.52 Y183.72 E78.085
G1 X134.28 Y183.93 E78.099
G1 X133.84 Y184.24 E78.123
G1 X133.5 Y184.43 E78.139
G1 X133.16 Y184.57 E78.155
G1 X132.86 Y184.62 E78.168
G1 X132.52 Y184.6 E78.183
G1 X132.19 Y184.52 E78.198
G1 X131.85 Y184.4 E78.214
G1 X131.58 Y184.27 E78.227
G1 X131.16 Y184.03 E78.248
G1 X130.81 Y183.76 E78.267
G1 X130.49 Y183.37 E78.289
G1 X130.12 Y182.79 E78.319
G1 X129.78 Y182.14 E78.351
G1 X129.71 Y181.9 E78.362
G1 X129.69 Y181.74 E78.369
G1 X129.63 Y181.53 E78.379
G1 X129.61 Y181.2 E78.393
G1 X129.62 Y180.85 E78.408
G1 X129.79 Y179.48 E78.469
G1 X129.81 Y178.36 E78.517
G1 X129.76 Y177.8 E78.542
G1 X129.8 Y177.17 E78.569
G1 X129.91 Y176.58 E78.595
G1 X130.08 Y176.37 E78.607
G1 X130.33 Y176.29 E78.618
G1 X130.78 Y176.3 E78.638
G1 X131.2 Y175.96 E78.662
G1 X131.53 Y175.57 E78.684
G1 X131.8 Y175.45 E78.697
G1 X132.13 Y175.52 E78.711
G1 X132.55 Y175.56 E78.73
G1 X132.94 Y175.29 E78.75
G1 X133.11 Y175.22 E78.758
G1 X133.25 Y175.14 E78.765
G1 X133.52 Y175.15 E78.777
G1 X133.83 Y175.36 E78.793
G1 X133.95 Y175.55 E78.803
G1 X134.16 Y175.8 E78.817
G1 X134.18 Y175.83
G1 X134.49 Y175.85
G1 X134.71 Y175.77
G1 X134.99 Y175.73
G1 X135.25 Y175.89
G1 X135.39 Y176.2
G1 X135.44 Y176.39
G1 X135.46 Y176.57
G1 X135.59 Y176.86
G1 X135.86 Y176.98
G1 X136.09 Y176.99
G1 X136.17 Y177.04
G1 X136.34 Y177.17
G1 X133.99 Y176.22 F7800
; TYPE:WALL-INNER
G1 X134.55 Y176.25 E78.842 F2973
G1 X134.81 Y176.16 E78.854
G1 X134.9 Y176.15 E78.858
G1 X134.94 Y176.17 E78.86
G1 X135.01 Y176.33 E78.868
G1 X135.04 Y176.47 E78.874
G1 X135.07 Y176.68 E78.883
G1 X135.28 Y177.16 E78.906
G1 X135.77 Y177.38 E78.929
G1 X135.97 Y177.39 E78.938
G1 X136.02 Y177.42 E78.941
G1 X136.08 Y177.62 E78.95
G1 X136.07 Y177.88 E78.961
G1 X136.01 Y178.17 E78.974
G1 X135.9 Y178.57 E78.992
G1 X135.83 Y178.96 E79.009
G1 X135.76 Y179.93 E79.051
G1 X135.71 Y180.37 E79.071
G1 X135.58 Y180.84 E79.092
G1 X135.39 Y181.32 E79.115
G1 X135.28 Y181.54 E79.125
G1 X135.19 Y181.81 E79.137
G1 X134.97 Y182.26 E79.159
G1 X134.85 Y182.56 E79.173
G1 X134.51 Y183.13 E79.202
G1 X134.24 Y183.43 E79.22
G1 X134.03 Y183.61 E79.232
G1 X133.62 Y183.91 E79.254
G1 X133.33 Y184.07 E79.269
G1 X133.05 Y184.18 E79.282
G1 X132.84 Y184.22 E79.291
G1 X132.58 Y184.2 E79.302
G1 X132.3 Y184.14 E79.315
G1 X132.01 Y184.03 E79.328
G1 X131.77 Y183.92 E79.34
G1 X131.38 Y183.7 E79.359
G1 X131.09 Y183.47 E79.375
G1 X130.81 Y183.13 E79.394
G1 X130.47 Y182.58 E79.423
G1 X130.15 Y181.99 E79.452
G1 X130.1 Y181.83 E79.459
G1 X130.09 Y181.67 E79.466
G1 X130.03 Y181.46 E79.476
G1 X130.01 Y181.19 E79.488
G1 X130.02 Y180.87 E79.501
G1 X130.19 Y179.51 E79.561
G1 X130.21 Y178.34 E79.612
G1 X130.16 Y177.8 E79.636
G1 X130.2 Y177.22 E79.661
G1 X130.29 Y176.75 E79.682
G1 X130.31 Y176.72 E79.684
G1 X130.38 Y176.7 E79.687
G1 X130.93 E79.711
G1 X131.48 Y176.25 E79.742
G1 X131.78 Y175.9 E79.762
G1 X131.85 Y175.87 E79.765
G1 X132.07 Y175.92 E79.775
G1 X132.65 Y175.97 E79.8
G1 X133.13 Y175.65 E79.825
G1 X133.36 Y175.54 E79.836
G1 X133.4 E79.838
G1 X133.53 Y175.65 E79.845
G1 X133.63 Y175.79 E79.853
G1 X133.96 Y176.19 E79.876
G1 X133.99 Y176.22
G1 X134.14 Y176.57 F7800
; TYPE:FILL
G1 X135.68 Y178.1 E79.97 F3823
G1 X135.55 Y178.55 F7800
G1 X133.09 Y176.08 E80.122 F3823
G1 X132.75 Y176.31 F7800
G1 X135.48 Y179.04 E80.29 F3823
G1 X135.44 Y179.57 F7800
G1 X132.13 Y176.26 E80.493 F3823
G1 X131.76 Y176.45 F7800
G1 X135.4 Y180.09 E80.718 F3823
G1 X135.3 Y180.56 F7800
G1 X131.45 Y176.71 E80.955 F3823
G1 X131.14 Y176.96 F7800
G1 X135.16 Y180.98 E81.202 F3823
G1 X134.99 Y181.37 F7800
G1 X130.65 Y177.04 E81.469 F3823
G1 X130.52 Y177.48 F7800
G1 X134.82 Y181.78 E81.734 F3823
G1 X134.64 Y182.16 F7800
G1 X130.52 Y178.04 E81.987 F3823
G1 X130.54 Y178.63 F7800
G1 X134.46 Y182.54 E82.229 F3823
G1 X134.25 Y182.9 F7800
G1 X130.53 Y179.18 E82.457 F3823
G1 X130.5 Y179.72 F7800
G1 X133.99 Y183.2 E82.672 F3823
G1 X133.67 Y183.45 F7800
G1 X130.44 Y180.22 E82.871 F3823
G1 X130.38 Y180.72 F7800
G1 X133.33 Y183.68 E83.053 F3823
G1 X132.94 Y183.86 F7800
G1 X130.35 Y181.27 E83.212 F3823
G1 X130.56 Y182.04 F7800
G1 X132.3 Y183.78 E83.319 F3823
G1 X134.72 Y176.58 F7800
G1 X134.7 Y176.56 E83.32 F3823
G1 E82.32 F1800
G1 X127.65 Y176.27 F7800
G1 X120.6 Y175.97
; TYPE:WALL-OUTER
G1 E83.32 F1800
G1 X120.83 Y175.7 E83.336 F1911
G1 X121.3 Y175.3 E83.363
G1 X121.4 Y175.18 E83.369
G1 X121.44 Y175.17 E83.371
G1 X121.55 Y175.21 E83.376
G1 X121.91 Y175.2 E83.392
G1 X121.97 Y175.26 E83.395
G1 X122.46 Y175.48 E83.419
G1 X122.69 Y175.56 E83.43
G1 X122.96 Y175.5 E83.441
G1 X123.11 Y175.45 E83.448
G1 X123.36 Y175.49 E83.46
G1 X123.65 Y175.75 E83.476
G1 X123.74 Y175.88 E83.483
G1 X124.07 Y176.27 E83.505
G1 X124.31 Y176.3 E83.516
G1 X124.53 E83.526
G1 X124.81 Y176.32 E83.538
G1 X125.08 Y176.59 E83.554
G1 X125.15 Y176.89 E83.568
G1 X125.23 Y177.46 E83.593
G1 X125.24 Y177.8 E83.608
G1 X125.2 Y178.3 E83.63
G1 Y179.41 E83.678
G1 X125.38 Y180.85 E83.741
G1 X125.39 Y181.19 E83.756
G1 X125.37 Y181.53 E83.771
G1 X125.32 Y181.75 E83.781
G1 X125.31 Y181.87 E83.786
G1 X125.21 Y182.07 E83.796
G1 X125.17 Y182.23 E83.803
G1 X125.09 Y182.42 E83.812
G1 X124.73 Y183.04 E83.843
G1 X124.41 Y183.51 E83.868
G1 X124.19 Y183.76 E83.882
G1 X124.06 Y183.87 E83.89
G1 X123.83 Y184.04 E83.902
G1 X123.35 Y184.31 E83.926
G1 X123.02 Y184.45 E83.942
G1 X122.67 Y184.56 E83.958
G1 X122.35 Y184.62 E83.972
G1 X122.06 Y184.61 E83.985
G1 X121.68 Y184.52 E84.002
G1 X121.38 Y184.37 E84.016
G1 X120.82 Y184 E84.045
G1 X120.42 Y183.65 E84.069
G1 X120.13 Y183.31 E84.088
G1 X119.98 Y183.09 E84.1
G1 X119.64 Y182.41 E84.133
G1 X119.51 Y182.05 E84.15
G1 X119.29 Y181.62 E84.17
G1 X119.1 Y181.13 E84.193
G1 X118.94 Y180.62 E84.217
G1 X118.85 Y180.09 E84.24
G1 X118.77 Y179 E84.288
G1 X118.59 Y178.21 E84.323
G1 X118.54 Y177.93 E84.335
G1 X118.52 Y177.6 E84.35
G1 X118.58 Y177.35 E84.361
G1 X118.78 Y177.13 E84.374
G1 X118.85 Y177.03 E84.379
G1 X118.96 Y177.02 E84.384
G1 X119.27 Y176.9 E84.398
G1 X119.49 Y176.64 E84.413
G1 X119.57 Y176.36 E84.426
G1 X119.6 Y176.18 E84.434
G1 X119.64 Y176.07 E84.439
G1 X119.76 Y175.89 E84.449
G1 X119.85 Y175.82 E84.454
G1 X119.98 Y175.81 E84.459
G1 X120.17 Y175.75 E84.468
G1 X120.57 Y175.95 E84.487
G1 X120.6 Y175.97
G1 X120.83 Y175.7
G1 X121.3 Y175.3
G1 X121.4 Y175.18
G1 X121.44 Y175.17
G1 X121.55 Y175.21
G1 X121.91 Y175.2
G1 X121.97 Y175.26
G1 X122.46 Y175.48
G1 X122.69 Y175.56
G1 X122.96 Y175.5
G1 X123.11 Y175.45
G1 X123.18 Y175.46
G1 X120.14 Y176.18 F7800
; TYPE:WALL-INNER
G1 X120.71 Y176.47 E84.515 F2973
G1 X121.11 Y175.98 E84.543
G1 X121.55 Y175.61 E84.568
G1 X121.78 E84.577
G1 X122.31 Y175.86 E84.603
G1 X122.67 Y175.97 E84.62
G1 X123.07 Y175.89 E84.637
G1 X123.17 Y175.85 E84.642
G1 X123.34 Y176.01 E84.652
G1 X123.42 Y176.12 E84.658
G1 X123.87 Y176.65 E84.688
G1 X124.28 Y176.7 E84.706
G1 X124.63 Y176.71 E84.721
G1 X124.71 Y176.79 E84.726
G1 X124.83 Y177.49 E84.757
G1 X124.84 Y177.79 E84.77
G1 X124.8 Y178.28 E84.792
G1 Y179.43 E84.842
G1 X124.99 Y180.88 E84.906
G1 Y181.19 E84.919
G1 X124.98 Y181.47 E84.931
G1 X124.92 Y181.68 E84.941
G1 X124.91 Y181.76 E84.944
G1 X124.83 Y181.93 E84.953
G1 X124.79 Y182.11 E84.96
G1 X124.74 Y182.23 E84.966
G1 X124.39 Y182.84 E84.997
G1 X124.09 Y183.26 E85.019
G1 X123.91 Y183.47 E85.031
G1 X123.62 Y183.7 E85.047
G1 X123.17 Y183.95 E85.07
G1 X122.88 Y184.08 E85.084
G1 X122.58 Y184.17 E85.097
G1 X122.32 Y184.22 E85.109
G1 X122.11 Y184.21 E85.118
G1 X121.81 Y184.14 E85.131
G1 X121.57 Y184.02 E85.143
G1 X121.06 Y183.68 E85.169
G1 X120.71 Y183.37 E85.19
G1 X120.46 Y183.07 E85.207
G1 X120.32 Y182.88 E85.217
G1 X120.01 Y182.25 E85.248
G1 X119.87 Y181.89 E85.265
G1 X119.66 Y181.46 E85.286
G1 X119.48 Y181 E85.307
G1 X119.33 Y180.52 E85.329
G1 X119.24 Y180.05 E85.35
G1 X119.17 Y178.94 E85.398
G1 X118.98 Y178.12 E85.435
G1 X118.94 Y177.88 E85.446
G1 X118.92 Y177.63 E85.456
G1 X118.94 Y177.54 E85.46
G1 X119.07 Y177.41 E85.468
G1 X119.5 Y177.24 E85.489
G1 X119.85 Y176.83 E85.512
G1 X119.96 Y176.44 E85.53
G1 X120 Y176.25 E85.538
G1 X120.03 Y176.21 E85.54
G1 X120.1 Y176.19 E85.544
G1 X120.14 Y176.18
G1 X120.22 Y176.79 F7800
; TYPE:FILL
G1 X124.65 Y181.22 E85.817 F3823
G1 X124.56 Y181.7 F7800
G1 X122.29 Y179.43 E85.957 F3823
G1 X120.02 Y177.16 E86.096
G1 X119.76 Y177.46 F7800
G1 X122.09 Y179.79 E86.239 F3823
G1 X124.41 Y182.11 E86.382
G1 X124.2 Y182.47 F7800
G1 X121.79 Y180.06 E86.531 F3823
G1 X119.38 Y177.65 E86.679
G1 X119.34 Y178.17 F7800
G1 X121.67 Y180.5 E86.822 F3823
G1 X123.99 Y182.82 E86.965
G1 X123.75 Y183.14 F7800
G1 X119.51 Y178.91 E87.226 F3823
G1 X119.55 Y179.51 F7800
G1 X123.44 Y183.4 E87.466 F3823
G1 X123.08 Y183.61 F7800
G1 X119.6 Y180.13 E87.68 F3823
G1 X119.8 Y180.89 F7800
G1 X122.69 Y183.78 E87.858 F3823
G1 X122.21 Y183.87 F7800
G1 X120.24 Y181.9 E87.979 F3823
G1 X124.61 Y180.61 F7800
G1 X120.84 Y176.84 E88.211 F3823
G1 X121.09 Y176.53 F7800
G1 X124.53 Y179.96 E88.423 F3823
G1 X124.46 Y179.33 F7800
G1 X121.35 Y176.22 E88.614 F3823
G1 X121.66 Y175.96 F7800
G1 X124.46 Y178.77 E88.787 F3823
G1 Y178.21 F7800
G1 X122.54 Y176.28 E88.906 F3823
G1 X123.06 Y176.24 F7800
G1 X123.18 Y176.36 E88.913 F3823
G1 X123.8 Y176.98 F7800
G1 X124.49 Y177.67 E88.956 F3823
G1 E87.956 F1800
G1 X123.68 Y170.75 F7800
G1 X122.87 Y163.84
G1 X122.06 Y156.92
G1 X121.25 Y150
; TYPE:WALL-OUTER
G1 E88.956 F1800
G1 X121.6 Y149.59 E88.979 F1911
G1 X121.67 Y149.54 E88.983
G1 X121.79 E88.988
G1 X122 Y149.48 E88.998
G1 X122.24 Y149.54 E89.009
G1 X122.45 Y149.81 E89.024
G1 X122.58 Y150.23 E89.043
G1 X123.07 Y150.29 E89.064
G1 X123.4 E89.079
G1 X123.72 Y150.41 E89.093
G1 X124.03 Y150.6 E89.109
G1 X124.24 Y150.88 E89.125
G1 X124.26 Y151 E89.13
G1 X124.38 Y151.45 E89.15
G1 X124.46 Y151.82 E89.166
G1 X124.5 Y151.94 E89.172
G1 X124.67 Y153.03 E89.22
G1 X124.83 Y153.72 E89.251
G1 X124.84 Y154.05 E89.265
G1 X124.67 Y154.98 E89.307
G1 X124.58 Y156.21 E89.36
G1 X124.52 Y156.79 E89.385
G1 X124.43 Y157.27 E89.407
G1 X124.34 Y157.59 E89.421
G1 X124.2 Y157.96 E89.438
G1 X124.01 Y158.31 E89.456
G1 X123.65 Y158.78 E89.481
G1 X123.3 Y159.14 E89.504
G1 X122.93 Y159.45 E89.524
G1 X122.68 Y159.61 E89.537
G1 X122.31 Y159.75 E89.554
G1 X121.97 Y159.82 E89.57
G1 X121.82 Y159.84 E89.577
G1 X121.38 E89.595
G1 X121.27 Y159.86 E89.6
G1 X121.11 Y159.84 E89.608
G1 X120.4 Y159.71 E89.639
G1 X120.34 E89.641
G1 X119.93 Y159.51 E89.661
G1 X119.6 Y159.32 E89.678
G1 X119.47 Y159.19 E89.686
G1 X119.22 Y159.01 E89.699
G1 X118.88 Y158.65 E89.721
G1 X118.52 Y158.16 E89.747
G1 X118.26 Y157.59 E89.774
G1 X117.95 Y156.54 E89.822
G1 X117.76 Y155.84 E89.854
G1 X117.65 Y155.12 E89.886
G1 X117.56 Y154.06 E89.932
G1 X117.57 Y153.73 E89.946
G1 X117.61 Y153.59 E89.952
G1 X117.64 Y153.23 E89.968
G1 Y152.94 E89.981
G1 X117.59 Y152.79 E89.988
G1 X117.56 Y152.56 E89.998
G1 X117.5 Y152.37 E90.007
G1 X117.4 Y151.73 E90.035
G1 X117.38 Y151.19 E90.058
G1 X117.47 Y150.91 E90.071
G1 X117.77 Y150.61 E90.09
G1 X118.22 Y150.4 E90.111
G1 X118.59 Y150.3 E90.128
G1 X118.63 Y149.8 E90.15
G1 X118.85 Y149.52 E90.165
G1 X119.12 Y149.42 E90.178
G1 X119.49 Y149.5 E90.194
G1 X119.97 Y149.29 E90.217
G1 X120.23 Y149.15 E90.23
G1 X120.32 E90.234
G1 X120.7 Y149.23 E90.251
G1 X120.78 Y149.29 E90.255
G1 X120.87 Y149.44 E90.263
G1 X120.99 Y149.56 E90.27
G1 X121.23 Y149.97 E90.291
G1 X121.25 Y150
G1 X121.6 Y149.59
G1 X121.67 Y149.54
G1 X121.79
G1 X122 Y149.48
G1 X122.24 Y149.54
G1 X122.45 Y149.81
G1 X122.58 Y150.23
G1 X123.07 Y150.29
G1 X123.4
G1 X123.57 Y150.35
G1 X121.84 Y149.93 F7800
; TYPE:WALL-INNER
G1 X122 Y149.89 E90.298 F2973
G1 X122.09 Y150 E90.304
G1 X122.27 Y150.59 E90.331
G1 X123.05 Y150.69 E90.365
G1 X123.34 E90.377
G1 X123.54 Y150.77 E90.387
G1 X123.75 Y150.9 E90.398
G1 X123.86 Y151.04 E90.405
G1 X124 Y151.55 E90.428
G1 X124.07 Y151.92 E90.445
G1 X124.11 Y152.02 E90.45
G1 X124.28 Y153.11 E90.497
G1 X124.43 Y153.78 E90.528
G1 X124.44 Y154.02 E90.538
G1 X124.27 Y154.93 E90.578
G1 X124.18 Y156.19 E90.633
G1 X124.12 Y156.72 E90.657
G1 X124.04 Y157.18 E90.677
G1 X123.95 Y157.47 E90.69
G1 X123.84 Y157.79 E90.705
G1 X123.67 Y158.09 E90.72
G1 X123.35 Y158.52 E90.743
G1 X123.03 Y158.85 E90.763
G1 X122.69 Y159.13 E90.782
G1 X122.5 Y159.25 E90.792
G1 X122.19 Y159.36 E90.806
G1 X121.8 Y159.44 E90.824
G1 X121.35 E90.843
G1 X121.25 Y159.45 E90.848
G1 X120.43 Y159.31 E90.884
G1 X120.12 Y159.16 E90.899
G1 X119.84 Y159 E90.913
G1 X119.73 Y158.89 E90.92
G1 X119.48 Y158.7 E90.933
G1 X119.18 Y158.39 E90.952
G1 X118.87 Y157.96 E90.975
G1 X118.64 Y157.45 E91
G1 X118.34 Y156.44 E91.046
G1 X118.15 Y155.75 E91.077
G1 X118.04 Y155.07 E91.107
G1 X117.96 Y154.05 E91.151
G1 X117.97 Y153.79 E91.163
G1 X118.01 Y153.66 E91.168
G1 X118.05 Y153.24 E91.187
G1 X118.03 Y152.88 E91.203
G1 X117.98 Y152.71 E91.21
G1 X117.95 Y152.48 E91.22
G1 X117.89 Y152.28 E91.229
G1 X117.8 Y151.68 E91.256
G1 X117.78 Y151.25 E91.275
G1 X117.82 Y151.12 E91.28
G1 X118 Y150.94 E91.291
G1 X118.36 Y150.78 E91.309
G1 X118.97 Y150.61 E91.336
G1 X119.02 Y149.95 E91.365
G1 X119.09 Y149.86 E91.37
G1 X119.15 Y149.84 E91.373
G1 X119.53 Y149.92 E91.39
G1 X120.14 Y149.65 E91.419
G1 X120.33 Y149.55 E91.428
G1 X120.49 Y149.59 E91.435
G1 X120.55 Y149.69 E91.44
G1 X120.67 Y149.81 E91.448
G1 X121.18 Y150.7 E91.492
G1 X121.82 Y149.96 E91.535
G1 X121.84 Y149.93
G1 X121.73 Y150.58 F7800
; TYPE:FILL
G1 X122 Y150.85 E91.551 F3823
G1 X123.88 Y152.73 E91.667
G1 X123.76 Y152.04 F7800
G1 X122.7 Y150.99 E91.732 F3823
G1 X123.33 Y151.05 F7800
G1 X123.57 Y151.29 E91.746 F3823
G1 X121.47 Y150.88 F7800
G1 X124 Y153.42 E91.902 F3823
G1 X124.09 Y154.07 F7800
G1 X121.2 Y151.19 E92.08 F3823
G1 X120.89 Y150.87 F7800
G1 X120.07 Y150.05 E92.13 F3823
G1 X119.68 Y150.22 F7800
G1 X124 Y154.54 E92.396 F3823
G1 X123.92 Y155.04 F7800
G1 X121.62 Y152.74 E92.538 F3823
G1 X119.32 Y150.43 E92.68
G1 X119.21 Y150.89 F7800
G1 X121.55 Y153.23 E92.824 F3823
G1 X123.89 Y155.56 E92.968
G1 X123.85 Y156.09 F7800
G1 X121.31 Y153.56 E93.124 F3823
G1 X118.77 Y151.02 E93.28
G1 X118.35 Y151.16 F7800
G1 X121.07 Y153.88 E93.448 F3823
G1 X123.79 Y156.6 E93.615
G1 X123.71 Y157.09 F7800
G1 X120.92 Y154.3 E93.787 F3823
G1 X118.13 Y151.51 E93.959
G1 X118.21 Y152.15 F7800
G1 X120.89 Y154.83 E94.124 F3823
G1 X123.57 Y157.51 E94.289
G1 X123.39 Y157.9 F7800
G1 X120.88 Y155.39 E94.444 F3823
G1 X118.37 Y152.88 E94.598
G1 Y153.44 F7800
G1 X120.76 Y155.83 E94.745 F3823
G1 X123.15 Y158.22 E94.892
G1 X122.88 Y158.51 F7800
G1 X120.59 Y156.23 E95.033 F3823
G1 X118.3 Y153.94 E95.173
G1 X118.34 Y154.55 F7800
G1 X122.58 Y158.78 E95.434 F3823
G1 X122.22 Y158.99 F7800
G1 X118.4 Y155.17 E95.669 F3823
G1 X118.53 Y155.87 F7800
G1 X121.76 Y159.1 E95.868 F3823
G1 X121.2 F7800
G1 X118.75 Y156.66 E96.018 F3823
G1 X119.04 Y157.5 F7800
G1 X120.5 Y158.96 E96.108 F3823
G1 E95.108 F1800
G1 X127.04 Y155.68 F7800
; TYPE:WALL-OUTER
G1 E96.108 F1800
G1 X126.98 Y155.49 E96.117 F1911
G1 X126.96 Y155.28 E96.126
G1 X127 Y155.09 E96.134
G1 X127.09 Y154.91 E96.143
G1 X127.22 Y154.76 E96.152
G1 X127.38 Y154.64 E96.161
G1 X127.57 Y154.57 E96.169
G1 X127.77 Y154.54 E96.178
G1 X127.96 Y154.57 E96.187
G1 X128.15 Y154.64 E96.195
G1 X128.31 Y154.76 E96.204
G1 X128.44 Y154.92 E96.213
G1 X128.52 Y155.1 E96.222
G1 X128.56 Y155.3 E96.23
G1 X128.54 Y155.49 E96.239
G1 X128.48 Y155.68 E96.248
G1 X128.38 Y155.85 E96.256
G1 X128.23 Y155.99 E96.265
G1 X128.05 Y156.08 E96.274
G1 X127.86 Y156.13 E96.282
G1 X127.66 E96.291
G1 X127.47 Y156.08 E96.3
G1 X127.29 Y155.99 E96.309
G1 X127.15 Y155.85 E96.317
G1 X127.06 Y155.71 E96.324
G1 X127.04 Y155.68
G1 X126.98 Y155.49
G1 X126.96 Y155.28
G1 X127 Y155.09
G1 X127.09 Y154.91
G1 X127.22 Y154.76
G1 X127.38 Y154.64
G1 X127.57 Y154.57
G1 X127.77 Y154.54
G1 X127.96 Y154.57
G1 X128.15 Y154.64
G1 X128.31 Y154.76
G1 X128.44 Y154.92
G1 X128.52 Y155.1
G1 X128.56 Y155.3
G1 X128.54 Y155.49
G1 X127.4 Y155.51 F7800
; TYPE:WALL-INNER
G1 X127.37 Y155.42 E96.329 F2973
G1 Y155.31 E96.333
G1 X127.38 Y155.22 E96.337
G1 X127.43 Y155.13 E96.342
G1 X127.5 Y155.05 E96.346
G1 X127.57 Y155 E96.35
G1 X127.67 Y154.96 E96.355
G1 X127.77 Y154.95 E96.359
G1 X127.86 Y154.96 E96.363
G1 X127.95 Y154.99 E96.367
G1 X128.03 Y155.05 E96.372
G1 X128.09 Y155.13 E96.376
G1 X128.14 Y155.22 E96.38
G1 X128.15 Y155.32 E96.385
G1 Y155.42 E96.389
G1 X128.12 Y155.51 E96.393
G1 X128.06 Y155.59 E96.398
G1 X127.99 Y155.66 E96.402
G1 X127.91 Y155.71 E96.406
G1 X127.81 Y155.73 E96.411
G1 X127.71 E96.415
G1 X127.61 Y155.71 E96.419
G1 X127.53 Y155.66 E96.424
G1 X127.46 Y155.59 E96.428
G1 X127.43 Y155.54 E96.43
G1 X127.4 Y155.51
G1 E95.43 F1800
G1 X132.3 Y150.36 F7800
; TYPE:WALL-OUTER
G1 E96.43 F1800
G1 X132.58 Y149.75 E96.46 F1911
G1 X132.64 Y149.67 E96.464
G1 X132.78 Y149.54 E96.472
G1 X132.85 Y149.51 E96.476
G1 X133.2 E96.491
G1 X133.36 Y149.57 E96.498
G1 X133.51 Y149.64 E96.505
G1 X133.76 Y149.67 E96.517
G1 X134.07 Y149.53 E96.531
G1 X134.21 Y149.35 E96.541
G1 X134.39 Y149.18 E96.552
G1 X134.66 Y149.13 E96.564
G1 X134.91 Y149.19 E96.575
G1 X135.34 Y149.56 E96.6
G1 X135.76 Y149.43 E96.619
G1 X136.15 Y149.53 E96.637
G1 X136.33 Y149.71 E96.648
G1 X136.39 Y150.18 E96.669
G1 X136.74 Y150.49 E96.689
G1 X137.17 Y150.61 E96.708
G1 X137.37 Y150.74 E96.719
G1 X137.47 Y150.83 E96.725
G1 X137.62 Y151.2 E96.742
G1 X137.61 Y151.52 E96.756
G1 X137.55 Y152.07 E96.78
G1 X137.48 Y152.36 E96.793
G1 X137.37 Y152.96 E96.819
G1 Y153.28 E96.833
G1 X137.43 Y153.7 E96.852
G1 X137.44 Y154.06 E96.868
G1 X137.36 Y155.08 E96.912
G1 X137.26 Y155.7 E96.939
G1 X137.16 Y156.18 E96.961
G1 X136.84 Y157.25 E97.01
G1 X136.62 Y157.89 E97.039
G1 X136.3 Y158.43 E97.066
G1 X135.99 Y158.78 E97.086
G1 X135.62 Y159.15 E97.109
G1 X135.27 Y159.4 E97.128
G1 X134.95 Y159.58 E97.144
G1 X134.6 Y159.73 E97.161
G1 X134.1 Y159.83 E97.183
G1 X133.76 Y159.86 E97.198
G1 X133.24 Y159.85 E97.221
G1 X132.89 Y159.8 E97.236
G1 X132.57 Y159.71 E97.25
G1 X132.46 Y159.67 E97.256
G1 X132.21 Y159.52 E97.268
G1 X131.99 Y159.37 E97.28
G1 X131.87 Y159.3 E97.286
G1 X131.55 Y159 E97.305
G1 X131.22 Y158.63 E97.326
G1 X130.99 Y158.3 E97.344
G1 X130.88 Y158.12 E97.353
G1 X130.66 Y157.62 E97.377
G1 X130.53 Y157.09 E97.401
G1 X130.44 Y156.44 E97.429
G1 X130.37 Y155.35 E97.477
G1 X130.3 Y154.75 E97.503
G1 X130.15 Y154.05 E97.534
G1 X130.18 Y153.72 E97.549
G1 X130.4 Y152.65 E97.596
G1 X130.52 Y151.85 E97.631
G1 X130.6 Y151.58 E97.644
G1 X130.76 Y150.88 E97.675
G1 X130.94 Y150.64 E97.688
G1 X131.06 Y150.55 E97.695
G1 X131.51 Y150.31 E97.717
G1 X131.8 Y150.28 E97.73
G1 X132.26 Y150.35 E97.75
G1 X132.3 Y150.36
G1 X132.58 Y149.75
G1 X132.64 Y149.67
G1 X132.78 Y149.54
G1 X132.85 Y149.51
G1 X133.2
G1 X133.36 Y149.57
G1 X133.51 Y149.64
G1 X133.76 Y149.67
G1 X134.07 Y149.53
G1 X134.21 Y149.35
G1 X134.39 Y149.18
G1 X134.6 Y149.14
G1 X132.54 Y150.8 F7800
; TYPE:WALL-INNER
G1 X132.94 Y149.93 E97.792 F2973
G1 X132.97 Y149.91 E97.793
G1 X133.13 E97.8
G1 X133.39 Y150.03 E97.813
G1 X133.83 Y150.07 E97.832
G1 X134.31 Y149.86 E97.855
G1 X134.59 Y149.55 E97.873
G1 X134.65 Y149.54 E97.876
G1 X134.72 Y149.56 E97.879
G1 X135.26 Y150.01 E97.91
G1 X135.79 Y149.84 E97.934
G1 X135.95 Y149.89 E97.942
G1 X136.01 Y150.38 E97.963
G1 X136.54 Y150.85 E97.994
G1 X137 Y150.98 E98.015
G1 X137.14 Y151.07 E98.022
G1 X137.22 Y151.27 E98.031
G1 X137.21 Y151.5 E98.041
G1 X137.16 Y152 E98.063
G1 X137.09 Y152.27 E98.075
G1 X136.97 Y152.92 E98.104
G1 Y153.3 E98.121
G1 X137.03 Y153.75 E98.141
G1 X137.04 Y154.05 E98.153
G1 X136.96 Y155.03 E98.196
G1 X136.87 Y155.62 E98.222
G1 X136.77 Y156.09 E98.243
G1 X136.46 Y157.12 E98.29
G1 X136.25 Y157.71 E98.317
G1 X135.97 Y158.2 E98.342
G1 X135.71 Y158.5 E98.359
G1 X135.36 Y158.84 E98.38
G1 X135.06 Y159.07 E98.397
G1 X134.77 Y159.22 E98.411
G1 X134.48 Y159.35 E98.425
G1 X134.03 Y159.44 E98.445
G1 X133.76 Y159.46 E98.457
G1 X133.27 Y159.45 E98.478
G1 X132.98 Y159.41 E98.491
G1 X132.63 Y159.31 E98.507
G1 X132.43 Y159.19 E98.517
G1 X132.2 Y159.03 E98.529
G1 X132.1 Y158.98 E98.534
G1 X131.84 Y158.72 E98.55
G1 X131.53 Y158.38 E98.57
G1 X131.32 Y158.08 E98.586
G1 X131.25 Y157.95 E98.592
G1 X131.04 Y157.48 E98.614
G1 X130.92 Y157.01 E98.635
G1 X130.84 Y156.4 E98.663
G1 X130.77 Y155.31 E98.71
G1 X130.69 Y154.69 E98.737
G1 X130.56 Y154.02 E98.767
G1 X130.58 Y153.77 E98.778
G1 X130.79 Y152.72 E98.825
G1 X130.91 Y151.94 E98.859
G1 X130.99 Y151.68 E98.871
G1 X131.13 Y151.05 E98.899
G1 X131.23 Y150.92 E98.906
G1 X131.28 Y150.88 E98.909
G1 X131.63 Y150.7 E98.926
G1 X131.79 Y150.68 E98.933
G1 X132.5 Y150.8 E98.964
G1 X132.54
G1 X132.85 Y150.95 F7800
; TYPE:FILL
G1 X136.64 Y154.74 E99.198 F3823
G1 X136.58 Y155.25 F7800
G1 X132.47 Y151.14 E99.451 F3823
G1 X131.79 Y151.03 F7800
G1 X134.15 Y153.38 E99.596 F3823
G1 X136.5 Y155.73 E99.741
G1 X136.38 Y156.18 F7800
G1 X133.91 Y153.71 E99.893 F3823
G1 X131.44 Y151.24 E100.045
G1 X131.33 Y151.7 F7800
G1 X133.8 Y154.16 E100.197 F3823
G1 X136.26 Y156.62 E100.349
G1 X136.12 Y157.05 F7800
G1 X133.67 Y154.6 E100.5 F3823
G1 X131.22 Y152.15 E100.651
G1 X131.15 Y152.64 F7800
G1 X133.57 Y155.06 E100.8 F3823
G1 X135.98 Y157.47 E100.948
G1 X135.78 Y157.84 F7800
G1 X133.42 Y155.48 E101.094 F3823
G1 X131.06 Y153.12 E101.239
G1 X130.96 Y153.59 F7800
G1 X133.25 Y155.88 E101.38 F3823
G1 X135.54 Y158.17 E101.521
G1 X135.26 Y158.46 F7800
G1 X130.92 Y154.12 E101.788 F3823
G1 X131.05 Y154.81 F7800
G1 X134.96 Y158.72 E102.029 F3823
G1 X134.6 Y158.93 F7800
G1 X131.11 Y155.44 E102.244 F3823
G1 X131.15 Y156.04 F7800
G1 X134.17 Y159.06 E102.43 F3823
G1 X133.66 Y159.12 F7800
G1 X131.22 Y156.67 E102.58 F3823
G1 X131.38 Y157.4 F7800
G1 X133.05 Y159.07 E102.683 F3823
G1 X136.68 Y154.22 F7800
G1 X133.03 Y150.56 E102.909 F3823
G1 X133.4 Y150.38 F7800
G1 X136.67 Y153.64 E103.11 F3823
G1 X136.63 Y153.04 F7800
G1 X133.98 Y150.38 E103.273 F3823
G1 X134.37 Y150.21 F7800
G1 X136.7 Y152.53 E103.417 F3823
G1 X136.79 Y152.06 F7800
G1 X134.77 Y150.04 E103.541 F3823
G1 X135.56 Y150.27 F7800
G1 X135.67 Y150.38 E103.548 F3823
G1 X136.48 Y151.19 F7800
G1 X136.85 Y151.56 E103.571 F3823
; Layer Change GCode
; LAYER:4
; LAYER_HEIGHT:0.25
; TYPE:FILL
G1 E102.571 F1800
G1 X137.24 Y152.93 Z1.3 F7800
; TYPE:WALL-OUTER
G1 E103.571 F1800
G1 X137.26 Y153.34 E103.589 F1640
G1 X137.35 Y153.69 E103.605
G1 X137.4 Y154.07 E103.621
G1 X137.36 Y154.98 E103.661
G1 X137.3 Y155.45 E103.682
G1 X137.18 Y156.15 E103.713
G1 X136.77 Y157.59 E103.777
G1 X136.65 Y157.91 E103.792
G1 X136.47 Y158.27 E103.81
G1 X136.29 Y158.55 E103.825
G1 X136.04 Y158.86 E103.842
G1 X135.61 Y159.28 E103.868
G1 X135.32 Y159.51 E103.884
G1 X135.01 Y159.69 E103.9
G1 X134.64 Y159.85 E103.918
G1 X134.29 Y159.93 E103.933
G1 X133.97 Y159.98 E103.947
G1 X133.33 E103.975
G1 X132.92 Y159.92 E103.993
G1 X132.59 Y159.83 E104.008
G1 X132.22 Y159.68 E104.025
G1 X131.86 Y159.43 E104.044
G1 X131.48 Y159.06 E104.068
G1 X131.21 Y158.71 E104.087
G1 X130.93 Y158.3 E104.108
G1 X130.82 Y158.09 E104.119
G1 X130.64 Y157.62 E104.141
G1 X130.55 Y157.28 E104.156
G1 X130.51 Y157.04 E104.167
G1 X130.43 Y156.22 E104.202
G1 X130.39 Y155.13 E104.25
G1 X130.35 Y154.75 E104.266
G1 X130.26 Y154.39 E104.283
G1 X130.22 Y154.05 E104.297
G1 X130.24 Y153.72 E104.312
G1 X130.53 Y151.99 E104.388
G1 X130.75 Y151.25 E104.422
G1 X130.83 Y150.87 E104.439
G1 X131.12 Y150.55 E104.457
G1 X131.47 Y150.37 E104.475
G1 X131.82 Y150.29 E104.491
G1 X132.3 Y150.36 E104.511
G1 X132.55 Y149.82 E104.537
G1 X132.71 Y149.6 E104.549
G1 X132.91 Y149.49 E104.559
G1 X133.19 E104.571
G1 X133.51 Y149.6 E104.586
G1 X134.04 Y149.65 E104.61
G1 X134.41 Y149.2 E104.635
G1 X134.66 Y149.15 E104.646
G1 X134.92 Y149.22 E104.657
G1 X135.35 Y149.56 E104.681
G1 X135.76 Y149.43 E104.7
G1 X136.1 Y149.5 E104.715
G1 X136.34 Y149.72 E104.73
G1 X136.43 Y150.18 E104.75
G1 X136.73 Y150.5 E104.769
G1 X137.16 Y150.59 E104.788
G1 X137.46 Y150.84 E104.805
G1 X137.58 Y151.17 E104.82
G1 X137.57 Y151.49 E104.834
G1 X137.53 Y151.86 E104.85
G1 X137.45 Y152.19 E104.865
G1 X137.33 Y152.55 E104.882
G1 X137.25 Y152.89 E104.897
G1 X137.24 Y152.93
G1 X137.26 Y153.34
G1 X137.35 Y153.69
G1 X137.4 Y154.07
G1 X137.36 Y154.98
G1 X137.3 Y155.45
G1 X137.22 Y155.9
G1 X136.83 Y152.89 F7800
; TYPE:WALL-INNER
G1 X136.86 Y153.4 E104.919 F2551
G1 X136.96 Y153.77 E104.936
G1 X137 Y154.09 E104.95
G1 X136.96 Y154.95 E104.987
G1 X136.91 Y155.38 E105.006
G1 X136.78 Y156.07 E105.037
G1 X136.39 Y157.46 E105.1
G1 X136.29 Y157.75 E105.113
G1 X136.13 Y158.06 E105.128
G1 X135.96 Y158.32 E105.142
G1 X135.75 Y158.58 E105.156
G1 X135.35 Y158.98 E105.181
G1 X135.1 Y159.18 E105.195
G1 X134.83 Y159.33 E105.208
G1 X134.51 Y159.47 E105.223
G1 X134.22 Y159.54 E105.237
G1 X133.95 Y159.58 E105.249
G1 X133.35 Y159.57 E105.274
G1 X133.01 Y159.52 E105.29
G1 X132.71 Y159.45 E105.303
G1 X132.41 Y159.33 E105.317
G1 X132.12 Y159.13 E105.332
G1 X131.78 Y158.79 E105.353
G1 X131.53 Y158.47 E105.371
G1 X131.27 Y158.09 E105.391
G1 X131.19 Y157.93 E105.399
G1 X131.02 Y157.5 E105.419
G1 X130.91 Y156.99 E105.442
G1 X130.83 Y156.2 E105.476
G1 X130.79 Y155.1 E105.524
G1 X130.74 Y154.68 E105.542
G1 X130.66 Y154.31 E105.559
G1 X130.62 Y154.04 E105.571
G1 X130.64 Y153.77 E105.583
G1 X130.92 Y152.07 E105.658
G1 X131.13 Y151.35 E105.69
G1 X131.2 Y151.06 E105.703
G1 X131.37 Y150.87 E105.714
G1 X131.6 Y150.75 E105.726
G1 X131.84 Y150.7 E105.736
G1 X132.53 Y150.8 E105.767
G1 X132.9 Y150.02 E105.805
G1 X132.98 Y149.91 E105.81
G1 X133.01 Y149.89 E105.812
G1 X133.12 E105.817
G1 X133.42 Y149.99 E105.831
G1 X134.22 Y150.07 E105.866
G1 X134.63 Y149.57 E105.894
G1 X134.65 Y149.56 E105.895
G1 X134.74 Y149.58 E105.899
G1 X135.26 Y150 E105.928
G1 X135.78 Y149.84 E105.952
G1 X135.91 Y149.87 E105.957
G1 X135.97 Y149.93 E105.961
G1 X136.06 Y150.37 E105.981
G1 X136.53 Y150.86 E106.01
G1 X136.98 Y150.96 E106.03
G1 X137.12 Y151.08 E106.038
G1 X137.18 Y151.24 E106.046
G1 X137.17 Y151.46 E106.056
G1 X137.13 Y151.78 E106.07
G1 X137.07 Y152.09 E106.083
G1 X136.94 Y152.44 E106.099
G1 X136.84 Y152.85 E106.118
G1 X136.83 Y152.89
G1 X136.51 Y153.12 F7800
; TYPE:FILL
G1 X136.17 Y153.47 E106.139 F3281
G1 X135.98 Y153.08 F7800
G1 X136.58 Y152.48 E106.176 F3281
G1 X135.8 Y152.7 F7800
G1 X136.8 Y151.7 E106.237 F3281
G1 X136.69 Y151.24 F7800
G1 X135.65 Y152.28 E106.301 F3281
G1 X135.47 Y152.44 F7800
G1 X135.83 Y152.8 E106.323 F3281
G1 X136.57 Y153.63 F7800
G1 X136.32 Y153.88 E106.339 F3281
G1 X131.14 Y155.35 E106.573
G1 X131.07 Y154.6 F7800
G1 X131.09 Y154.3 E106.581 F3281
G1 X131.14 Y153.96 E106.596
G1 X131.11 Y153.74 F7800
G1 X133.16 Y155.78 E106.722 F3281
G1 X135.2 Y157.82 E106.848
G1 X133.79 Y159.24 E106.934
G1 X133.25 Y159.21 F7800
G1 X134.19 Y158.27 E106.992 F3281
G1 X133.55 Y158.34 F7800
G1 X132.79 Y159.11 E107.04 F3281
G1 X132.41 Y158.92 F7800
G1 X133.04 Y158.29 E107.078 F3281
G1 X132.67 Y158.1 F7800
G1 X132.12 Y158.64 E107.112 F3281
G1 X131.86 Y158.34 F7800
G1 X132.27 Y157.93 E107.137 F3281
G1 X131.99 Y157.64 F7800
G1 X131.63 Y158 E107.16 F3281
G1 X131.44 Y157.63 F7800
G1 X131.7 Y157.36 E107.176 F3281
G1 X132.49 Y154.53 E107.304
G1 X133.28 Y151.69 E107.432
G1 Y151.82 F7800
G1 X134.93 Y150.17 E107.534 F3281
G1 X135.34 Y150.33 F7800
G1 X133.4 Y152.27 E107.654 F3281
G1 X133.63 Y152.61 F7800
G1 X135.73 Y150.5 E107.783 F3281
G1 X136 Y150.8 F7800
G1 X133.94 Y152.87 E107.911 F3281
G1 X134.4 Y152.96 F7800
G1 X136.28 Y151.09 E108.026 F3281
G1 X134.14 Y150.4 F7800
G1 X133.27 Y151.27 E108.079 F3281
G1 X133.62 Y150.35 F7800
G1 X131.14 Y152.84 E108.232 F3281
G1 X131.18 Y153.36 F7800
G1 X131.03 Y153.51 E108.242 F3281
G1 X131.25 Y152.16 F7800
G1 X132.3 Y151.11 E108.306 F3281
G1 X131.79 Y151.05 F7800
G1 X131.48 Y151.37 E108.326 F3281
G1 X131.46 Y157.04 F7800
G1 X131.3 Y157.2 E108.335 F3281
G1 X134.48 Y159.12 F7800
G1 X135.97 Y157.62 E108.427 F3281
G1 X135.89 Y157.14 F7800
G1 X136.22 Y156.8 E108.448 F3281
G1 X136.05 Y156.82 F7800
G1 X136.45 Y155.32 E108.516 F3281
G1 X136.57 F7800
G1 X136.43 Y155.74 E108.525 F3281
G1 X136.27 Y156.19 E108.546
G1 X136.44 Y154.89 F7800
G1 X136.52 Y154.53 E108.557 F3281
G1 X136.66 Y154.11 E108.577
G1 E107.577 F1800
G1 X127.22 Y153.54 F7800
G1 X117.77 Y152.96
; TYPE:WALL-OUTER
G1 E108.577 F1800
G1 X117.48 Y151.9 E108.624 F1640
G1 X117.42 Y151.51 E108.641
G1 X117.41 Y151.19 E108.655
G1 X117.49 Y150.9 E108.668
G1 X117.77 Y150.63 E108.685
G1 X118.13 Y150.45 E108.703
G1 X118.17 Y150.42 E108.705
G1 X118.57 Y150.21 E108.725
G1 X118.61 Y149.8 E108.743
G1 X118.85 Y149.52 E108.759
G1 X119.11 Y149.42 E108.771
G1 X119.48 Y149.51 E108.788
G1 X119.91 Y149.34 E108.808
G1 X120.21 Y149.18 E108.823
G1 X120.52 Y149.17 E108.836
G1 X120.79 Y149.39 E108.852
G1 X121.26 Y149.84 E108.88
G1 X121.65 Y149.54 E108.901
G1 X122.01 Y149.51 E108.917
G1 X122.24 Y149.56 E108.927
G1 X122.44 Y149.81 E108.941
G1 X122.57 Y150.23 E108.96
G1 X123.35 Y150.31 E108.994
G1 X123.7 Y150.45 E109.011
G1 X124.02 Y150.67 E109.028
G1 X124.19 Y150.89 E109.04
G1 X124.29 Y151.37 E109.061
G1 X124.46 Y151.93 E109.087
G1 X124.57 Y152.61 E109.117
G1 X124.77 Y153.72 E109.166
G1 X124.79 Y154.05 E109.18
G1 X124.66 Y154.72 E109.21
G1 X124.61 Y155.1 E109.227
G1 X124.57 Y156.19 E109.274
G1 X124.51 Y156.9 E109.305
G1 X124.45 Y157.23 E109.32
G1 X124.24 Y157.97 E109.353
G1 X124.05 Y158.32 E109.371
G1 X123.84 Y158.65 E109.387
G1 X123.64 Y158.91 E109.402
G1 X123.3 Y159.28 E109.424
G1 X122.9 Y159.6 E109.446
G1 X122.67 Y159.73 E109.457
G1 X122.33 Y159.85 E109.473
G1 X121.97 Y159.94 E109.489
G1 X121.52 E109.509
G1 X121.28 Y159.98 E109.52
G1 X120.67 Y159.87 E109.546
G1 X120.59 Y159.91 E109.55
G1 X120.28 Y159.82 E109.564
G1 X119.94 Y159.67 E109.58
G1 X119.59 Y159.44 E109.599
G1 X119.17 Y159.09 E109.622
G1 X118.85 Y158.73 E109.644
G1 X118.57 Y158.35 E109.664
G1 X118.37 Y157.96 E109.683
G1 X118.22 Y157.58 E109.701
G1 X117.93 Y156.54 E109.748
G1 X117.76 Y155.87 E109.778
G1 X117.66 Y155.13 E109.811
G1 X117.6 Y154.07 E109.857
G1 X117.64 Y153.74 E109.871
G1 X117.73 Y153.38 E109.888
G1 X117.77 Y153 E109.904
G1 Y152.96
G1 X117.48 Y151.9
G1 X117.42 Y151.51
G1 X117.41 Y151.19
G1 X117.49 Y150.9
G1 X117.77 Y150.63
G1 X118.13 Y150.45
