; Generated with MatterSlice 1.0 E0.001 
; filamentDiameter = 1.75 E0.001 
; extrusionWidth = 1 E0.001 
; firstLayerExtrusionWidth = 1 E0.001 
; layerThickness = 1 E0.001 
; firstLayerThickness = 1 E0.001 
; automatic settings before start_gcode E0.001 
G21 ; set units to millimeters E0.001 
M107 ; fan off E0.001 
; settings from start_gcode E0.001 
G28 XY ; home all axes E0.001 
M86 D0 E0.001 
M87 D1 E0.001 
M76 D0 E0.001 
M72 D0 E0.001 
; automatic settings after start_gcode E0.001 
G90 ; use absolute coordinates E0.001 
G92 E0 ; reset the expected extruder position E0.001 
M82 ; use absolute distance for extrusion E0.001 
M78 B1 P80 S4 D0 E0.001 
M78 B2 P2 S0 D0 E0.001 
M78 B3 P2 S0 D0 E0.001 
M78 B4 P2 S0 D0 E0.001 
M78 B5 P2 S0 D0 E0.001 
M78 B6 P2 S0 D0 E0.001 
M78 B7 P2 S0 D0 E0.001 
M78 B8 P2 S0 D0 E0.001 
T0 B1 E0.001 
; Layer count: 1 E0.001 
; Layer Change GCode E0.001 
; LAYER:0 E0.001 
M87 B1 D1 E0.001 
M87 B1 D1 E0.001 
M87 B2 D1 E0.001 
M87 B3 D1 E0.001 
M87 B4 D1 E0.001 
M87 B5 D1 E0.001 
M87 B6 D1 E0.001 
M87 B7 D1 E0.001 
M400 E0.001 
M107 E0.001 
G0 Z2 E0.001 
G0 F4800 X95.5 Y84.5 Z2.5 E0.001 
; TYPE:WALL-OUTER E0.001 
G0 Z0.5 E0.001 
M400 E0.001 
M87 B1 D0 E0.001 
M78 B1 D1 E0.001 
M400 E0.001 
M86 B1 D1 E0.001 
G1 F240 X95.5 Y65.5 E0.001 
G1 X114.5 Y65.5 E0.001 
G1 X114.5 Y84.5 E0.001 
G1 X95.5 Y84.5 E0.001 
M400 E0.001 
M86 B1 D0 E0.001 
G0 F4800 X96.5 Y83.5 E0.001 
; TYPE:WALL-INNER E0.001 
M400 E0.001 
M86 B1 D1 E0.001 
G1 F240 X96.5 Y66.5 E0.001 
G1 X113.5 Y66.5 E0.001 
G1 X113.5 Y83.5 E0.001 
G1 X96.5 Y83.5 E0.001 
M400 E0.001 
M86 B1 D0 E0.001 
G0 Z2.5 E0.001 
G0 F4800 X98.116 Y82.56 E0.001 
; TYPE:BOTTOM-FILL E0.001 
G0 Z0.5 E0.001 
M400 E0.001 
M86 B1 D1 E0.001 
G1 F240 X97.439 Y81.882 E0.001 
M400 E0.001 
M86 B1 D0 E0.001 
G0 F4800 X97.439 Y80.468 E0.001 
M400 E0.001 
M86 B1 D1 E0.001 
G1 F240 X99.53 Y82.56 E0.001 
M400 E0.001 
M86 B1 D0 E0.001 
G0 F4800 X100.945 Y82.56 E0.001 
M400 E0.001 
M86 B1 D1 E0.001 
G1 F240 X97.439 Y79.054 E0.001 
M400 E0.001 
M86 B1 D0 E0.001 
G0 F4800 X97.439 Y77.64 E0.001 
M400 E0.001 
M86 B1 D1 E0.001 
G1 F240 X102.359 Y82.56 E0.001 
M400 E0.001 
M86 B1 D0 E0.001 
G0 F4800 X103.773 Y82.56 E0.001 
M400 E0.001 
M86 B1 D1 E0.001 
G1 F240 X97.439 Y76.226 E0.001 
M400 E0.001 
M86 B1 D0 E0.001 
G0 F4800 X97.439 Y74.811 E0.001 
M400 E0.001 
M86 B1 D1 E0.001 
G1 F240 X105.187 Y82.559 E0.001 
M400 E0.001 
M86 B1 D0 E0.001 
G0 F4800 X106.601 Y82.559 E0.001 
M400 E0.001 
M86 B1 D1 E0.001 
G1 F240 X97.439 Y73.397 E0.001 
M400 E0.001 
M86 B1 D0 E0.001 
G0 F4800 X97.439 Y71.983 E0.001 
M400 E0.001 
M86 B1 D1 E0.001 
G1 F240 X108.015 Y82.559 E0.001 
M400 E0.001 
M86 B1 D0 E0.001 
G0 F4800 X109.429 Y82.559 E0.001 
M400 E0.001 
M86 B1 D1 E0.001 
G1 F240 X97.439 Y70.569 E0.001 
M400 E0.001 
M86 B1 D0 E0.001 
G0 F4800 X97.439 Y69.155 E0.001 
M400 E0.001 
M86 B1 D1 E0.001 
G1 F240 X110.843 Y82.559 E0.001 
M400 E0.001 
M86 B1 D0 E0.001 
G0 F4800 X112.258 Y82.559 E0.001 
M400 E0.001 
M86 B1 D1 E0.001 
G1 F240 X97.439 Y67.74 E0.001 
M400 E0.001 
M86 B1 D0 E0.001 
G0 F4800 X98.552 Y67.439 E0.001 
M400 E0.001 
M86 B1 D1 E0.001 
G1 F240 X112.559 Y81.446 E0.001 
M400 E0.001 
M86 B1 D0 E0.001 
G0 F4800 X112.559 Y80.032 E0.001 
M400 E0.001 
M86 B1 D1 E0.001 
G1 F240 X99.966 Y67.439 E0.001 
M400 E0.001 
M86 B1 D0 E0.001 
G0 F4800 X101.38 Y67.439 E0.001 
M400 E0.001 
M86 B1 D1 E0.001 
G1 F240 X112.559 Y78.618 E0.001 
M400 E0.001 
M86 B1 D0 E0.001 
G0 F4800 X112.559 Y77.204 E0.001 
M400 E0.001 
M86 B1 D1 E0.001 
G1 F240 X102.794 Y67.439 E0.001 
M400 E0.001 
M86 B1 D0 E0.001 
G0 F4800 X104.209 Y67.439 E0.001 
M400 E0.001 
M86 B1 D1 E0.001 
G1 F240 X112.559 Y75.789 E0.001 
M400 E0.001 
M86 B1 D0 E0.001 
G0 F4800 X112.559 Y74.375 E0.001 
M400 E0.001 
M86 B1 D1 E0.001 
G1 F240 X105.624 Y67.44 E0.001 
M400 E0.001 
M86 B1 D0 E0.001 
G0 F4800 X107.038 Y67.44 E0.001 
M400 E0.001 
M86 B1 D1 E0.001 
G1 F240 X112.559 Y72.961 E0.001 
M400 E0.001 
M86 B1 D0 E0.001 
G0 F4800 X112.559 Y71.547 E0.001 
M400 E0.001 
M86 B1 D1 E0.001 
G1 F240 X108.452 Y67.44 E0.001 
M400 E0.001 
M86 B1 D0 E0.001 
G0 F4800 X109.866 Y67.44 E0.001 
M400 E0.001 
M86 B1 D1 E0.001 
G1 F240 X112.559 Y70.132 E0.001 
M400 E0.001 
M86 B1 D0 E0.001 
G0 F4800 X112.559 Y68.718 E0.001 
M400 E0.001 
M86 B1 D1 E0.001 
G1 F240 X111.28 Y67.44 E0.001 
G92 E0 ; reset extrusion E0.001 
M400 E0.001 
M400 E0.001 
M86 B1 D0 E0.001 
M87 B1 D1 E0.001 
T1 B2 E0.001 
G0 F4800 X125.5 Y84.5 E0.001 
; TYPE:WALL-OUTER E0.001 
M400 E0.001 
M87 B2 D0 E0.001 
M78 B2 D1 E0.001 
M400 E0.001 
M86 B2 D1 E0.001 
G1 F1080 X125.5 Y65.5 E0.001 
G1 X144.5 Y65.5 E0.001 
G1 X144.5 Y84.5 E0.001 
G1 X125.5 Y84.5 E0.001 
M400 E0.001 
M86 B2 D0 E0.001 
G0 F4800 X126.5 Y83.5 E0.001 
; TYPE:WALL-INNER E0.001 
M400 E0.001 
M86 B2 D1 E0.001 
G1 F1080 X126.5 Y66.5 E0.001 
G1 X143.5 Y66.5 E0.001 
G1 X143.5 Y83.5 E0.001 
G1 X126.5 Y83.5 E0.001 
M400 E0.001 
M86 B2 D0 E0.001 
G0 Z2.5 E0.001 
G0 F4800 X127.815 Y82.56 E0.001 
; TYPE:BOTTOM-FILL E0.001 
G0 Z0.5 E0.001 
M400 E0.001 
M86 B2 D1 E0.001 
G1 F1080 X127.439 Y82.184 E0.001 
M400 E0.001 
M86 B2 D0 E0.001 
G0 F4800 X127.439 Y80.769 E0.001 
M400 E0.001 
M86 B2 D1 E0.001 
G1 F1080 X129.229 Y82.56 E0.001 
M400 E0.001 
M86 B2 D0 E0.001 
G0 F4800 X130.643 Y82.56 E0.001 
M400 E0.001 
M86 B2 D1 E0.001 
G1 F1080 X127.439 Y79.355 E0.001 
M400 E0.001 
M86 B2 D0 E0.001 
G0 F4800 X127.439 Y77.941 E0.001 
M400 E0.001 
M86 B2 D1 E0.001 
G1 F1080 X132.057 Y82.56 E0.001 
M400 E0.001 
M86 B2 D0 E0.001 
G0 F4800 X133.472 Y82.56 E0.001 
M400 E0.001 
M86 B2 D1 E0.001 
G1 F1080 X127.439 Y76.527 E0.001 
M400 E0.001 
M86 B2 D0 E0.001 
G0 F4800 X127.439 Y75.113 E0.001 
M400 E0.001 
M86 B2 D1 E0.001 
G1 F1080 X134.886 Y82.56 E0.001 
M400 E0.001 
M86 B2 D0 E0.001 
G0 F4800 X136.299 Y82.559 E0.001 
M400 E0.001 
M86 B2 D1 E0.001 
G1 F1080 X127.439 Y73.698 E0.001 
M400 E0.001 
M86 B2 D0 E0.001 
G0 F4800 X127.439 Y72.284 E0.001 
M400 E0.001 
M86 B2 D1 E0.001 
G1 F1080 X137.713 Y82.559 E0.001 
M400 E0.001 
M86 B2 D0 E0.001 
G0 F4800 X139.128 Y82.559 E0.001 
M400 E0.001 
M86 B2 D1 E0.001 
G1 F1080 X127.439 Y70.87 E0.001 
M400 E0.001 
M86 B2 D0 E0.001 
G0 F4800 X127.439 Y69.456 E0.001 
M400 E0.001 
M86 B2 D1 E0.001 
G1 F1080 X140.542 Y82.559 E0.001 
M400 E0.001 
M86 B2 D0 E0.001 
G0 F4800 X141.956 Y82.559 E0.001 
M400 E0.001 
M86 B2 D1 E0.001 
G1 F1080 X127.439 Y68.042 E0.001 
M400 E0.001 
M86 B2 D0 E0.001 
G0 F4800 X128.25 Y67.439 E0.001 
M400 E0.001 
M86 B2 D1 E0.001 
G1 F1080 X142.559 Y81.747 E0.001 
M400 E0.001 
M86 B2 D0 E0.001 
G0 F4800 X142.559 Y80.333 E0.001 
M400 E0.001 
M86 B2 D1 E0.001 
G1 F1080 X129.664 Y67.439 E0.001 
M400 E0.001 
M86 B2 D0 E0.001 
G0 F4800 X131.079 Y67.439 E0.001 
M400 E0.001 
M86 B2 D1 E0.001 
G1 F1080 X142.559 Y78.919 E0.001 
M400 E0.001 
M86 B2 D0 E0.001 
G0 F4800 X142.559 Y77.505 E0.001 
M400 E0.001 
M86 B2 D1 E0.001 
G1 F1080 X132.493 Y67.439 E0.001 
M400 E0.001 
M86 B2 D0 E0.001 
G0 F4800 X133.907 Y67.439 E0.001 
M400 E0.001 
M86 B2 D1 E0.001 
G1 F1080 X142.559 Y76.091 E0.001 
M400 E0.001 
M86 B2 D0 E0.001 
G0 F4800 X142.559 Y74.676 E0.001 
M400 E0.001 
M86 B2 D1 E0.001 
G1 F1080 X135.322 Y67.44 E0.001 
M400 E0.001 
M86 B2 D0 E0.001 
G0 F4800 X136.736 Y67.44 E0.001 
M400 E0.001 
M86 B2 D1 E0.001 
G1 F1080 X142.559 Y73.262 E0.001 
M400 E0.001 
M86 B2 D0 E0.001 
G0 F4800 X142.559 Y71.848 E0.001 
M400 E0.001 
M86 B2 D1 E0.001 
G1 F1080 X138.15 Y67.44 E0.001 
M400 E0.001 
M86 B2 D0 E0.001 
G0 F4800 X139.565 Y67.44 E0.001 
M400 E0.001 
M86 B2 D1 E0.001 
G1 F1080 X142.559 Y70.434 E0.001 
M400 E0.001 
M86 B2 D0 E0.001 
G0 F4800 X142.559 Y69.019 E0.001 
M400 E0.001 
M86 B2 D1 E0.001 
G1 F1080 X140.979 Y67.44 E0.001 
M400 E0.001 
M86 B2 D0 E0.001 
G0 F4800 X142.393 Y67.44 E0.001 
M400 E0.001 
M86 B2 D1 E0.001 
G1 F1080 X142.559 Y67.605 E0.001 
G92 E0 ; reset extrusion E0.001 
M400 E0.001 
M400 E0.001 
M86 B2 D0 E0.001 
M87 B2 D1 E0.001 
T2 B3 E0.001 
G0 F4800 X155.5 Y84.5 E0.001 
; TYPE:WALL-OUTER E0.001 
M400 E0.001 
M87 B3 D0 E0.001 
M78 B3 D1 E0.001 
M400 E0.001 
M86 B3 D1 E0.001 
G1 F1080 X155.5 Y65.5 E0.001 
G1 X174.5 Y65.5 E0.001 
G1 X174.5 Y84.5 E0.001 
G1 X155.5 Y84.5 E0.001 
M400 E0.001 
M86 B3 D0 E0.001 
G0 F4800 X156.5 Y83.5 E0.001 
; TYPE:WALL-INNER E0.001 
M400 E0.001 
M86 B3 D1 E0.001 
G1 F1080 X156.5 Y66.5 E0.001 
G1 X173.5 Y66.5 E0.001 
G1 X173.5 Y83.5 E0.001 
G1 X156.5 Y83.5 E0.001 
M400 E0.001 
M86 B3 D0 E0.001 
G0 F4800 X157.512 Y82.559 E0.001 
; TYPE:BOTTOM-FILL E0.001 
M400 E0.001 
M86 B3 D1 E0.001 
G1 F1080 X157.439 Y82.486 E0.001 
M400 E0.001 
M86 B3 D0 E0.001 
G0 F4800 X157.439 Y81.071 E0.001 
M400 E0.001 
M86 B3 D1 E0.001 
G1 F1080 X158.927 Y82.559 E0.001 
M400 E0.001 
M86 B3 D0 E0.001 
G0 F4800 X160.341 Y82.559 E0.001 
M400 E0.001 
M86 B3 D1 E0.001 
G1 F1080 X157.439 Y79.657 E0.001 
M400 E0.001 
M86 B3 D0 E0.001 
G0 F4800 X157.439 Y78.243 E0.001 
M400 E0.001 
M86 B3 D1 E0.001 
G1 F1080 X161.755 Y82.559 E0.001 
M400 E0.001 
M86 B3 D0 E0.001 
G0 F4800 X163.169 Y82.559 E0.001 
M400 E0.001 
M86 B3 D1 E0.001 
G1 F1080 X157.439 Y76.829 E0.001 
M400 E0.001 
M86 B3 D0 E0.001 
G0 F4800 X157.439 Y75.415 E0.001 
M400 E0.001 
M86 B3 D1 E0.001 
G1 F1080 X164.584 Y82.559 E0.001 
M400 E0.001 
M86 B3 D0 E0.001 
G0 F4800 X165.998 Y82.56 E0.001 
M400 E0.001 
M86 B3 D1 E0.001 
G1 F1080 X157.439 Y74 E0.001 
M400 E0.001 
M86 B3 D0 E0.001 
G0 F4800 X157.439 Y72.586 E0.001 
M400 E0.001 
M86 B3 D1 E0.001 
G1 F1080 X167.413 Y82.56 E0.001 
M400 E0.001 
M86 B3 D0 E0.001 
G0 F4800 X168.827 Y82.56 E0.001 
M400 E0.001 
M86 B3 D1 E0.001 
G1 F1080 X157.439 Y71.172 E0.001 
M400 E0.001 
M86 B3 D0 E0.001 
G0 F4800 X157.439 Y69.758 E0.001 
M400 E0.001 
M86 B3 D1 E0.001 
G1 F1080 X170.241 Y82.56 E0.001 
M400 E0.001 
M86 B3 D0 E0.001 
G0 F4800 X171.655 Y82.56 E0.001 
M400 E0.001 
M86 B3 D1 E0.001 
G1 F1080 X157.439 Y68.343 E0.001 
M400 E0.001 
M86 B3 D0 E0.001 
G0 F4800 X157.949 Y67.44 E0.001 
M400 E0.001 
M86 B3 D1 E0.001 
G1 F1080 X172.559 Y82.049 E0.001 
M400 E0.001 
M86 B3 D0 E0.001 
G0 F4800 X172.559 Y80.635 E0.001 
M400 E0.001 
M86 B3 D1 E0.001 
G1 F1080 X159.364 Y67.44 E0.001 
M400 E0.001 
M86 B3 D0 E0.001 
G0 F4800 X160.778 Y67.44 E0.001 
M400 E0.001 
M86 B3 D1 E0.001 
G1 F1080 X172.559 Y79.221 E0.001 
M400 E0.001 
M86 B3 D0 E0.001 
G0 F4800 X172.559 Y77.807 E0.001 
M400 E0.001 
M86 B3 D1 E0.001 
G1 F1080 X162.192 Y67.44 E0.001 
M400 E0.001 
M86 B3 D0 E0.001 
G0 F4800 X163.606 Y67.44 E0.001 
M400 E0.001 
M86 B3 D1 E0.001 
G1 F1080 X172.559 Y76.392 E0.001 
M400 E0.001 
M86 B3 D0 E0.001 
G0 F4800 X172.559 Y74.978 E0.001 
M400 E0.001 
M86 B3 D1 E0.001 
G1 F1080 X165.02 Y67.439 E0.001 
M400 E0.001 
M86 B3 D0 E0.001 
G0 F4800 X166.434 Y67.439 E0.001 
M400 E0.001 
M86 B3 D1 E0.001 
G1 F1080 X172.559 Y73.564 E0.001 
M400 E0.001 
M86 B3 D0 E0.001 
G0 F4800 X172.559 Y72.15 E0.001 
M400 E0.001 
M86 B3 D1 E0.001 
G1 F1080 X167.848 Y67.439 E0.001 
M400 E0.001 
M86 B3 D0 E0.001 
G0 F4800 X169.262 Y67.439 E0.001 
M400 E0.001 
M86 B3 D1 E0.001 
G1 F1080 X172.559 Y70.736 E0.001 
M400 E0.001 
M86 B3 D0 E0.001 
G0 F4800 X172.559 Y69.321 E0.001 
M400 E0.001 
M86 B3 D1 E0.001 
G1 F1080 X170.677 Y67.439 E0.001 
M400 E0.001 
M86 B3 D0 E0.001 
G0 F4800 X172.091 Y67.439 E0.001 
M400 E0.001 
M86 B3 D1 E0.001 
G1 F1080 X172.559 Y67.907 E0.001 
G92 E0 ; reset extrusion E0.001 
M400 E0.001 
M400 E0.001 
M86 B3 D0 E0.001 
M87 B3 D1 E0.001 
T3 B4 E0.001 
G0 F4800 X185.5 Y84.5 E0.001 
; TYPE:WALL-OUTER E0.001 
M400 E0.001 
M87 B4 D0 E0.001 
M78 B4 D1 E0.001 
M400 E0.001 
M86 B4 D1 E0.001 
G1 F1080 X185.5 Y65.5 E0.001 
G1 X204.5 Y65.5 E0.001 
G1 X204.5 Y84.5 E0.001 
G1 X185.5 Y84.5 E0.001 
M400 E0.001 
M86 B4 D0 E0.001 
G0 F4800 X186.5 Y83.5 E0.001 
; TYPE:WALL-INNER E0.001 
M400 E0.001 
M86 B4 D1 E0.001 
G1 F1080 X186.5 Y66.5 E0.001 
G1 X203.5 Y66.5 E0.001 
G1 X203.5 Y83.5 E0.001 
G1 X186.5 Y83.5 E0.001 
M400 E0.001 
M86 B4 D0 E0.001 
G0 Z2.5 E0.001 
G0 F4800 X188.625 Y82.559 E0.001 
; TYPE:BOTTOM-FILL E0.001 
G0 Z0.5 E0.001 
M400 E0.001 
M86 B4 D1 E0.001 
G1 F1080 X187.439 Y81.373 E0.001 
M400 E0.001 
M86 B4 D0 E0.001 
G0 F4800 X187.439 Y79.958 E0.001 
M400 E0.001 
M86 B4 D1 E0.001 
G1 F1080 X190.039 Y82.559 E0.001 
M400 E0.001 
M86 B4 D0 E0.001 
G0 F4800 X191.454 Y82.559 E0.001 
M400 E0.001 
M86 B4 D1 E0.001 
G1 F1080 X187.439 Y78.544 E0.001 
M400 E0.001 
M86 B4 D0 E0.001 
G0 F4800 X187.439 Y77.13 E0.001 
M400 E0.001 
M86 B4 D1 E0.001 
G1 F1080 X192.868 Y82.559 E0.001 
M400 E0.001 
M86 B4 D0 E0.001 
G0 F4800 X194.282 Y82.559 E0.001 
M400 E0.001 
M86 B4 D1 E0.001 
G1 F1080 X187.439 Y75.716 E0.001 
M400 E0.001 
M86 B4 D0 E0.001 
G0 F4800 X187.439 Y74.302 E0.001 
M400 E0.001 
M86 B4 D1 E0.001 
G1 F1080 X195.697 Y82.56 E0.001 
M400 E0.001 
M86 B4 D0 E0.001 
G0 F4800 X197.111 Y82.56 E0.001 
M400 E0.001 
M86 B4 D1 E0.001 
G1 F1080 X187.439 Y72.887 E0.001 
M400 E0.001 
M86 B4 D0 E0.001 
G0 F4800 X187.439 Y71.473 E0.001 
M400 E0.001 
M86 B4 D1 E0.001 
G1 F1080 X198.525 Y82.56 E0.001 
M400 E0.001 
M86 B4 D0 E0.001 
G0 F4800 X199.94 Y82.56 E0.001 
M400 E0.001 
M86 B4 D1 E0.001 
G1 F1080 X187.439 Y70.059 E0.001 
M400 E0.001 
M86 B4 D0 E0.001 
G0 F4800 X187.439 Y68.645 E0.001 
M400 E0.001 
M86 B4 D1 E0.001 
G1 F1080 X201.354 Y82.56 E0.001 
M400 E0.001 
M86 B4 D0 E0.001 
G0 F4800 X202.559 Y82.351 E0.001 
M400 E0.001 
M86 B4 D1 E0.001 
G1 F1080 X187.648 Y67.44 E0.001 
M400 E0.001 
M86 B4 D0 E0.001 
G0 F4800 X189.062 Y67.44 E0.001 
M400 E0.001 
M86 B4 D1 E0.001 
G1 F1080 X202.559 Y80.936 E0.001 
M400 E0.001 
M86 B4 D0 E0.001 
G0 F4800 X202.559 Y79.522 E0.001 
M400 E0.001 
M86 B4 D1 E0.001 
G1 F1080 X190.476 Y67.44 E0.001 
M400 E0.001 
M86 B4 D0 E0.001 
G0 F4800 X191.891 Y67.44 E0.001 
M400 E0.001 
M86 B4 D1 E0.001 
G1 F1080 X202.559 Y78.108 E0.001 
M400 E0.001 
M86 B4 D0 E0.001 
G0 F4800 X202.559 Y76.694 E0.001 
M400 E0.001 
M86 B4 D1 E0.001 
G1 F1080 X193.305 Y67.44 E0.001 
M400 E0.001 
M86 B4 D0 E0.001 
G0 F4800 X194.719 Y67.44 E0.001 
M400 E0.001 
M86 B4 D1 E0.001 
G1 F1080 X202.559 Y75.28 E0.001 
M400 E0.001 
M86 B4 D0 E0.001 
G0 F4800 X202.559 Y73.865 E0.001 
M400 E0.001 
M86 B4 D1 E0.001 
G1 F1080 X196.133 Y67.439 E0.001 
M400 E0.001 
M86 B4 D0 E0.001 
G0 F4800 X197.547 Y67.439 E0.001 
M400 E0.001 
M86 B4 D1 E0.001 
G1 F1080 X202.559 Y72.451 E0.001 
M400 E0.001 
M86 B4 D0 E0.001 
G0 F4800 X202.559 Y71.037 E0.001 
M400 E0.001 
M86 B4 D1 E0.001 
G1 F1080 X198.961 Y67.439 E0.001 
M400 E0.001 
M86 B4 D0 E0.001 
G0 F4800 X200.375 Y67.439 E0.001 
M400 E0.001 
M86 B4 D1 E0.001 
G1 F1080 X202.559 Y69.623 E0.001 
M400 E0.001 
M86 B4 D0 E0.001 
G0 F4800 X202.559 Y68.208 E0.001 
M400 E0.001 
M86 B4 D1 E0.001 
G1 F1080 X201.789 Y67.439 E0.001 
G92 E0 ; reset extrusion E0.001 
M400 E0.001 
M400 E0.001 
M86 B4 D0 E0.001 
M87 B4 D1 E0.001 
T4 B5 E0.001 
G0 F4800 X95.5 Y114.5 E0.001 
; TYPE:WALL-OUTER E0.001 
M400 E0.001 
M87 B5 D0 E0.001 
M78 B5 D1 E0.001 
M400 E0.001 
M86 B5 D1 E0.001 
G1 F1080 X95.5 Y95.5 E0.001 
G1 X114.5 Y95.5 E0.001 
G1 X114.5 Y114.5 E0.001 
G1 X95.5 Y114.5 E0.001 
M400 E0.001 
M86 B5 D0 E0.001 
G0 F4800 X96.5 Y113.5 E0.001 
; TYPE:WALL-INNER E0.001 
M400 E0.001 
M86 B5 D1 E0.001 
G1 F1080 X96.5 Y96.5 E0.001 
G1 X113.5 Y96.5 E0.001 
G1 X113.5 Y113.5 E0.001 
G1 X96.5 Y113.5 E0.001 
M400 E0.001 
M86 B5 D0 E0.001 
G0 Z2.5 E0.001 
G0 F4800 X98.417 Y112.559 E0.001 
; TYPE:BOTTOM-FILL E0.001 
G0 Z0.5 E0.001 
M400 E0.001 
M86 B5 D1 E0.001 
G1 F1080 X97.44 Y111.582 E0.001 
M400 E0.001 
M86 B5 D0 E0.001 
G0 F4800 X97.44 Y110.167 E0.001 
M400 E0.001 
M86 B5 D1 E0.001 
G1 F1080 X99.831 Y112.559 E0.001 
M400 E0.001 
M86 B5 D0 E0.001 
G0 F4800 X101.245 Y112.559 E0.001 
M400 E0.001 
M86 B5 D1 E0.001 
G1 F1080 X97.44 Y108.753 E0.001 
M400 E0.001 
M86 B5 D0 E0.001 
G0 F4800 X97.44 Y107.339 E0.001 
M400 E0.001 
M86 B5 D1 E0.001 
G1 F1080 X102.659 Y112.559 E0.001 
M400 E0.001 
M86 B5 D0 E0.001 
G0 F4800 X104.074 Y112.559 E0.001 
M400 E0.001 
M86 B5 D1 E0.001 
G1 F1080 X97.44 Y105.925 E0.001 
M400 E0.001 
M86 B5 D0 E0.001 
G0 F4800 X97.439 Y104.51 E0.001 
M400 E0.001 
M86 B5 D1 E0.001 
G1 F1080 X105.488 Y112.559 E0.001 
M400 E0.001 
M86 B5 D0 E0.001 
G0 F4800 X106.902 Y112.559 E0.001 
M400 E0.001 
M86 B5 D1 E0.001 
G1 F1080 X97.439 Y103.096 E0.001 
M400 E0.001 
M86 B5 D0 E0.001 
G0 F4800 X97.439 Y101.681 E0.001 
M400 E0.001 
M86 B5 D1 E0.001 
G1 F1080 X108.316 Y112.559 E0.001 
M400 E0.001 
M86 B5 D0 E0.001 
G0 F4800 X109.73 Y112.559 E0.001 
M400 E0.001 
M86 B5 D1 E0.001 
G1 F1080 X97.439 Y100.267 E0.001 
M400 E0.001 
M86 B5 D0 E0.001 
G0 F4800 X97.439 Y98.853 E0.001 
M400 E0.001 
M86 B5 D1 E0.001 
G1 F1080 X111.145 Y112.559 E0.001 
M400 E0.001 
M86 B5 D0 E0.001 
G0 F4800 X112.559 Y112.559 E0.001 
M400 E0.001 
M86 B5 D1 E0.001 
G1 F1080 X97.439 Y97.439 E0.001 
M400 E0.001 
M86 B5 D0 E0.001 
G0 F4800 X98.853 Y97.439 E0.001 
M400 E0.001 
M86 B5 D1 E0.001 
G1 F1080 X112.559 Y111.145 E0.001 
M400 E0.001 
M86 B5 D0 E0.001 
G0 F4800 X112.559 Y109.73 E0.001 
M400 E0.001 
M86 B5 D1 E0.001 
G1 F1080 X100.267 Y97.439 E0.001 
M400 E0.001 
M86 B5 D0 E0.001 
G0 F4800 X101.681 Y97.439 E0.001 
M400 E0.001 
M86 B5 D1 E0.001 
G1 F1080 X112.559 Y108.316 E0.001 
M400 E0.001 
M86 B5 D0 E0.001 
G0 F4800 X112.559 Y106.902 E0.001 
M400 E0.001 
M86 B5 D1 E0.001 
G1 F1080 X103.096 Y97.439 E0.001 
M400 E0.001 
M86 B5 D0 E0.001 
G0 F4800 X104.51 Y97.439 E0.001 
M400 E0.001 
M86 B5 D1 E0.001 
G1 F1080 X112.559 Y105.488 E0.001 
M400 E0.001 
M86 B5 D0 E0.001 
G0 F4800 X112.559 Y104.074 E0.001 
M400 E0.001 
M86 B5 D1 E0.001 
G1 F1080 X105.925 Y97.44 E0.001 
M400 E0.001 
M86 B5 D0 E0.001 
G0 F4800 X107.339 Y97.44 E0.001 
M400 E0.001 
M86 B5 D1 E0.001 
G1 F1080 X112.559 Y102.659 E0.001 
M400 E0.001 
M86 B5 D0 E0.001 
G0 F4800 X112.559 Y101.245 E0.001 
M400 E0.001 
M86 B5 D1 E0.001 
G1 F1080 X108.753 Y97.44 E0.001 
M400 E0.001 
M86 B5 D0 E0.001 
G0 F4800 X110.167 Y97.44 E0.001 
M400 E0.001 
M86 B5 D1 E0.001 
G1 F1080 X112.559 Y99.831 E0.001 
M400 E0.001 
M86 B5 D0 E0.001 
G0 F4800 X112.559 Y98.417 E0.001 
M400 E0.001 
M86 B5 D1 E0.001 
G1 F1080 X111.582 Y97.44 E0.001 
G92 E0 ; reset extrusion E0.001 
M400 E0.001 
M400 E0.001 
M86 B5 D0 E0.001 
M87 B5 D1 E0.001 
T5 B6 E0.001 
G0 F4800 X125.5 Y114.5 E0.001 
; TYPE:WALL-OUTER E0.001 
M400 E0.001 
M87 B6 D0 E0.001 
M78 B6 D1 E0.001 
M400 E0.001 
M86 B6 D1 E0.001 
G1 F1080 X125.5 Y95.5 E0.001 
G1 X144.5 Y95.5 E0.001 
G1 X144.5 Y114.5 E0.001 
G1 X125.5 Y114.5 E0.001 
M400 E0.001 
M86 B6 D0 E0.001 
G0 F4800 X126.5 Y113.5 E0.001 
; TYPE:WALL-INNER E0.001 
M400 E0.001 
M86 B6 D1 E0.001 
G1 F1080 X126.5 Y96.5 E0.001 
G1 X143.5 Y96.5 E0.001 
G1 X143.5 Y113.5 E0.001 
G1 X126.5 Y113.5 E0.001 
M400 E0.001 
M86 B6 D0 E0.001 
G0 Z2.5 E0.001 
G0 F4800 X128.116 Y112.56 E0.001 
; TYPE:BOTTOM-FILL E0.001 
G0 Z0.5 E0.001 
M400 E0.001 
M86 B6 D1 E0.001 
G1 F1080 X127.439 Y111.882 E0.001 
M400 E0.001 
M86 B6 D0 E0.001 
G0 F4800 X127.439 Y110.468 E0.001 
M400 E0.001 
M86 B6 D1 E0.001 
G1 F1080 X129.53 Y112.56 E0.001 
M400 E0.001 
M86 B6 D0 E0.001 
G0 F4800 X130.944 Y112.56 E0.001 
M400 E0.001 
M86 B6 D1 E0.001 
G1 F1080 X127.439 Y109.054 E0.001 
M400 E0.001 
M86 B6 D0 E0.001 
G0 F4800 X127.439 Y107.64 E0.001 
M400 E0.001 
M86 B6 D1 E0.001 
G1 F1080 X132.359 Y112.56 E0.001 
M400 E0.001 
M86 B6 D0 E0.001 
G0 F4800 X133.773 Y112.56 E0.001 
M400 E0.001 
M86 B6 D1 E0.001 
G1 F1080 X127.439 Y106.225 E0.001 
M400 E0.001 
M86 B6 D0 E0.001 
G0 F4800 X127.439 Y104.812 E0.001 
M400 E0.001 
M86 B6 D1 E0.001 
G1 F1080 X135.187 Y112.56 E0.001 
M400 E0.001 
M86 B6 D0 E0.001 
G0 F4800 X136.601 Y112.56 E0.001 
M400 E0.001 
M86 B6 D1 E0.001 
G1 F1080 X127.439 Y103.398 E0.001 
M400 E0.001 
M86 B6 D0 E0.001 
G0 F4800 X127.439 Y101.983 E0.001 
M400 E0.001 
M86 B6 D1 E0.001 
G1 F1080 X138.015 Y112.56 E0.001 
M400 E0.001 
M86 B6 D0 E0.001 
G0 F4800 X139.43 Y112.56 E0.001 
M400 E0.001 
M86 B6 D1 E0.001 
G1 F1080 X127.439 Y100.569 E0.001 
M400 E0.001 
M86 B6 D0 E0.001 
G0 F4800 X127.439 Y99.155 E0.001 
M400 E0.001 
M86 B6 D1 E0.001 
G1 F1080 X140.844 Y112.56 E0.001 
M400 E0.001 
M86 B6 D0 E0.001 
G0 F4800 X142.258 Y112.56 E0.001 
M400 E0.001 
M86 B6 D1 E0.001 
G1 F1080 X127.439 Y97.741 E0.001 
M400 E0.001 
M86 B6 D0 E0.001 
G0 F4800 X128.552 Y97.44 E0.001 
M400 E0.001 
M86 B6 D1 E0.001 
G1 F1080 X142.559 Y111.447 E0.001 
M400 E0.001 
M86 B6 D0 E0.001 
G0 F4800 X142.559 Y110.032 E0.001 
M400 E0.001 
M86 B6 D1 E0.001 
G1 F1080 X129.966 Y97.44 E0.001 
M400 E0.001 
M86 B6 D0 E0.001 
G0 F4800 X131.381 Y97.44 E0.001 
M400 E0.001 
M86 B6 D1 E0.001 
G1 F1080 X142.559 Y108.618 E0.001 
M400 E0.001 
M86 B6 D0 E0.001 
G0 F4800 X142.559 Y107.204 E0.001 
M400 E0.001 
M86 B6 D1 E0.001 
G1 F1080 X132.795 Y97.44 E0.001 
M400 E0.001 
M86 B6 D0 E0.001 
G0 F4800 X134.209 Y97.44 E0.001 
M400 E0.001 
M86 B6 D1 E0.001 
G1 F1080 X142.559 Y105.79 E0.001 
M400 E0.001 
M86 B6 D0 E0.001 
G0 F4800 X142.559 Y104.375 E0.001 
M400 E0.001 
M86 B6 D1 E0.001 
G1 F1080 X135.623 Y97.44 E0.001 
M400 E0.001 
M86 B6 D0 E0.001 
G0 F4800 X137.038 Y97.44 E0.001 
M400 E0.001 
M86 B6 D1 E0.001 
G1 F1080 X142.559 Y102.961 E0.001 
M400 E0.001 
M86 B6 D0 E0.001 
G0 F4800 X142.559 Y101.546 E0.001 
M400 E0.001 
M86 B6 D1 E0.001 
G1 F1080 X138.452 Y97.44 E0.001 
M400 E0.001 
M86 B6 D0 E0.001 
G0 F4800 X139.866 Y97.44 E0.001 
M400 E0.001 
M86 B6 D1 E0.001 
G1 F1080 X142.559 Y100.132 E0.001 
M400 E0.001 
M86 B6 D0 E0.001 
G0 F4800 X142.559 Y98.718 E0.001 
M400 E0.001 
M86 B6 D1 E0.001 
G1 F1080 X141.28 Y97.44 E0.001 
G92 E0 ; reset extrusion E0.001 
M400 E0.001 
M400 E0.001 
M86 B6 D0 E0.001 
M87 B6 D1 E0.001 
T6 B7 E0.001 
G0 F4800 X155.5 Y114.5 E0.001 
; TYPE:WALL-OUTER E0.001 
M400 E0.001 
M87 B7 D0 E0.001 
M78 B7 D1 E0.001 
M400 E0.001 
M86 B7 D1 E0.001 
G1 F1080 X155.5 Y95.5 E0.001 
G1 X174.5 Y95.5 E0.001 
G1 X174.5 Y114.5 E0.001 
G1 X155.5 Y114.5 E0.001 
M400 E0.001 
M86 B7 D0 E0.001 
G0 F4800 X156.5 Y113.5 E0.001 
; TYPE:WALL-INNER E0.001 
M400 E0.001 
M86 B7 D1 E0.001 
G1 F1080 X156.5 Y96.5 E0.001 
G1 X173.5 Y96.5 E0.001 
G1 X173.5 Y113.5 E0.001 
G1 X156.5 Y113.5 E0.001 
M400 E0.001 
M86 B7 D0 E0.001 
G0 Z2.5 E0.001 
G0 F4800 X157.814 Y112.56 E0.001 
; TYPE:BOTTOM-FILL E0.001 
G0 Z0.5 E0.001 
M400 E0.001 
M86 B7 D1 E0.001 
G1 F1080 X157.438 Y112.183 E0.001 
M400 E0.001 
M86 B7 D0 E0.001 
G0 F4800 X157.438 Y110.769 E0.001 
M400 E0.001 
M86 B7 D1 E0.001 
G1 F1080 X159.229 Y112.56 E0.001 
M400 E0.001 
M86 B7 D0 E0.001 
G0 F4800 X160.643 Y112.56 E0.001 
M400 E0.001 
M86 B7 D1 E0.001 
G1 F1080 X157.438 Y109.355 E0.001 
M400 E0.001 
M86 B7 D0 E0.001 
G0 F4800 X157.438 Y107.941 E0.001 
M400 E0.001 
M86 B7 D1 E0.001 
G1 F1080 X162.057 Y112.56 E0.001 
M400 E0.001 
M86 B7 D0 E0.001 
G0 F4800 X163.471 Y112.56 E0.001 
M400 E0.001 
M86 B7 D1 E0.001 
G1 F1080 X157.438 Y106.527 E0.001 
M400 E0.001 
M86 B7 D0 E0.001 
G0 F4800 X157.438 Y105.112 E0.001 
M400 E0.001 
M86 B7 D1 E0.001 
G1 F1080 X164.885 Y112.56 E0.001 
M400 E0.001 
M86 B7 D0 E0.001 
G0 F4800 X166.3 Y112.56 E0.001 
M400 E0.001 
M86 B7 D1 E0.001 
G1 F1080 X157.439 Y103.699 E0.001 
M400 E0.001 
M86 B7 D0 E0.001 
G0 F4800 X157.439 Y102.285 E0.001 
M400 E0.001 
M86 B7 D1 E0.001 
G1 F1080 X167.714 Y112.56 E0.001 
M400 E0.001 
M86 B7 D0 E0.001 
G0 F4800 X169.128 Y112.56 E0.001 
M400 E0.001 
M86 B7 D1 E0.001 
G1 F1080 X157.439 Y100.87 E0.001 
M400 E0.001 
M86 B7 D0 E0.001 
G0 F4800 X157.439 Y99.456 E0.001 
M400 E0.001 
M86 B7 D1 E0.001 
G1 F1080 X170.542 Y112.56 E0.001 
M400 E0.001 
M86 B7 D0 E0.001 
G0 F4800 X171.957 Y112.56 E0.001 
M400 E0.001 
M86 B7 D1 E0.001 
G1 F1080 X157.439 Y98.042 E0.001 
M400 E0.001 
M86 B7 D0 E0.001 
G0 F4800 X158.251 Y97.44 E0.001 
M400 E0.001 
M86 B7 D1 E0.001 
G1 F1080 X172.559 Y111.748 E0.001 
M400 E0.001 
M86 B7 D0 E0.001 
G0 F4800 X172.559 Y110.334 E0.001 
M400 E0.001 
M86 B7 D1 E0.001 
G1 F1080 X159.665 Y97.44 E0.001 
M400 E0.001 
M86 B7 D0 E0.001 
G0 F4800 X161.079 Y97.44 E0.001 
M400 E0.001 
M86 B7 D1 E0.001 
G1 F1080 X172.559 Y108.919 E0.001 
M400 E0.001 
M86 B7 D0 E0.001 
G0 F4800 X172.559 Y107.505 E0.001 
M400 E0.001 
M86 B7 D1 E0.001 
G1 F1080 X162.493 Y97.44 E0.001 
M400 E0.001 
M86 B7 D0 E0.001 
G0 F4800 X163.908 Y97.44 E0.001 
M400 E0.001 
M86 B7 D1 E0.001 
G1 F1080 X172.559 Y106.091 E0.001 
M400 E0.001 
M86 B7 D0 E0.001 
G0 F4800 X172.558 Y104.676 E0.001 
M400 E0.001 
M86 B7 D1 E0.001 
G1 F1080 X165.322 Y97.44 E0.001 
M400 E0.001 
M86 B7 D0 E0.001 
G0 F4800 X166.736 Y97.44 E0.001 
M400 E0.001 
M86 B7 D1 E0.001 
G1 F1080 X172.558 Y103.262 E0.001 
M400 E0.001 
M86 B7 D0 E0.001 
G0 F4800 X172.558 Y101.848 E0.001 
M400 E0.001 
M86 B7 D1 E0.001 
G1 F1080 X168.15 Y97.44 E0.001 
M400 E0.001 
M86 B7 D0 E0.001 
G0 F4800 X169.564 Y97.44 E0.001 
M400 E0.001 
M86 B7 D1 E0.001 
G1 F1080 X172.558 Y100.433 E0.001 
M400 E0.001 
M86 B7 D0 E0.001 
G0 F4800 X172.558 Y99.019 E0.001 
M400 E0.001 
M86 B7 D1 E0.001 
G1 F1080 X170.979 Y97.44 E0.001 
M400 E0.001 
M86 B7 D0 E0.001 
G0 F4800 X172.393 Y97.44 E0.001 
M400 E0.001 
M86 B7 D1 E0.001 
G1 F1080 X172.558 Y97.605 E0.001 
G92 E0 ; reset extrusion E0.001 
M400 E0.001 
M400 E0.001 
M86 B7 D0 E0.001 
M87 B7 D1 E0.001 
T7 B8 E0.001 
G0 F4800 X185.5 Y114.5 E0.001 
; TYPE:WALL-OUTER E0.001 
M400 E0.001 
M87 B8 D0 E0.001 
M78 B8 D1 E0.001 
M400 E0.001 
M86 B8 D1 E0.001 
G1 F1080 X185.5 Y95.5 E0.001 
G1 X204.5 Y95.5 E0.001 
G1 X204.5 Y114.5 E0.001 
G1 X185.5 Y114.5 E0.001 
M400 E0.001 
M86 B8 D0 E0.001 
G0 F4800 X186.5 Y113.5 E0.001 
; TYPE:WALL-INNER E0.001 
M400 E0.001 
M86 B8 D1 E0.001 
G1 F1080 X186.5 Y96.5 E0.001 
G1 X203.5 Y96.5 E0.001 
G1 X203.5 Y113.5 E0.001 
G1 X186.5 Y113.5 E0.001 
M400 E0.001 
M86 B8 D0 E0.001 
G0 F4800 X187.513 Y112.56 E0.001 
; TYPE:BOTTOM-FILL E0.001 
M400 E0.001 
M86 B8 D1 E0.001 
G1 F1080 X187.439 Y112.486 E0.001 
M400 E0.001 
M86 B8 D0 E0.001 
G0 F4800 X187.439 Y111.072 E0.001 
M400 E0.001 
M86 B8 D1 E0.001 
G1 F1080 X188.927 Y112.56 E0.001 
M400 E0.001 
M86 B8 D0 E0.001 
G0 F4800 X190.341 Y112.56 E0.001 
M400 E0.001 
M86 B8 D1 E0.001 
G1 F1080 X187.439 Y109.658 E0.001 
M400 E0.001 
M86 B8 D0 E0.001 
G0 F4800 X187.439 Y108.243 E0.001 
M400 E0.001 
M86 B8 D1 E0.001 
G1 F1080 X191.756 Y112.56 E0.001 
M400 E0.001 
M86 B8 D0 E0.001 
G0 F4800 X193.17 Y112.56 E0.001 
M400 E0.001 
M86 B8 D1 E0.001 
G1 F1080 X187.439 Y106.829 E0.001 
M400 E0.001 
M86 B8 D0 E0.001 
G0 F4800 X187.439 Y105.415 E0.001 
M400 E0.001 
M86 B8 D1 E0.001 
G1 F1080 X194.584 Y112.56 E0.001 
M400 E0.001 
M86 B8 D0 E0.001 
G0 F4800 X195.998 Y112.56 E0.001 
M400 E0.001 
M86 B8 D1 E0.001 
G1 F1080 X187.439 Y104 E0.001 
M400 E0.001 
M86 B8 D0 E0.001 
G0 F4800 X187.439 Y102.586 E0.001 
M400 E0.001 
M86 B8 D1 E0.001 
G1 F1080 X197.412 Y112.56 E0.001 
M400 E0.001 
M86 B8 D0 E0.001 
G0 F4800 X198.827 Y112.56 E0.001 
M400 E0.001 
M86 B8 D1 E0.001 
G1 F1080 X187.439 Y101.172 E0.001 
M400 E0.001 
M86 B8 D0 E0.001 
G0 F4800 X187.439 Y99.757 E0.001 
M400 E0.001 
M86 B8 D1 E0.001 
G1 F1080 X200.241 Y112.56 E0.001 
M400 E0.001 
M86 B8 D0 E0.001 
G0 F4800 X201.655 Y112.56 E0.001 
M400 E0.001 
M86 B8 D1 E0.001 
G1 F1080 X187.439 Y98.343 E0.001 
M400 E0.001 
M86 B8 D0 E0.001 
G0 F4800 X187.949 Y97.44 E0.001 
M400 E0.001 
M86 B8 D1 E0.001 
G1 F1080 X202.559 Y112.049 E0.001 
M400 E0.001 
M86 B8 D0 E0.001 
G0 F4800 X202.559 Y110.635 E0.001 
M400 E0.001 
M86 B8 D1 E0.001 
G1 F1080 X189.363 Y97.44 E0.001 
M400 E0.001 
M86 B8 D0 E0.001 
G0 F4800 X190.778 Y97.44 E0.001 
M400 E0.001 
M86 B8 D1 E0.001 
G1 F1080 X202.559 Y109.221 E0.001 
M400 E0.001 
M86 B8 D0 E0.001 
G0 F4800 X202.559 Y107.806 E0.001 
M400 E0.001 
M86 B8 D1 E0.001 
G1 F1080 X192.192 Y97.44 E0.001 
M400 E0.001 
M86 B8 D0 E0.001 
G0 F4800 X193.606 Y97.44 E0.001 
M400 E0.001 
M86 B8 D1 E0.001 
G1 F1080 X202.559 Y106.392 E0.001 
M400 E0.001 
M86 B8 D0 E0.001 
G0 F4800 X202.559 Y104.979 E0.001 
M400 E0.001 
M86 B8 D1 E0.001 
G1 F1080 X195.02 Y97.44 E0.001 
M400 E0.001 
M86 B8 D0 E0.001 
G0 F4800 X196.434 Y97.44 E0.001 
M400 E0.001 
M86 B8 D1 E0.001 
G1 F1080 X202.559 Y103.564 E0.001 
M400 E0.001 
M86 B8 D0 E0.001 
G0 F4800 X202.559 Y102.15 E0.001 
M400 E0.001 
M86 B8 D1 E0.001 
G1 F1080 X197.849 Y97.44 E0.001 
M400 E0.001 
M86 B8 D0 E0.001 
G0 F4800 X199.263 Y97.44 E0.001 
M400 E0.001 
M86 B8 D1 E0.001 
G1 F1080 X202.559 Y100.736 E0.001 
M400 E0.001 
M86 B8 D0 E0.001 
G0 F4800 X202.559 Y99.322 E0.001 
M400 E0.001 
M86 B8 D1 E0.001 
G1 F1080 X200.677 Y97.44 E0.001 
M400 E0.001 
M86 B8 D0 E0.001 
G0 F4800 X202.091 Y97.44 E0.001 
M400 E0.001 
M86 B8 D1 E0.001 
G1 F1080 X202.559 Y97.908 E0.001 
M400 E0.001 
M400 E0.001 
M86 B8 D0 E0.001 
M87 B8 D1 E0.001 
M78 H2 E0.001 
M140 S0 E0.001 
G28 XY  ; home X and Y axis E0.001 
M84     ; disable motors E0.001 
; filament used = 315.8 E0.001 
; filament used extruder 1 (mm) = 154.9 E0.001 
; filament used extruder 2 (mm) = 160.8 E0.001 
; total print time (s) = 290 E0.001 
; Element Version 1.7.4 Build francium-87-2 : GCode settings used E0.001 
; Date 07/20/2021 00:00:00 Time 14:16 E0.001 
; numberOfBottomLayers = 1 E0.001 
; numberOfPerimeters = 2 E0.001 
; raftExtraDistanceAroundPart = 5 E0.001 
; numberOfSkirtLoops = 0 E0.001 
; supportInterfaceLayers = 1 E0.001 
; numberOfTopLayers = 1 E0.001 
; numberOfBrimLoops = 0 E0.001 
; outsidePerimeterExtrusionWidth = 0.5 E0.001 
; outsidePerimeterSpeed = 21 E0.001 
; firstLayerSpeed = 18 E0.001 
; raftPrintSpeed = 60 E0.001 
; topInfillSpeed = 50 E0.001 
; firstLayerExtrusionWidth = 0.5 E0.001 
; firstLayerThickness = 1 E0.001 
; beforeToolchangeCode = E0.001 
; endCode = G28 XY  ; home X and Y axis\nM84     ; disable motors E0.001 
; toolChangeCode = E0.001 
; minimumTravelToCauseRetraction = 1.5 E0.001 
; retractionOnTravel = 6 E0.001 
; retractionZHop = 2 E0.001 
; unretractExtraExtrusion = 0 E0.001 
; retractRestartExtraTimeToApply = 0 E0.001 
; retractionSpeed = 30 E0.001 
; bridgeFanSpeedPercent = 100 E0.001 
; bridgeSpeed = 20 E0.001 
; firstLayerToAllowFan = 1 E0.001 
; extrusionMultiplier = 1 E0.001 
; infillStartingAngle = 45 E0.001 
; infillExtendIntoPerimeter = .06 E0.001 
; infillSpeed = 60 E0.001 
; infillType = GRID E0.001 
; layerChangeCode = ; LAYER:[layer_num] E0.001 
; fanSpeedMaxPercent = 100 E0.001 
; minimumExtrusionBeforeRetraction = .1 E0.001 
; fanSpeedMinPercent = 35 E0.001 
; minimumPrintingSpeed = 10 E0.001 
; insidePerimetersSpeed = 30 E0.001 
; raftAirGap = .2 E0.001 
; raftFanSpeedPercent = 100 E0.001 
; retractionOnExtruderSwitch = 6 E0.001 
; unretractExtraOnExtruderSwitch = 0 E0.001 
; skirtDistanceFromObject = 6 E0.001 
; minimumLayerTimeSeconds = 30 E0.001 
; supportAirGap = .3 E0.001 
; supportInfillStartingAngle = 45 E0.001 
; supportPercent = 50 E0.001 
; supportLineSpacing = 2.5 E0.001 
; supportMaterialSpeed = 60 E0.001 
; supportXYDistanceFromObject = 0.7 E0.001 
; supportType = LINES E0.001 
; travelSpeed = 80 E0.001 
; wipeShieldDistanceFromObject = 0 E0.001 
; wipeTowerSize = 0 E0.001 
; zOffset = 0 E0.001 
; bottomClipAmount = 0 E0.001 
; filamentDiameter = 1.75 E0.001 
; layerThickness = 1 E0.001 
; avoidCrossingPerimeters = False E0.001 
; enableRaft = False E0.001 
; outsidePerimetersFirst = True E0.001 
; outputOnlyFirstLayer = False E0.001 
; retractWhenChangingIslands = True E0.001 
; generateSupport = False E0.001 
; generateInternalSupport = True E0.001 
; generateSupportPerimeter = True E0.001 
; wipeAfterRetraction = False E0.001 
; centerObjectInXy = False E0.001 
; expandThinWalls = True E0.001 
; MergeOverlappingLines = True E0.001 
; fillThinGaps = True E0.001 
; continuousSpiralOuterPerimeter = False E0.001 
; positionToPlaceObjectCenter = [150,90] E0.001 
; startCode = ; automatic settings before start_gcode\nG21 ; set units to millimeters\nM107 ; fan off\n; settings from start_gcode\nG28 XY ; home all axes\nM86 D0\nM87 D1\nM76 D0\nM72 D0\n; automatic settings after start_gcode\nG90 ; use absolute coordinates\nG92 E0 ; reset the expected extruder position\nM82 ; use absolute distance for extrusion E0.001 
; infillPercent = 40 E0.001 
; perimeterStartEndOverlapRatio = 1 E0.001 
; skirtMinLength = 0 E0.001 
; supportExtrusionPercent = 100 E0.001 
; raftExtruder = -1 E0.001 
; supportExtruder = 0 E0.001 
; supportInterfaceExtruder = 0 E0.001 
; NewTools = SY:infillpercent=40,infilltype=GRID,infillstartingangle=45,position=1,psi=80,speed=4,width=1^SY:infillpercent=40,infilltype=GRID,infillstartingangle=45,position=2,psi=2,width=1^SY:infillpercent=40,infilltype=GRID,infillstartingangle=45,position=3,psi=2,width=1^SY:infillpercent=40,infilltype=GRID,infillstartingangle=45,position=4,psi=2,width=1^SY:infillpercent=40,infilltype=GRID,infillstartingangle=45,position=5,psi=2,width=1^SY:infillpercent=40,infilltype=GRID,infillstartingangle=45,position=6,psi=2,width=1^SY:infillpercent=40,infilltype=GRID,infillstartingangle=45,position=7,psi=2,width=1^SY:infillpercent=40,infilltype=GRID,infillstartingangle=45,position=8,psi=2,width=1 E0.001 
; ToolSpecificInfill = False E0.001 
 E0.001 