; Generated with MatterSlice 1.0
; filamentDiameter = 1.75
; extrusionWidth = 0.84
; firstLayerExtrusionWidth = 0.84
; layerThickness = 0.4
; firstLayerThickness = 0.4
; automatic settings before start_gcode
G21 ; set units to millimeters
M107 ; fan off
; settings from start_gcode
G28 ; home all axes
M86 D0
M87 D1
M76 D0
M72 D0
; automatic settings after start_gcode
G90 ; use absolute coordinates
G92 E0 ; reset the expected extruder position
M82 ; use absolute distance for extrusion
M78 B7 P3 S4 D0
T0 B7
; Layer count: 28
; Layer Change GCode
; LAYER:0
M87 B7 D1
M400
M107
G0 Z2
G0 F4800 X140.343 Y77.327 Z2.2
; TYPE:WALL-OUTER
G0 Z0.2
M400
M87 B7 D0
M78 B7 D1
M400
M86 B7 D1
G1 F168 X140.496 Y77.381
G1 X140.343 Y77.338
G1 X140.496 Y77.414
M400
M86 B7 D0
G0 F4800 X140.648 Y77.413
M400
M86 B7 D1
G1 F168 X140.987 Y77.337
G1 X141.061 Y77.354
G1 X141.305 Y77.518
G1 X141.853 Y77.292
M400
M86 B7 D0
G0 F4800 X142.022 Y77.299
M400
M86 B7 D1
G1 F168 X142.138 Y77.258
G1 X142.223 Y77.349
G1 X142.216 Y77.515
G1 X142.211 Y77.638
G1 X142.174 Y77.741
M400
M86 B7 D0
G0 F4800 X142.309 Y77.709
M400
M86 B7 D1
G1 F168 X142.853 Y77.578
G1 X143.137 Y77.601
G1 X143.437 Y77.688
M400
M86 B7 D0
G0 F4800 X143.836 Y77.6
M400
M86 B7 D1
G1 F168 X144.059 Y77.553
G1 X144.156 Y77.502
G1 X144.203 Y77.507
G1 X144.239 Y77.49
M400
M86 B7 D0
G0 F4800 X144.235 Y77.512
M400
M86 B7 D1
G1 F168 X144.227 Y77.556
G1 X144.21 Y77.638
G1 X144.689 Y77.946
G1 X145.142 Y77.623
G1 X145.299 Y77.641
G1 X145.671 Y77.216
G1 X145.989 Y77.161
G1 X146.685 Y77.21
G1 X146.709 Y78.322
G1 X146.682 Y78.541
G1 X146.438 Y79.03
G1 X146.166 Y79.418
G1 X146.042 Y80.021
G1 X145.957 Y80.268
G1 X146.098 Y80.556
G1 X146.193 Y80.912
G1 X146.413 Y80.912
G1 X146.902 Y81.192
M400
M86 B7 D0
G0 F4800 X147.132 Y81.47
M400
M86 B7 D1
G1 F168 X147.254 Y81.808
G1 X147.291 Y81.747
M400
M86 B7 D0
G0 F4800 X147.363 Y81.748
M400
M86 B7 D1
G1 F168 X147.686 Y81.48
G1 X148.803 Y81.547
G1 X149.258 Y81.666
G1 X149.4 Y82.126
M400
M86 B7 D0
G0 F4800 X149.79 Y82.273
M400
M86 B7 D1
G1 F168 X150.083 Y82.198
G1 X150.191 Y82.126
G1 X150.264 Y82.135
G1 X150.289 Y82.149
G1 X150.206 Y82.357
G1 X151.114 Y82.808
G1 X151.184 Y82.655
M400
M86 B7 D0
G0 F4800 X151.252 Y82.714
M400
M86 B7 D1
G1 F168 X151.249 Y82.576
G1 X151.249 Y82.573
M400
M86 B7 D0
G0 F4800 X151.39 Y82.694
M400
M86 B7 D1
G1 F168 X151.399 Y82.724
G1 X151.508 Y83.057
G1 X151.801 Y82.986
G1 X152.072 Y83.1
G1 X152.552 Y82.846
G1 X152.823 Y82.468
G1 X152.857 Y82.266
G1 X153.253 Y82.199
G1 X154.293 Y82.198
G1 X154.494 Y82.255
G1 X154.557 Y82.448
G1 X154.779 Y82.523
G1 X154.823 Y82.624
G1 X154.68 Y83.517
G1 X154.308 Y87.176
G1 X154.592 Y93.68
G1 X154.787 Y96.338
G1 X154.64 Y97.44
G1 X153.843 Y97.636
G1 X153.745 Y97.551
G1 X153.551 Y96.685
M400
M86 B7 D0
G0 F4800 X153.537 Y96.623
M400
M86 B7 D1
G1 F168 X153.368 Y96.725
M400
M86 B7 D0
G0 F4800 X153.185 Y96.766
M400
M86 B7 D1
G1 F168 X153.06 Y96.728
G1 X152.801 Y96.359
G1 X152.389 Y96.195
G1 X152.295 Y96.207
G1 X152.209 Y96.077
G1 X152.095 Y95.994
M400
M86 B7 D0
G0 F4800 X151.788 Y95.797
M400
M86 B7 D1
G1 F168 X151.892 Y95.447
M400
M86 B7 D0
G0 F4800 X151.891 Y95.447
M400
M86 B7 D1
G1 F168 X151.892 Y95.447
G1 X151.893 Y95.448
M400
M86 B7 D0
G0 F4800 X151.482 Y95.601
M400
M86 B7 D1
G1 F168 X150.153 Y95.77
G1 X149.812 Y96.291
G1 X149.415 Y96.391
G1 X149.144 Y96.803
G1 X148.977 Y96.885
G1 X148.918 Y96.851
G1 X148.274 Y97.579
G1 X147.77 Y97.76
G1 X147.566 Y98.159
G1 X147.141 Y98.831
G1 X147.175 Y98.88
G1 X146.895 Y99.484
G1 X146.752 Y99.707
G1 X146.765 Y99.886
G1 X146.712 Y100.272
G1 X146.464 Y100.914
G1 X146.542 Y101.073
G1 X146.529 Y101.638
G1 X146.366 Y102.104
G1 X146.154 Y102.542
G1 X146.086 Y102.767
G1 X145.976 Y102.784
G1 X145.658 Y102.744
G1 X145.528 Y102.762
G1 X145.378 Y102.719
G1 X145.217 Y102.762
G1 X144.818 Y102.749
G1 X144.704 Y102.714
G1 X144.628 Y102.629
G1 X144.19 Y102.645
G1 X143.928 Y102.785
G1 X143.581 Y102.782
G1 X143.442 Y102.829
G1 X143.192 Y102.829
G1 X143.034 Y102.716
G1 X142.787 Y102.773
M400
M86 B7 D0
G0 F4800 X142.39 Y102.712
M400
M86 B7 D1
G1 F168 X142.32 Y102.727
G1 X142.209 Y102.752
G1 X142.095 Y102.753
G1 X142.116 Y102.708
G1 X141.952 Y102.74
M400
M86 B7 D0
G0 F4800 X141.993 Y102.651
M400
M86 B7 D1
G1 F168 X141.999 Y102.637
G1 X142.07 Y102.483
G1 X142.086 Y102.45
G1 X142.302 Y101.983
G1 X141.657 Y101.595
M400
M86 B7 D0
G0 F4800 X141.338 Y101.754
M400
M86 B7 D1
G1 F168 X141.142 Y102.009
G1 X140.857 Y102.054
G1 X140.685 Y102.108
G1 X140.625 Y102.159
G1 X140.639 Y102.123
M400
M86 B7 D0
G0 F4800 X140.627 Y102.104
M400
M86 B7 D1
G1 F168 X140.607 Y102.031
G1 X140.514 Y101.703
G1 X140.48 Y101.176
G1 X140.52 Y100.356
G1 X140.668 Y99.443
G1 X140.499 Y99.175
G1 X140.632 Y98.765
G1 X140.325 Y97.199
G1 X140.316 Y92.595
G1 X140.286 Y92.569
G1 X140.301 Y90.498
G1 X140.349 Y90.359
G1 X140.37 Y88.426
G1 X140.401 Y88.116
G1 X140.327 Y87.995
G1 X140.313 Y82.917
G1 X140.342 Y80.923
G1 X140.303 Y80.606
G1 X140.353 Y79.039
G1 X140.344 Y77.415
M400
M86 B7 D0
G0 Z2.2
G0 F4800 X144.044 Y77.476
G0 Z0.2
M400
M86 B7 D1
G1 F168 X144.11 Y77.533
M400
M86 B7 D0
G0 Z2.2
G0 F4800 X150.178 Y82.138
G0 Z0.2
M400
M86 B7 D1
G1 F168 X150.204 Y82.115
M400
M86 B7 D0
G0 Z2.2
G0 F4800 X142.242 Y102.725
G0 Z0.2
M400
M86 B7 D1
G1 F168 X142.729 Y102.321
G1 X143.379 Y101.931
G1 X143.513 Y101.877
G1 X143.648 Y101.787
M400
M86 B7 D0
G0 F4800 X143.33 Y101.762
; TYPE:WALL-INNER
M400
M86 B7 D1
G1 F168 X143.381 Y101.652
G1 X142.221 Y100.954
M400
M86 B7 D0
G0 F4800 X142.182 Y100.853
M400
M86 B7 D1
G1 F168 X142.172 Y100.748
G1 X142.16 Y100.76
M400
M86 B7 D0
G0 F4800 X141.987 Y100.814
M400
M86 B7 D1
G1 F168 X141.444 Y100.487
G1 X141.348 Y100.613
M400
M86 B7 D0
G0 F4800 X141.368 Y100.477
M400
M86 B7 D1
G1 F168 X141.548 Y99.264
G1 X141.419 Y99.059
G1 X141.498 Y98.817
G1 X141.165 Y97.088
G1 X141.154 Y92.203
G1 X141.127 Y92.18
G1 X141.133 Y90.663
G1 X141.188 Y90.506
G1 X141.209 Y88.467
G1 X141.266 Y87.919
G1 X141.16 Y87.746
G1 X141.153 Y82.903
G1 X141.182 Y80.872
G1 X141.144 Y80.568
G1 X141.181 Y78.813
M400
M86 B7 D0
G0 F4800 X141.288 Y78.816
M400
M86 B7 D1
G1 F168 X141.344 Y78.617
G1 X141.268 Y78.634
G1 X141.25 Y78.437
G1 X141.25 Y78.452
G1 X141.304 Y78.426
M400
M86 B7 D0
G0 F4800 X141.386 Y78.794
M400
M86 B7 D1
G1 F168 X142.983 Y78.431
G1 X143.394 Y78.55
G1 X143.896 Y78.458
G1 X144.713 Y78.961
M400
M86 B7 D0
G0 F4800 X145.056 Y79.004
M400
M86 B7 D1
G1 F168 X145.249 Y78.777
G1 X145.42 Y78.634
M400
M86 B7 D0
G0 F4800 X145.429 Y78.615
M400
M86 B7 D1
G1 F168 X145.641 Y78.382
G1 X145.573 Y78.53
G1 X145.72 Y78.469
G1 X145.799 Y78.415
G1 X145.713 Y78.602
M400
M86 B7 D0
G0 F4800 X145.4 Y79.047
M400
M86 B7 D1
G1 F168 X145.368 Y79.155
G1 X145.276 Y79.464
G1 X145.222 Y79.822
G1 X145.048 Y80.323
G1 X145.308 Y80.851
G1 X145.546 Y81.752
G1 X146.155 Y81.752
G1 X146.294 Y81.822
G1 X147.033 Y83.116
G1 X147.956 Y82.347
G1 X148.588 Y82.363
G1 X148.766 Y82.919
G1 X149.409 Y82.97
G1 X150.831 Y83.691
G1 X150.949 Y84.055
G1 X151.73 Y83.867
G1 X152.113 Y84.029
G1 X153.12 Y83.496
M400
M86 B7 D0
G0 F4800 X153.483 Y83.534
M400
M86 B7 D1
G1 F168 X153.767 Y83.062
G1 X153.886 Y83.101
G1 X153.644 Y83.308
M400
M86 B7 D0
G0 F4800 X153.846 Y83.572
M400
M86 B7 D1
G1 F168 X153.466 Y87.151
G1 X153.753 Y93.729
G1 X153.888 Y95.574
G1 X153.411 Y95.768
G1 X153.344 Y95.672
G1 X152.798 Y95.454
G1 X152.371 Y94.37
G1 X151.276 Y94.781
G1 X149.662 Y94.985
G1 X149.289 Y95.556
G1 X148.893 Y95.656
G1 X148.789 Y95.814
G1 X148.739 Y95.786
G1 X148.247 Y96.308
G1 X147.788 Y96.861
G1 X147.173 Y97.081
G1 X146.834 Y97.745
G1 X146.132 Y98.854
G1 X146.21 Y98.966
G1 X145.894 Y99.488
G1 X145.921 Y99.86
G1 X145.893 Y100.061
G1 X145.547 Y100.955
G1 X145.697 Y101.259
M400
M86 B7 D0
G0 F4800 X145.608 Y101.573
M400
M86 B7 D1
G1 F168 X145.613 Y101.688
M400
M86 B7 D0
G0 F4800 X145.519 Y101.887
M400
M86 B7 D1
G1 F168 X145.384 Y101.848
G1 X145.114 Y101.913
M400
M86 B7 D0
G0 F4800 X144.991 Y101.776
M400
M86 B7 D1
G1 F168 X144.645 Y101.857
G1 X145.341 Y101.631
M400
M86 B7 D0
G0 Z2.2
G0 F4800 X141.755 Y100.614
G0 Z0.2
M400
M86 B7 D1
G1 F168 X141.667 Y100.713
M400
M86 B7 D0
G0 Z2.2
G0 F4800 X142.429 Y88.626
; TYPE:WALL-OUTER
G0 Z0.2
M400
M86 B7 D1
G1 F168 X142.536 Y88.538
M400
M86 B7 D0
G0 F4800 X142.646 Y88.535
M400
M86 B7 D1
G1 F168 X142.936 Y89.174
G1 X143.144 Y89.494
G1 X143.139 Y89.924
G1 X143.678 Y90.214
G1 X144.408 Y90.286
G1 X144.508 Y90.363
G1 X144.934 Y90.154
G1 X145.166 Y89.991
G1 X145.371 Y89.593
G1 X145.46 Y89.547
G1 X145.787 Y88.928
G1 X146.007 Y88.09
G1 X145.925 Y87.998
G1 X145.968 Y87.671
G1 X145.955 Y87.175
G1 X145.892 Y86.641
G1 X145.739 Y86.218
G1 X145.459 Y85.845
G1 X145.228 Y85.69
M400
M86 B7 D0
G0 F4800 X145.085 Y85.482
M400
M86 B7 D1
G1 F168 X145.031 Y85.222
G1 X144.941 Y85.26
G1 X144.841 Y85.295
G1 X144.838 Y85.281
G1 X144.819 Y85.306
G1 X144.768 Y85.326
G1 X144.825 Y85.381
M400
M86 B7 D0
G0 F4800 X144.743 Y85.281
M400
M86 B7 D1
G1 F168 X144.665 Y85.006
G1 X144.476 Y85.032
G1 X144.285 Y84.834
G1 X144.257 Y84.718
G1 X143.739 Y84.327
G1 X143.183 Y84.621
G1 X143.022 Y84.809
G1 X142.875 Y85.099
G1 X142.674 Y85.683
G1 X142.567 Y86.298
G1 X142.49 Y87.053
G1 X142.282 Y87.407
G1 X142.397 Y87.601
G1 X142.426 Y88.542
M400
M86 B7 D0
G0 F4800 X142.225 Y89.623
; TYPE:WALL-INNER
M400
M86 B7 D1
G1 F168 X142.282 Y89.709
G1 X142.148 Y89.764
G1 X141.886 Y89.808
G1 X141.626 Y89.845
G1 X141.808 Y89.681
M400
M86 B7 D0
G0 F4800 X141.619 Y89.643
M400
M86 B7 D1
G1 F168 X141.565 Y87.844
G1 X141.307 Y87.41
G1 X141.679 Y86.775
G1 X141.726 Y86.232
G1 X141.858 Y85.473
G1 X142.1 Y84.771
G1 X142.318 Y84.34
G1 X142.648 Y83.954
G1 X143.818 Y83.334
G1 X144.872 Y84.13
G1 X144.972 Y84.117
M400
M86 B7 D0
G0 F4800 X145.186 Y84.027
M400
M86 B7 D1
G1 F168 X145.351 Y83.818
G1 X145.181 Y84.014
M400
M86 B7 D0
G0 F4800 X145.401 Y83.937
M400
M86 B7 D1
G1 F168 X145.904 Y85.132
G1 X146.062 Y85.238
G1 X146.246 Y85.508
G1 X146.394 Y85.561
G1 X146.52 Y85.909
G1 X146.62 Y86.055
G1 X146.615 Y86.169
G1 X146.715 Y86.446
G1 X146.794 Y87.115
G1 X146.81 Y87.729
G1 X146.934 Y87.869
G1 X146.575 Y89.235
G1 X146.069 Y90.193
G1 X145.988 Y90.23
G1 X145.818 Y90.56
G1 X145.363 Y90.879
G1 X144.409 Y91.347
G1 X144.107 Y91.115
G1 X143.418 Y91.028
G1 X142.292 Y90.423
G1 X142.3 Y89.882
M400
M86 B7 D0
G0 F4800 X142.375 Y89.433
; TYPE:FILL
M400
M86 B7 D1
G1 F168 X142.145 Y89.744
G1 X141.742 Y90.31
G1 X141.764 Y90.472
G1 X141.872 Y90.426
G1 X141.806 Y90.432
G1 X141.633 Y90.448
G1 X141.631 Y90.514
M400
M86 B7 D0
G0 Z2.2
G0 F4800 X141.644 Y84.804
G0 Z0.2
M400
M86 B7 D1
G1 F168 X141.707 Y84.356
G1 X141.673 Y84.455
G1 X141.977 Y83.622
M400
M86 B7 D0
G0 Z2.2
G0 F4800 X144.836 Y84.546
G0 Z0.2
M400
M86 B7 D1
G1 F168 X144.839 Y84.61
G1 X145.36 Y85.066
G1 X146.154 Y85.372
G1 X146.482 Y85.042
M400
M86 B7 D0
G0 Z2.2
G0 F4800 X148.245 Y83.069
G0 Z0.2
M400
M86 B7 D1
G1 F168 X148.51 Y82.499
G1 X148.81 Y81.983
M400
M86 B7 D0
G0 Z2.2
G0 F4800 X151.193 Y83.448
G0 Z0.2
M400
M86 B7 D1
G1 F168 X151.495 Y83.872
G1 X151.743 Y84.46
M400
M86 B7 D0
G0 Z2.2
G0 F4800 X146.286 Y78.185
G0 Z0.2
M400
M86 B7 D1
G1 F168 X146.138 Y78.033
G1 X145.968 Y78.115
G1 X145.999 Y77.933
M400
M86 B7 D0
G0 F4800 X145.964 Y77.739
M400
M86 B7 D1
G1 F168 X145.994 Y77.702
G1 X145.968 Y77.602
M400
M86 B7 D0
G0 F4800 X145.838 Y77.736
M400
M86 B7 D1
G1 F168 X145.781 Y77.727
G1 X145.746 Y77.842
M400
M86 B7 D0
G0 F4800 X144.777 Y76.923
M400
M86 B7 D1
G1 F168 X144.764 Y76.922
G1 X144.759 Y76.925
G1 X144.574 Y77.035
M400
M86 B7 D0
G0 F4800 X144.474 Y77.075
M400
M86 B7 D1
G1 F168 X144.576 Y76.885
M400
M86 B7 D0
G0 Z2.2
G0 F4800 X141.747 Y77.9
G0 Z0.2
M400
M86 B7 D1
G1 F168 X141.693 Y78.052
G1 X141.701 Y77.868
G1 X141.334 Y77.87
G1 X141.054 Y77.937
G1 X140.849 Y77.794
M400
M86 B7 D0
G0 Z2.2
G0 F4800 X152.972 Y93.792
G0 Z0.2
M400
M86 B7 D1
G1 F168 X153.008 Y93.894
G1 X153.277 Y95.118
M400
M86 B7 D0
G0 F4800 X154.1 Y96.078
M400
M86 B7 D1
G1 F168 X154.144 Y96.375
G1 X154.173 Y97.121
M400
M86 B7 D0
G0 Z2.2
G0 F4800 X146.609 Y99.102
G0 Z0.2
M400
M86 B7 D1
G1 F168 X146.479 Y99.22
M400
M86 B7 D0
G0 Z2.2
G0 F4800 X145.678 Y102.114
G0 Z0.2
M400
M86 B7 D1
G1 F168 X145.571 Y102.321
G1 X145.282 Y102.316
G1 X144.398 Y102.324
G1 X143.571 Y102.338
G1 X143.334 Y102.361
G1 X143.229 Y102.334
G1 X143.123 Y102.234
G1 X142.884 Y102.17
G1 X142.733 Y102.229
G1 X142.669 Y102.222
G1 X142.654 Y102.222
G1 X142.76 Y102.264
G1 X142.313 Y102.711
G1 X141.401 Y102.844
G1 X140.975 Y102.451
G1 X140.348 Y102.746
G1 X140.716 Y101.967
G1 X141.043 Y101.298
G1 X140.974 Y101.285
G1 X140.977 Y101.205
G1 X140.909 Y101.307
G1 X141.03 Y101.331
G1 X141.121 Y101.454
G1 X141.135 Y101.436
G1 X141.61 Y100.752
G1 X142.132 Y100.167
G1 X142.371 Y100.018
G1 X142.55 Y99.784
G1 X143.7 Y100.934
M400
M86 B7 D0
G0 F4800 X144.765 Y100.811
; TYPE:BOTTOM-FILL
M400
M86 B7 D1
G1 F168 X142.177 Y98.224
M400
M86 B7 D0
G0 F4800 X141.959 Y96.817
M400
M86 B7 D1
G1 F168 X145.096 Y99.955
M400
M86 B7 D0
G0 F4800 X145.198 Y98.869
M400
M86 B7 D1
G1 F168 X141.952 Y95.622
M400
M86 B7 D0
G0 F4800 X141.946 Y94.428
M400
M86 B7 D1
G1 F168 X145.659 Y98.141
M400
M86 B7 D0
G0 F4800 X146.119 Y97.413
M400
M86 B7 D1
G1 F168 X141.938 Y93.233
M400
M86 B7 D0
G0 F4800 X141.932 Y92.039
M400
M86 B7 D1
G1 F168 X146.525 Y96.631
M400
M86 B7 D0
G0 F4800 X147.291 Y96.21
M400
M86 B7 D1
G1 F168 X142.505 Y91.423
M400
M86 B7 D0
G0 Z2.2
G0 F4800 X144.46 Y92.191
G0 Z0.2
M400
M86 B7 D1
G1 F168 X147.865 Y95.595
M400
M86 B7 D0
G0 F4800 X148.423 Y94.965
M400
M86 B7 D1
G1 F168 X145.256 Y91.799
M400
M86 B7 D0
G0 F4800 X146.017 Y91.372
M400
M86 B7 D1
G1 F168 X149.085 Y94.44
M400
M86 B7 D0
G0 F4800 X149.99 Y94.157
M400
M86 B7 D1
G1 F168 X146.627 Y90.794
M400
M86 B7 D0
G0 F4800 X147.041 Y90.02
M400
M86 B7 D1
G1 F168 X151.045 Y94.023
M400
M86 B7 D0
G0 F4800 X151.916 Y93.707
M400
M86 B7 D1
G1 F168 X147.394 Y89.185
M400
M86 B7 D0
G0 F4800 X147.641 Y88.244
M400
M86 B7 D1
G1 F168 X152.78 Y93.383
M400
M86 B7 D0
G0 F4800 X152.846 Y93.449
M400
M86 B7 D1
G1 F168 X152.877 Y93.48
M400
M86 B7 D0
G0 F4800 X152.909 Y92.324
M400
M86 B7 D1
G1 F168 X147.561 Y86.976
M400
M86 B7 D0
G0 Z2.2
G0 F4800 X147.16 Y85.387
G0 Z0.2
M400
M86 B7 D1
G1 F168 X152.855 Y91.082
M400
M86 B7 D0
G0 F4800 X152.801 Y89.84
M400
M86 B7 D1
G1 F168 X147.064 Y84.103
M400
M86 B7 D0
G0 F4800 X147.713 Y83.564
M400
M86 B7 D1
G1 F168 X152.747 Y88.598
M400
M86 B7 D0
G0 F4800 X152.693 Y87.356
M400
M86 B7 D1
G1 F168 X149.06 Y83.724
M400
M86 B7 D0
G0 Z2.2
G0 F4800 X151.298 Y84.773
G0 Z0.2
M400
M86 B7 D1
G1 F168 X152.773 Y86.248
M400
M86 B7 D0
G0 F4800 X152.882 Y85.17
M400
M86 B7 D1
G1 F168 X152.447 Y84.734
M400
M86 B7 D0
G0 Z2.2
G0 F4800 X146.212 Y83.251
G0 Z0.2
M400
M86 B7 D1
G1 F168 X145.775 Y82.814
M400
M86 B7 D0
G0 F4800 X144.901 Y83.128
M400
M86 B7 D1
G1 F168 X141.937 Y80.164
M400
M86 B7 D0
G0 F4800 X142.329 Y79.368
M400
M86 B7 D1
G1 F168 X144.746 Y81.786
M400
M86 B7 D0
G0 Z2.2
G0 F4800 X144.285 Y80.137
G0 Z0.2
M400
M86 B7 D1
G1 F168 X143.476 Y79.328
M400
M86 B7 D0
G0 Z2.2
G0 F4800 X141.96 Y81.375
G0 Z0.2
M400
M86 B7 D1
G1 F168 X143.306 Y82.721
M400
M86 B7 D0
G0 F4800 X142.53 Y83.133
M400
M86 B7 D1
G1 F168 X141.944 Y82.547
; Layer Change GCode
; LAYER:1
M400
M86 B7 D0
M87 B7 D1
M400
M106 S89
G0 Z2.2
G0 F4800 X142.972 Y84.694 Z2.6
; TYPE:WALL-OUTER
G0 Z0.6
M400
M87 B7 D0
M78 B7 D1
M400
M86 B7 D1
G1 F112.8 X142.897 Y84.934
G1 X142.798 Y85.101
G1 X142.727 Y85.419
G1 X142.651 Y86.236
G1 X142.624 Y86.696
G1 X142.623 Y87.87
G1 X142.703 Y88.319
G1 X142.969 Y88.932
G1 X143.27 Y89.377
G1 X143.554 Y89.642
G1 X143.964 Y89.849
G1 X144.422 Y89.949
G1 X144.805 Y89.909
G1 X145.274 Y89.755
G1 X145.349 Y89.695
G1 X145.613 Y89.571
G1 X145.906 Y89.194
G1 X146.059 Y88.883
G1 X146.184 Y88.44
G1 X146.418 Y87.87
G1 X146.675 Y87.358
G1 X146.507 Y86.558
G1 X146.127 Y86.202
G1 X146.059 Y86.171
G1 X145.908 Y85.984
G1 X145.651 Y85.778
G1 X145.378 Y85.51
G1 X144.814 Y85.068
G1 X144.527 Y84.881
G1 X144.348 Y84.723
G1 X144.038 Y84.518
G1 X143.632 Y84.389
G1 X143.497 Y84.426
G1 X143.234 Y84.397
G1 X142.972 Y84.694
M400
M86 B7 D0
G0 F4800 X142.124 Y84.59
; TYPE:WALL-INNER
M400
M86 B7 D1
G1 F112.8 X142.007 Y84.79
G1 X141.896 Y85.288
G1 X141.813 Y86.172
G1 X141.784 Y86.671
G1 X141.783 Y87.944
G1 X141.894 Y88.564
G1 X142.23 Y89.338
G1 X142.627 Y89.926
G1 X143.069 Y90.338
G1 X143.681 Y90.647
G1 X144.375 Y90.798
G1 X144.981 Y90.735
G1 X145.677 Y90.507
G1 X145.796 Y90.413
G1 X146.153 Y90.245
G1 X146.622 Y89.641
G1 X146.846 Y89.185
G1 X146.977 Y88.723
G1 X147.187 Y88.211
G1 X147.558 Y87.472
G1 X147.274 Y86.127
G1 X146.587 Y85.488
G1 X146.505 Y85.386
G1 X146.208 Y85.148
G1 X145.933 Y84.878
G1 X145.303 Y84.384
G1 X145.037 Y84.211
G1 X144.861 Y84.055
G1 X144.403 Y83.753
G1 X143.65 Y83.513
G1 X143.43 Y83.573
G1 X142.892 Y83.514
G1 X142.225 Y84.271
G1 X142.124 Y84.59
M400
M86 B7 D0
G0 Z2.6
G0 F4800 X145.885 Y77.135
; TYPE:WALL-OUTER
G0 Z0.6
M400
M86 B7 D1
G1 F112.8 X145.606 Y77.066
G1 X144.784 Y76.963
G1 X144.581 Y76.976
G1 X144.238 Y77.09
G1 X144.141 Y77.005
G1 X143.183 Y77.088
G1 X141.579 Y77.105
G1 X141.409 Y77.181
G1 X141.297 Y77.108
G1 X140.286 Y77.135
G1 X140.219 Y79.696
G1 X140.211 Y100.625
G1 X140.246 Y102.859
M400
M86 B7 D0
G0 F4800 X140.246 Y102.863
M400
M86 B7 D1
G1 F112.8 X140.552 Y102.854
M400
M86 B7 D0
G0 F4800 X140.858 Y102.849
M400
M86 B7 D1
G1 F112.8 X141.492 Y102.882
G1 X145.224 Y102.89
G1 X145.322 Y102.863
G1 X145.419 Y102.889
G1 X146.713 Y102.85
G1 X146.971 Y102.777
G1 X147.299 Y102.779
G1 X147.359 Y102.65
G1 X147.438 Y102.134
G1 X147.627 Y101.597
G1 X147.657 Y100.704
G1 X147.869 Y100.192
G1 X147.912 Y99.671
G1 X148.113 Y99.253
G1 X148.365 Y99.139
G1 X148.921 Y98.201
G1 X149.346 Y98.071
G1 X149.582 Y97.737
G1 X149.821 Y97.636
G1 X150.092 Y97.21
G1 X150.44 Y97.114
G1 X151.63 Y97.077
G1 X152.303 Y97.124
G1 X152.349 Y97.102
G1 X152.983 Y97.158
M400
M86 B7 D0
G0 F4800 X152.999 Y97.23
M400
M86 B7 D1
G1 F112.8 X153.047 Y97.198
G1 X153.013 Y97.247
G1 X152.966 Y97.34
M400
M86 B7 D0
G0 F4800 X152.95 Y97.523
M400
M86 B7 D1
G1 F112.8 X153.152 Y97.862
G1 X153.768 Y99.116
G1 X153.951 Y99.204
G1 X154.059 Y99.316
G1 X154.17 Y99.355
G1 X154.197 Y99.379
M400
M86 B7 D0
G0 F4800 X154.388 Y99.548
M400
M86 B7 D1
G1 F112.8 X154.431 Y99.586
G1 X154.45 Y99.562
G1 X154.453 Y99.546
G1 X154.46 Y99.553
G1 X154.461 Y99.541
G1 X154.552 Y99.423
G1 X154.582 Y99.363
G1 X154.526 Y99.197
G1 X154.76 Y99.198
M400
M86 B7 D0
G0 F4800 X154.737 Y98.766
M400
M86 B7 D1
G1 F112.8 X154.928 Y97.234
G1 X154.964 Y96.396
G1 X154.975 Y84.864
G1 X154.943 Y83.253
G1 X154.851 Y83.047
G1 X154.698 Y83.037
G1 X154.363 Y82.935
G1 X153.81 Y83.108
G1 X153.489 Y83.676
G1 X152.839 Y83.727
G1 X152.583 Y83.467
G1 X152.468 Y83.459
G1 X152.053 Y83.062
G1 X151.908 Y82.977
G1 X151.494 Y82.596
G1 X150.8 Y82.107
G1 X150.147 Y81.718
G1 X149.065 Y81.359
G1 X148.631 Y81.18
G1 X148.234 Y81.123
G1 X147.982 Y81.12
G1 X146.77 Y80.916
G1 X146.504 Y80.806
G1 X146.25 Y80.755
G1 X145.861 Y80.609
G1 X145.647 Y80.411
G1 X145.6 Y80.012
G1 X145.424 Y79.826
G1 X145.552 Y79.459
G1 X145.637 Y79.051
G1 X145.818 Y78.714
G1 X146.078 Y78.061
G1 X146.231 Y77.195
G1 X146.235 Y77.175
M400
M86 B7 D0
G0 F4800 X146.236 Y77.165
M400
M86 B7 D1
G1 F112.8 X145.653 Y77.515
G1 X145.172 Y77.894
G1 X144.972 Y77.898
M400
M86 B7 D0
G0 F4800 X145.202 Y77.989
; TYPE:WALL-INNER
M400
M86 B7 D1
G1 F112.8 X145.053 Y78.363
G1 X144.84 Y78.761
G1 X144.742 Y79.232
G1 X144.462 Y80.033
G1 X144.798 Y80.387
G1 X144.848 Y80.817
G1 X145.412 Y81.338
G1 X146.019 Y81.566
G1 X146.262 Y81.614
G1 X146.521 Y81.722
G1 X147.917 Y81.959
G1 X148.147 Y81.962
G1 X148.459 Y82.017
G1 X149.773 Y82.479
G1 X150.358 Y82.823
G1 X150.968 Y83.253
G1 X151.405 Y83.656
G1 X151.542 Y83.737
G1 X152.108 Y84.277
G1 X152.208 Y84.284
G1 X152.514 Y84.595
G1 X154 Y84.479
M400
M86 B7 D0
G0 F4800 X154.061 Y84.478
M400
M86 B7 D1
G1 F112.8 X154.122 Y84.262
M400
M86 B7 D0
G0 F4800 X154.122 Y84.478
M400
M86 B7 D1
G1 F112.8 X154.123 Y96.414
G1 X152.165 Y96.258
G1 X151.614 Y96.236
G1 X151.034 Y96.275
G1 X150.327 Y96.274
G1 X149.557 Y96.487
G1 X149.254 Y96.964
G1 X149.035 Y97.056
G1 X148.826 Y97.352
G1 X148.368 Y97.492
G1 X147.765 Y98.488
G1 X147.488 Y98.613
G1 X147.087 Y99.448
G1 X147.043 Y99.991
G1 X146.822 Y100.523
G1 X146.792 Y101.439
G1 X146.607 Y102.006
G1 X145.527 Y102.048
G1 X145.322 Y101.992
G1 X145.112 Y102.049
G1 X141.068 Y102.024
G1 X141.059 Y79.712
G1 X141.089 Y78.13
M400
M86 B7 D0
G0 F4800 X141.211 Y78.132
M400
M86 B7 D1
G1 F112.8 X141.092 Y77.978
M400
M86 B7 D0
G0 F4800 X141.333 Y78.135
M400
M86 B7 D1
G1 F112.8 X141.767 Y77.941
G1 X143.23 Y77.93
G1 X143.848 Y77.863
G1 X144.049 Y78.037
G1 X144.742 Y77.807
M400
M86 B7 D0
G0 Z2.6
G0 F4800 X154.116 Y96.559
G0 Z0.6
M400
M86 B7 D1
G1 F112.8 X154.021 Y97.13
M400
M86 B7 D0
G0 F4800 X154.033 Y96.834
M400
M86 B7 D1
G1 F112.8 X153.976 Y97.281
G1 X154.032 Y97.584
M400
M86 B7 D0
G0 F4800 X154.053 Y97.436
M400
M86 B7 D1
G1 F112.8 X154.012 Y97.733
M400
M86 B7 D0
G0 F4800 X154.301 Y98.456
; TYPE:FILL
M400
M86 B7 D1
G1 F112.8 X154.317 Y98.689
G1 X154.321 Y98.863
M400
M86 B7 D0
G0 F4800 X154.322 Y98.875
M400
M86 B7 D1
G1 F112.8 X154.268 Y98.849
G1 X154.198 Y98.808
G1 X154.236 Y98.894
G1 X154.202 Y98.878
G1 X154.22 Y98.892
M400
M86 B7 D0
G0 F4800 X154.437 Y99.829
M400
M86 B7 D1
G1 F112.8 X154.438 Y99.858
G1 X154.454 Y100.673
M400
M86 B7 D0
G0 F4800 X154.6 Y101.056
M400
M86 B7 D1
G1 F112.8 X154.639 Y101.341
M400
M86 B7 D0
G0 Z2.6
G0 F4800 X153.345 Y93.948
G0 Z0.6
M400
M86 B7 D1
G1 F112.8 X147.908 Y88.511
M400
M86 B7 D0
G0 Z2.6
G0 F4800 X146.265 Y85.757
G0 Z0.6
M400
M86 B7 D1
G1 F112.8 X146.142 Y85.652
M400
M86 B7 D0
G0 F4800 X146.921 Y84.726
M400
M86 B7 D1
G1 F112.8 X148.701 Y82.946
M400
M86 B7 D0
G0 F4800 X148.078 Y82.741
M400
M86 B7 D1
G1 F112.8 X153.35 Y88.014
M400
M86 B7 D0
G0 Z2.6
G0 F4800 X153.348 Y90.178
G0 Z0.6
M400
M86 B7 D1
G1 F112.8 X149.39 Y94.137
M400
M86 B7 D0
G0 F4800 X148.827 Y95.37
M400
M86 B7 D1
G1 F112.8 X149.226 Y95.769
M400
M86 B7 D0
G0 F4800 X147.805 Y95.721
M400
M86 B7 D1
G1 F112.8 X142.263 Y101.264
M400
M86 B7 D0
G0 F4800 X142.843 Y101.265
M400
M86 B7 D1
G1 F112.8 X141.83 Y100.252
M400
M86 B7 D0
G0 Z2.6
G0 F4800 X140.967 Y102.437
G0 Z0.6
M400
M86 B7 D1
G1 F112.8 X140.886 Y102.429
G1 X140.756 Y102.433
M400
M86 B7 D0
G0 Z2.6
G0 F4800 X146.562 Y102.429
G0 Z0.6
M400
M86 B7 D1
G1 F112.8 X146.72 Y102.399
G1 X146.749 Y102.23
M400
M86 B7 D0
G0 Z2.6
G0 F4800 X146.461 Y98.944
G0 Z0.6
M400
M86 B7 D1
G1 F112.8 X141.832 Y94.315
M400
M86 B7 D0
G0 F4800 X141.832 Y95.755
M400
M86 B7 D1
G1 F112.8 X152.199 Y85.388
M400
M86 B7 D0
G0 Z2.6
G0 F4800 X154.141 Y84.07
G0 Z0.6
M400
M86 B7 D1
G1 F112.8 X154.377 Y83.434
G1 X154.315 Y83.761
M400
M86 B7 D0
G0 Z2.6
G0 F4800 X148.253 Y82.459
G0 Z0.6
M400
M86 B7 D1
G1 F112.8 X148.239 Y81.987
G1 X148.332 Y81.57
M400
M86 B7 D0
G0 Z2.6
G0 F4800 X144.318 Y81.39
G0 Z0.6
M400
M86 B7 D1
G1 F112.8 X142.97 Y82.737
M400
M86 B7 D0
G0 F4800 X142.347 Y82.95
M400
M86 B7 D1
G1 F112.8 X141.837 Y82.44
M400
M86 B7 D0
G0 Z2.6
G0 F4800 X141.664 Y84.347
G0 Z0.6
M400
M86 B7 D1
G1 F112.8 X141.575 Y84.875
G1 X141.575 Y84.528
G1 X141.477 Y84.936
G1 X141.478 Y84.822
M400
M86 B7 D0
G0 Z2.6
G0 F4800 X141.667 Y89.541
G0 Z0.6
M400
M86 B7 D1
G1 F112.8 X141.89 Y90.201
M400
M86 B7 D0
G0 Z2.6
G0 F4800 X144.976 Y91.519
G0 Z0.6
M400
M86 B7 D1
G1 F112.8 X147.065 Y93.608
M400
M86 B7 D0
G0 Z2.6
G0 F4800 X144.348 Y78.749
G0 Z0.6
M400
M86 B7 D1
G1 F112.8 X144.507 Y78.395
G1 X144.238 Y78.55
G1 X144.324 Y78.388
G1 X144.735 Y77.959
G1 X145.47 Y77.493
G1 X145.574 Y77.505
G1 X145.986 Y77.172
G1 X146.566 Y76.848
M400
M86 B7 D0
G0 Z2.6
G0 F4800 X141.024 Y77.651
G0 Z0.6
M400
M86 B7 D1
G1 F112.8 X140.927 Y77.532
M400
M86 B7 D0
G0 Z2.6
G0 F4800 X147.621 Y84.66
; TYPE:TOP-FILL
G0 Z0.6
M400
M86 B7 D1
G1 F112.8 X149.759 Y86.798
M400
M86 B7 D0
G0 F4800 X149.089 Y87.316
M400
M86 B7 D1
G1 F112.8 X148.116 Y86.343
M400
M86 B7 D0
G0 Z2.6
G0 F4800 X148.56 Y84.411
G0 Z0.6
M400
M86 B7 D1
G1 F112.8 X150.166 Y86.017
M400
M86 B7 D0
G0 Z2.6
G0 F4800 X147.959 Y93.314
G0 Z0.6
M400
M86 B7 D1
G1 F112.8 X149.3 Y94.655
M400
M86 B7 D0
G0 F4800 X148.826 Y95.369
M400
M86 B7 D1
G1 F112.8 X147.065 Y93.608
M400
M86 B7 D0
G0 F4800 X146.494 Y94.225
M400
M86 B7 D1
G1 F112.8 X147.996 Y95.726
; Layer Change GCode
; LAYER:2
M400
M86 B7 D0
M87 B7 D1
G0 Z2.6
G0 F4800 X147.932 Y95.67 Z3
; TYPE:WALL-OUTER
G0 Z1
M400
M87 B7 D0
M78 B7 D1
M400
M86 B7 D1
G1 F120 X148.228 Y95.655
G1 X148.607 Y95.454
G1 X148.904 Y95.242
G1 X149.182 Y94.995
G1 X149.332 Y94.12
G1 X148.518 Y93.273
G1 X147.735 Y93.418
G1 X147.439 Y93.539
G1 X147.178 Y93.599
G1 X146.594 Y94.038
G1 X146.42 Y94.899
G1 X146.922 Y95.306
G1 X147.047 Y95.378
G1 X147.306 Y95.628
G1 X147.932 Y95.67
M400
M86 B7 D0
G0 F4800 X147.925 Y96.511
; TYPE:WALL-INNER
M400
M86 B7 D1
G1 F120 X148.456 Y96.484
G1 X149.05 Y96.17
G1 X149.429 Y95.899
G1 X149.96 Y95.428
G1 X150.231 Y93.843
G1 X148.822 Y92.377
G1 X148.114 Y92.485
G1 X147.49 Y92.611
G1 X147.187 Y92.735
G1 X146.815 Y92.82
G1 X145.834 Y93.559
G1 X145.496 Y95.232
G1 X146.443 Y95.999
G1 X146.536 Y96.053
G1 X146.944 Y96.445
G1 X147.925 Y96.511
M400
M86 B7 D0
G0 Z3
G0 F4800 X151.018 Y98.774
; TYPE:WALL-OUTER
G0 Z1
M400
M86 B7 D1
G1 F120 X150.577 Y99.302
G1 X149.934 Y99.458
G1 X149.552 Y99.886
G1 X149.372 Y99.933
G1 X148.999 Y100.654
G1 X148.972 Y100.862
G1 X148.832 Y101.055
G1 X148.73 Y101.729
M400
M86 B7 D0
G0 F4800 X148.587 Y102.053
M400
M86 B7 D1
G1 F120 X148.58 Y102.356
G1 X148.498 Y102.312
G1 X148.607 Y102.466
M400
M86 B7 D0
G0 F4800 X148.444 Y102.378
M400
M86 B7 D1
G1 F120 X148.393 Y102.351
G1 X148.376 Y102.341
G1 X148.105 Y102.794
G1 X147.476 Y102.879
G1 X147.055 Y102.847
G1 X146.899 Y102.896
G1 X140.931 Y102.903
G1 X140.244 Y102.863
G1 X140.209 Y101.754
G1 X140.211 Y80.444
G1 X140.261 Y77.293
G1 X140.392 Y77.116
G1 X140.824 Y77.062
G1 X143.369 Y77.004
G1 X144.72 Y76.851
G1 X145.366 Y77.146
G1 X145.344 Y77.757
G1 X145.261 Y78.179
G1 X145.114 Y78.634
G1 X145.023 Y79.249
G1 X145.096 Y79.977
G1 X145.853 Y80.53
G1 X147.142 Y80.814
G1 X147.981 Y80.901
G1 X148.512 Y81.022
G1 X149.194 Y81.228
G1 X150.224 Y81.676
G1 X151.514 Y82.571
G1 X152.48 Y83.488
G1 X153.218 Y84.568
G1 X153.455 Y84.734
G1 X153.713 Y85.009
G1 X154.198 Y85.182
M400
M86 B7 D0
G0 F4800 X154.573 Y85.181
M400
M86 B7 D1
G1 F120 X154.735 Y84.417
G1 X154.77 Y84.216
G1 X154.732 Y84.256
G1 X154.895 Y84.265
G1 X154.948 Y84.453
M400
M86 B7 D0
G0 F4800 X154.948 Y85.181
M400
M86 B7 D1
G1 F120 X154.961 Y98.507
G1 X154.926 Y98.89
G1 X154.948 Y100.266
G1 X154.911 Y102.57
M400
M86 B7 D0
G0 F4800 X154.879 Y102.731
M400
M86 B7 D1
G1 F120 X154.732 Y102.695
G1 X154.79 Y102.8
G1 X154.648 Y102.659
M400
M86 B7 D0
G0 F4800 X154.39 Y102.561
M400
M86 B7 D1
G1 F120 X154.111 Y102.623
G1 X153.841 Y102.587
G1 X153.81 Y102.541
G1 X153.544 Y102.402
G1 X153.129 Y101.488
G1 X152.915 Y100.869
G1 X152.696 Y100.507
G1 X152.528 Y100
G1 X152.315 Y99.863
G1 X152.089 Y99.459
G1 X151.751 Y99.353
G1 X151.704 Y99.271
G1 X151.559 Y99.228
M400
M86 B7 D0
G0 F4800 X151.288 Y99.001
M400
M86 B7 D1
G1 F120 X151.135 Y98.756
G1 X151.107 Y98.668
M400
M86 B7 D0
G0 Z3
G0 F4800 X153.68 Y100.51
; TYPE:WALL-INNER
G0 Z1
M400
M86 B7 D1
G1 F120 X153.462 Y100.15
G1 X153.232 Y99.455
G1 X152.947 Y99.271
G1 X152.66 Y98.758
G1 X152.314 Y98.649
G1 X152.263 Y98.562
G1 X152.049 Y98.498
G1 X151.118 Y97.345
G1 X150.109 Y98.551
G1 X149.481 Y98.703
G1 X149.094 Y99.137
G1 X148.797 Y99.215
G1 X148.185 Y100.4
G1 X148.167 Y100.542
G1 X148.032 Y100.727
G1 X147.92 Y101.467
G1 X147.587 Y102.023
G1 X146.924 Y102.008
G1 X146.757 Y102.06
G1 X146.336 Y102.073
G1 X141.059 Y102.063
G1 X141.051 Y80.455
G1 X141.085 Y77.896
G1 X143.421 Y77.843
G1 X144.224 Y77.762
M400
M86 B7 D0
G0 F4800 X144.492 Y77.734
M400
M86 B7 D1
G1 F120 X144.258 Y78.102
M400
M86 B7 D0
G0 F4800 X144.293 Y78.442
M400
M86 B7 D1
G1 F120 X144.177 Y79.23
G1 X144.302 Y80.477
G1 X144.808 Y80.786
G1 X145.48 Y81.308
G1 X147.03 Y81.649
G1 X147.795 Y81.724
G1 X148.312 Y81.839
G1 X148.909 Y82.019
G1 X149.769 Y82.384
G1 X150.992 Y83.231
G1 X151.85 Y84.048
G1 X152.605 Y85.164
G1 X152.9 Y85.371
G1 X153.24 Y85.732
G1 X154.126 Y86.048
G1 X154.121 Y98.463
G1 X154.083 Y98.889
G1 X154.111 Y99.206
G1 X154.101 Y100.156
M400
M86 B7 D0
G0 F4800 X153.89 Y100.333
M400
M86 B7 D1
G1 F120 X154.005 Y100.846
G1 X154.088 Y101.372
M400
M86 B7 D0
G0 F4800 X154.086 Y101.564
M400
M86 B7 D1
G1 F120 X154.001 Y101.18
M400
M86 B7 D0
G0 Z3
G0 F4800 X150.058 Y86.31
; TYPE:WALL-OUTER
G0 Z1
M400
M86 B7 D1
G1 F120 X150.207 Y85.41
G1 X150.189 Y85.133
G1 X149.992 Y84.86
G1 X149.781 Y84.717
G1 X149.632 Y84.673
G1 X149.43 Y84.517
G1 X149.215 Y84.406
G1 X148.923 Y84.409
G1 X148.106 Y84.554
G1 X147.426 Y84.793
G1 X147.17 Y84.927
G1 X147.034 Y85.034
G1 X146.661 Y85.142
G1 X146.431 Y85.108
G1 X146.166 Y85.118
G1 X145.869 Y85.087
G1 X145.539 Y84.98
G1 X145.468 Y84.973
G1 X145.324 Y84.911
G1 X145.238 Y84.847
G1 X144.57 Y84.499
G1 X144.298 Y84.336
G1 X144.043 Y84.246
G1 X143.712 Y84.102
G1 X143.181 Y84.174
G1 X142.802 Y84.614
G1 X142.675 Y85.221
G1 X142.674 Y85.676
G1 X142.725 Y87.276
G1 X142.767 Y87.774
G1 X142.904 Y88.433
G1 X143.23 Y89.066
G1 X143.662 Y89.574
G1 X144.062 Y89.764
G1 X144.313 Y89.841
G1 X144.748 Y89.896
G1 X145.66 Y89.758
G1 X146.038 Y89.574
G1 X146.651 Y88.75
G1 X147.124 Y88.34
G1 X147.955 Y87.871
G1 X148.535 Y87.647
G1 X148.733 Y87.541
G1 X149.085 Y87.241
G1 X149.34 Y87.08
G1 X149.385 Y86.997
G1 X149.845 Y86.664
G1 X150.058 Y86.31
M400
M86 B7 D0
G0 F4800 X150.861 Y86.606
; TYPE:WALL-INNER
M400
M86 B7 D1
G1 F120 X151.052 Y85.452
G1 X151.012 Y84.838
G1 X150.586 Y84.248
G1 X150.146 Y83.95
G1 X150.022 Y83.913
G1 X149.882 Y83.805
G1 X149.414 Y83.563
G1 X148.844 Y83.57
G1 X147.892 Y83.739
G1 X147.09 Y84.021
G1 X146.711 Y84.219
G1 X146.643 Y84.273
G1 X146.6 Y84.285
G1 X146.5 Y84.265
G1 X146.194 Y84.277
G1 X146.044 Y84.261
G1 X145.716 Y84.155
G1 X144.972 Y83.761
G1 X144.657 Y83.571
G1 X144.349 Y83.464
G1 X143.833 Y83.238
G1 X142.752 Y83.385
G1 X142.024 Y84.23
G1 X141.835 Y85.133
G1 X141.834 Y85.692
G1 X141.886 Y87.317
G1 X141.934 Y87.895
G1 X142.105 Y88.716
G1 X142.527 Y89.537
G1 X143.139 Y90.255
G1 X143.756 Y90.549
G1 X144.136 Y90.666
G1 X144.759 Y90.744
G1 X145.913 Y90.569
G1 X146.589 Y90.24
G1 X147.259 Y89.341
G1 X147.621 Y89.024
G1 X148.315 Y88.632
G1 X148.886 Y88.412
G1 X149.21 Y88.238
G1 X149.582 Y87.92
G1 X149.972 Y87.675
G1 X150.032 Y87.566
G1 X150.476 Y87.244
G1 X150.861 Y86.606
M400
M86 B7 D0
G0 Z3
G0 F4800 X152.389 Y97.045
M400
M106 S255
; TYPE:BRIDGE
G0 Z1
M400
M86 B7 D1
G1 F240 X153.146 Y98.232
G1 X153.31 Y98.971
G1 X153.423 Y99.078
M400
M86 B7 D0
G0 F4800 X153.509 Y99.096
M400
M106 S89
; TYPE:FILL
M400
M86 B7 D1
G1 F120 X153.598 Y99.181
G1 X153.637 Y99.341
M400
M86 B7 D0
G0 F4800 X153.688 Y99.336
M400
M86 B7 D1
G1 F120 X153.637 Y99.097
M400
M86 B7 D0
G0 F4800 X153.678 Y99.083
M400
M86 B7 D1
G1 F120 X153.675 Y99.194
G1 X153.654 Y98.866
M400
M86 B7 D0
G0 F4800 X153.683 Y98.691
M400
M86 B7 D1
G1 F120 X153.681 Y98.678
G1 X153.681 Y98.667
M400
M86 B7 D0
G0 Z3
G0 F4800 X152.284 Y97.182
G0 Z1
M400
M86 B7 D1
G1 F120 X153.353 Y96.113
M400
M86 B7 D0
G0 Z3
G0 F4800 X153.353 Y93.956
G0 Z1
M400
M86 B7 D1
G1 F120 X148.711 Y89.314
M400
M86 B7 D0
G0 Z3
G0 F4800 X146.378 Y91.208
G0 Z1
M400
M86 B7 D1
G1 F120 X141.836 Y95.751
M400
M86 B7 D0
G0 F4800 X141.835 Y94.318
M400
M86 B7 D1
G1 F120 X147.514 Y99.996
M400
M86 B7 D0
G0 Z3
G0 F4800 X148.041 Y102.098
G0 Z1
M400
M86 B7 D1
G1 F120 X147.86 Y102.264
G1 X147.515 Y102.426
G1 X147.414 Y102.428
G1 X148.034 Y102.568
G1 X148.76 Y102.964
M400
M86 B7 D0
G0 Z3
G0 F4800 X142.861 Y101.283
G0 Z1
M400
M86 B7 D1
G1 F120 X141.837 Y100.259
M400
M86 B7 D0
G0 F4800 X142.243 Y101.284
M400
M86 B7 D1
G1 F120 X146.463 Y97.064
M400
M86 B7 D0
G0 Z3
G0 F4800 X149.942 Y96.485
G0 Z1
M400
M86 B7 D1
G1 F120 X150.42 Y96.963
M400
M86 B7 D0
G0 Z3
G0 F4800 X150.514 Y93.013
G0 Z1
M400
M86 B7 D1
G1 F120 X153.349 Y90.178
M400
M86 B7 D0
G0 Z3
G0 F4800 X153.347 Y88.01
G0 Z1
M400
M86 B7 D1
G1 F120 X151.692 Y86.356
M400
M86 B7 D0
G0 F4800 X151.784 Y85.803
M400
M86 B7 D1
G1 F120 X151.927 Y85.542
G1 X151.737 Y84.89
M400
M86 B7 D0
G0 F4800 X151.53 Y84.577
M400
M86 B7 D1
G1 F120 X151.461 Y84.484
G1 X151.147 Y84.158
G1 X150.924 Y83.858
M400
M86 B7 D0
G0 F4800 X150.809 Y83.753
M400
M86 B7 D1
G1 F120 X150.988 Y83.903
G1 X150.7 Y83.567
G1 X150.607 Y83.544
G1 X150.432 Y83.493
M400
M86 B7 D0
G0 F4800 X150.236 Y83.382
M400
M86 B7 D1
G1 F120 X149.909 Y83.151
G1 X149.54 Y82.948
G1 X148.933 Y82.845
M400
M86 B7 D0
G0 F4800 X148.783 Y82.782
M400
M86 B7 D1
G1 F120 X148.755 Y82.864
G1 X147.695 Y82.325
G1 X147.379 Y82.114
M400
M86 B7 D0
G0 Z3
G0 F4800 X146.527 Y83.74
G0 Z1
M400
M86 B7 D1
G1 F120 X146.534 Y84.24
G1 X146.752 Y84.665
G1 X146.369 Y84.588
G1 X145.791 Y84.621
M400
M86 B7 D0
G0 Z3
G0 F4800 X143.167 Y82.54
G0 Z1
M400
M86 B7 D1
G1 F120 X144.311 Y81.397
M400
M86 B7 D0
G0 Z3
G0 F4800 X142.211 Y82.814
G0 Z1
M400
M86 B7 D1
G1 F120 X141.83 Y82.433
M400
M86 B7 D0
G0 Z3
G0 F4800 X144.747 Y77.682
G0 Z1
M400
M86 B7 D1
G1 F120 X144.857 Y77.527
G1 X144.712 Y77.594
G1 X144.786 Y77.348
M400
M86 B7 D0
G0 Z3
G0 F4800 X149.639 Y84.158
G0 Z1
M400
M86 B7 D1
G1 F120 X149.741 Y84.226
M400
M86 B7 D0
G0 Z3
G0 F4800 X151.514 Y84.554
G0 Z1
M400
M86 B7 D1
G1 F120 X151.549 Y84.605
G1 X151.763 Y85.281
M400
M86 B7 D0
G0 Z3
G0 F4800 X154.105 Y84.378
G0 Z1
M400
M86 B7 D1
G1 F120 X154.223 Y84.193
M400
M86 B7 D0
G0 Z3
G0 F4800 X145.951 Y92.493
G0 Z1
M400
M86 B7 D1
G1 F120 X144.959 Y91.502
M400
M86 B7 D0
G0 Z3
G0 F4800 X141.822 Y89.773
G0 Z1
M400
M86 B7 D1
G1 F120 X141.587 Y88.858
; Layer Change GCode
; LAYER:3
M400
M86 B7 D0
M87 B7 D1
G0 Z3
G0 F4800 X143.243 Y83.825 Z3.4
; TYPE:WALL-OUTER
G0 Z1.4
M400
M87 B7 D0
M78 B7 D1
M400
M86 B7 D1
G1 F112.8 X142.942 Y84.111
G1 X142.775 Y84.425
G1 X142.671 Y84.734
G1 X142.655 Y85.272
G1 X142.68 Y85.706
G1 X142.779 Y86.285
G1 X142.833 Y86.799
G1 X142.836 Y87.185
G1 X142.886 Y87.813
G1 X143.061 Y88.459
G1 X143.317 Y88.922
G1 X143.737 Y89.542
G1 X144.249 Y89.765
G1 X144.854 Y89.869
G1 X145.298 Y89.861
G1 X146.102 Y89.737
G1 X146.498 Y89.58
G1 X146.743 Y89.313
G1 X147.052 Y89.131
G1 X147.553 Y88.727
G1 X148.044 Y88.55
G1 X148.803 Y88.195
G1 X149.323 Y87.914
G1 X150.011 Y87.68
G1 X150.305 Y87.418
G1 X150.648 Y87.04
G1 X150.899 Y86.583
G1 X151.077 Y86.033
G1 X151.127 Y85.792
G1 X151.088 Y85.175
G1 X150.877 Y84.76
G1 X150.599 Y84.429
G1 X150.351 Y84.269
G1 X150.127 Y84.063
G1 X149.877 Y83.935
G1 X149.435 Y83.863
G1 X149.198 Y83.842
G1 X148.237 Y83.89
G1 X147.256 Y84.149
G1 X147.148 Y84.2
G1 X146.678 Y84.272
G1 X146.168 Y84.374
G1 X145.969 Y84.431
G1 X145.749 Y84.437
G1 X145.444 Y84.375
G1 X145.172 Y84.355
G1 X144.558 Y84.105
G1 X143.91 Y83.877
G1 X143.686 Y83.841
G1 X143.243 Y83.825
M400
M86 B7 D0
G0 F4800 X142.92 Y82.972
; TYPE:WALL-INNER
M400
M86 B7 D1
G1 F112.8 X142.264 Y83.596
G1 X142.001 Y84.092
G1 X141.835 Y84.584
G1 X141.814 Y85.284
G1 X141.844 Y85.802
G1 X141.948 Y86.408
G1 X141.993 Y86.844
G1 X141.996 Y87.222
G1 X142.055 Y87.957
G1 X142.276 Y88.776
G1 X142.6 Y89.361
G1 X143.178 Y90.215
G1 X144.008 Y90.576
G1 X144.789 Y90.71
G1 X145.369 Y90.7
G1 X146.323 Y90.553
G1 X146.987 Y90.29
G1 X147.276 Y89.974
G1 X147.532 Y89.823
G1 X147.971 Y89.469
G1 X148.37 Y89.325
G1 X149.164 Y88.955
G1 X149.665 Y88.684
G1 X150.442 Y88.421
G1 X150.897 Y88.015
G1 X151.337 Y87.531
G1 X151.674 Y86.918
G1 X151.89 Y86.248
G1 X151.972 Y85.852
G1 X151.915 Y84.949
G1 X151.582 Y84.293
G1 X151.161 Y83.792
G1 X150.865 Y83.601
G1 X150.612 Y83.368
G1 X150.142 Y83.127
G1 X149.54 Y83.029
G1 X149.214 Y83
G1 X148.108 Y83.055
G1 X146.965 Y83.357
G1 X146.898 Y83.389
G1 X145.969 Y83.557
G1 X145.822 Y83.594
G1 X145.559 Y83.541
G1 X145.365 Y83.527
G1 X144.855 Y83.319
G1 X144.118 Y83.06
G1 X143.769 Y83.004
G1 X142.92 Y82.972
M400
M86 B7 D0
G0 Z3.4
G0 F4800 X144.392 Y76.942
; TYPE:WALL-OUTER
G0 Z1.4
M400
M86 B7 D1
G1 F112.8 X143.736 Y77.012
G1 X141.864 Y76.983
G1 X141.12 Y77.016
G1 X140.464 Y77.1
G1 X140.23 Y80.404
G1 X140.208 Y101.237
G1 X140.244 Y102.869
G1 X141.299 Y102.929
G1 X146.389 Y102.944
G1 X149.018 Y102.873
G1 X149.457 Y102.826
M400
M86 B7 D0
G0 F4800 X149.465 Y102.826
M400
M86 B7 D1
G1 F112.8 X149.454 Y102.806
M400
M86 B7 D0
G0 F4800 X149.451 Y102.786
M400
M86 B7 D1
G1 F112.8 X149.737 Y102.049
G1 X150.019 Y101.869
G1 X150.541 Y100.932
G1 X151.286 Y100.821
G1 X151.567 Y101.254
G1 X151.801 Y101.266
G1 X152.063 Y101.395
G1 X152.548 Y102.304
G1 X153.036 Y102.434
G1 X153.16 Y102.837
G1 X153.96 Y102.883
G1 X154.237 Y102.854
G1 X154.609 Y102.892
G1 X154.949 Y102.871
G1 X154.97 Y102.738
G1 X154.947 Y100.182
G1 X154.976 Y96.938
G1 X154.966 Y86.798
G1 X154.966 Y86.511
G1 X154.966 Y86.416
M400
M86 B7 D0
G0 F4800 X154.966 Y86.374
M400
M86 B7 D1
G1 F112.8 X154.919 Y86.489
G1 X154.883 Y86.57
G1 X154.796 Y86.644
G1 X154.743 Y86.753
G1 X154.633 Y86.522
G1 X154.729 Y86.395
M400
M86 B7 D0
G0 F4800 X154.274 Y86.512
M400
M86 B7 D1
G1 F112.8 X153.965 Y85.973
G1 X153.927 Y85.956
G1 X153.026 Y84.358
G1 X152.639 Y83.666
G1 X152.064 Y83.017
G1 X151.489 Y82.514
G1 X150.287 Y81.74
G1 X149.24 Y81.182
G1 X147.892 Y80.712
G1 X147.121 Y80.652
G1 X145.895 Y80.452
G1 X145.374 Y80.298
G1 X144.803 Y80.029
G1 X144.5 Y79.366
G1 X144.475 Y78.766
G1 X144.59 Y77.388
G1 X144.531 Y76.923
G1 X144.529 Y76.91
M400
M86 B7 D0
G0 F4800 X144.524 Y76.867
M400
M86 B7 D1
G1 F112.8 X144.46 Y76.926
M400
M86 B7 D0
G0 Z3.4
G0 F4800 X153.921 Y87.583
; TYPE:WALL-INNER
G0 Z1.4
M400
M86 B7 D1
G1 F112.8 X152.874 Y85.82
G1 X152.065 Y84.32
G1 X151.466 Y83.61
G1 X150.979 Y83.184
G1 X149.859 Y82.463
G1 X148.904 Y81.954
G1 X147.702 Y81.535
G1 X147.042 Y81.49
G1 X145.707 Y81.273
G1 X145.074 Y81.085
G1 X144.136 Y80.644
G1 X143.939 Y80.115
G1 X143.657 Y79.561
G1 X143.631 Y78.756
G1 X143.724 Y77.852
G1 X141.872 Y77.824
G1 X141.26 Y77.851
G1 X141.07 Y80.431
G1 X141.048 Y101.209
G1 X141.067 Y102.074
G1 X146.37 Y102.104
G1 X148.84 Y102.038
G1 X149.053 Y101.489
G1 X149.388 Y101.275
G1 X150.008 Y100.163
G1 X151.697 Y99.91
G1 X152.048 Y100.451
G1 X152.676 Y100.761
G1 X153.117 Y101.586
G1 X153.701 Y101.742
M400
M86 B7 D0
G0 F4800 X153.912 Y101.742
M400
M86 B7 D1
G1 F112.8 X153.873 Y102.028
G1 X154.123 Y102.021
M400
M86 B7 D0
G0 F4800 X154.124 Y101.743
M400
M86 B7 D1
G1 F112.8 X154.136 Y96.931
G1 X154.125 Y87.582
M400
M86 B7 D0
G0 F4800 X154.125 Y87.494
M400
M86 B7 D1
G1 F112.8 X154.023 Y87.582
M400
M86 B7 D0
G0 Z3.4
G0 F4800 X145.613 Y94.666
; TYPE:WALL-OUTER
G0 Z1.4
M400
M86 B7 D1
G1 F112.8 X145.757 Y95.243
G1 X145.9 Y95.521
G1 X146.193 Y95.679
G1 X146.675 Y95.76
G1 X146.908 Y95.782
G1 X147.048 Y95.841
G1 X147.683 Y96.028
G1 X147.917 Y96.063
G1 X148.151 Y96.135
G1 X148.564 Y96.07
G1 X148.739 Y95.995
G1 X148.893 Y95.955
G1 X149.683 Y95.541
G1 X149.905 Y95.281
G1 X150.218 Y95.029
G1 X150.513 Y94.313
G1 X150.373 Y93.607
G1 X150.019 Y92.999
G1 X149.807 Y92.829
G1 X149.425 Y92.78
G1 X149.057 Y92.672
G1 X148.653 Y92.617
G1 X148.251 Y92.671
G1 X147.865 Y92.778
G1 X147.301 Y93.011
G1 X146.834 Y93.275
G1 X145.951 Y94.006
G1 X145.613 Y94.666
M400
M86 B7 D0
G0 F4800 X144.722 Y94.564
; TYPE:WALL-INNER
M400
M86 B7 D1
G1 F112.8 X144.966 Y95.54
G1 X145.272 Y96.137
G1 X145.917 Y96.484
G1 X146.698 Y96.606
G1 X147.503 Y96.851
G1 X147.729 Y96.884
G1 X148.09 Y96.995
G1 X148.797 Y96.883
G1 X149.012 Y96.792
G1 X149.199 Y96.743
G1 X150.217 Y96.21
G1 X150.492 Y95.887
G1 X150.913 Y95.547
G1 X151.386 Y94.399
G1 X151.17 Y93.306
G1 X150.666 Y92.44
G1 X150.147 Y92.026
G1 X149.595 Y91.955
G1 X149.234 Y91.848
G1 X148.654 Y91.77
G1 X148.082 Y91.846
G1 X147.591 Y91.983
G1 X146.933 Y92.254
G1 X146.352 Y92.582
G1 X145.283 Y93.468
G1 X144.722 Y94.564
M400
M86 B7 D0
G0 Z3.4
G0 F4800 X145.626 Y92.169
; TYPE:FILL
G0 Z1.4
M400
M86 B7 D1
G1 F112.8 X144.944 Y91.487
M400
M86 B7 D0
G0 F4800 X146.231 Y91.356
M400
M86 B7 D1
G1 F112.8 X141.833 Y95.754
M400
M86 B7 D0
G0 F4800 X141.835 Y94.317
M400
M86 B7 D1
G1 F112.8 X148.459 Y100.942
M400
M86 B7 D0
G0 F4800 X148.366 Y101.1
M400
M86 B7 D1
G1 F112.8 X148.416 Y101.05
G1 X148.872 Y100.595
M400
M86 B7 D0
G0 Z3.4
G0 F4800 X150.108 Y99.359
G0 Z1.4
M400
M86 B7 D1
G1 F112.8 X153.355 Y96.112
M400
M86 B7 D0
G0 Z3.4
G0 F4800 X153.355 Y93.958
G0 Z1.4
M400
M86 B7 D1
G1 F112.8 X149.197 Y89.8
M400
M86 B7 D0
G0 Z3.4
G0 F4800 X151.39 Y92.136
G0 Z1.4
M400
M86 B7 D1
G1 F112.8 X153.356 Y90.17
M400
M86 B7 D0
G0 Z3.4
G0 F4800 X153.157 Y87.821
G0 Z1.4
M400
M86 B7 D1
G1 F112.8 X152.435 Y87.098
M400
M86 B7 D0
G0 F4800 X152.359 Y86.111
M400
M86 B7 D1
G1 F112.8 X152.415 Y85.929
G1 X152.483 Y86.089
M400
M86 B7 D0
G0 Z3.4
G0 F4800 X155.272 Y85.636
G0 Z1.4
M400
M86 B7 D1
G1 F112.8 X155.273 Y85.621
G1 X155.319 Y85.695
M400
M86 B7 D0
G0 Z3.4
G0 F4800 X148.964 Y82.592
G0 Z1.4
M400
M86 B7 D1
G1 F112.8 X148.385 Y82.487
M400
M86 B7 D0
G0 F4800 X148.957 Y82.459
M400
M86 B7 D1
G1 F112.8 X148.476 Y82.379
G1 X147.828 Y82.293
M400
M86 B7 D0
G0 Z3.4
G0 F4800 X145.714 Y83.144
G0 Z1.4
M400
M86 B7 D1
G1 F112.8 X145.667 Y83.541
G1 X145.672 Y83.986
G1 X145.786 Y83.983
G1 X146.194 Y83.937
M400
M86 B7 D0
G0 Z3.4
G0 F4800 X144.181 Y81.527
G0 Z1.4
M400
M86 B7 D1
G1 F112.8 X143.494 Y82.213
M400
M86 B7 D0
G0 F4800 X142.085 Y82.688
M400
M86 B7 D1
G1 F112.8 X141.775 Y83.041
G1 X141.514 Y84.123
G1 X141.548 Y83.632
M400
M86 B7 D0
G0 Z3.4
G0 F4800 X141.505 Y86.309
G0 Z1.4
M400
M86 B7 D1
G1 F112.8 X141.515 Y86.666
G1 X141.478 Y86.412
G1 X141.515 Y86.953
G1 X141.603 Y88.284
G1 X141.868 Y89.675
G1 X141.839 Y89.808
M400
M86 B7 D0
G0 Z3.4
G0 F4800 X146.208 Y97.319
G0 Z1.4
M400
M86 B7 D1
G1 F112.8 X142.215 Y101.312
M400
M86 B7 D0
G0 F4800 X142.891 Y101.313
M400
M86 B7 D1
G1 F112.8 X141.828 Y100.25
M400
M86 B7 D0
G0 Z3.4
G0 F4800 X148.699 Y102.456
G0 Z1.4
M400
M86 B7 D1
G1 F112.8 X148.726 Y102.457
G1 X148.797 Y102.447
G1 X149.322 Y102.732
G1 X149.857 Y103.163
M400
M86 B7 D0
G0 Z3.4
G0 F4800 X153.549 Y101.226
G0 Z1.4
M400
M86 B7 D1
G1 F112.8 X153.36 Y100.484
G1 X153.335 Y100.312
M400
M86 B7 D0
G0 F4800 X153.329 Y99.872
M400
M86 B7 D1
G1 F112.8 X150.434 Y96.976
M400
M86 B7 D0
G0 Z3.4
G0 F4800 X154.251 Y102.444
G0 Z1.4
M400
M86 B7 D1
G1 F112.8 X154.391 Y102.445
G1 X154.251 Y102.458
M400
M86 B7 D0
G0 Z3.4
G0 F4800 X144.61 Y76.74
G0 Z1.4
M400
M86 B7 D1
G1 F112.8 X144.711 Y76.456
; Layer Change GCode
; LAYER:4
M400
M86 B7 D0
M87 B7 D1
G0 Z3.4
G0 F4800 X144.177 Y79.461 Z3.8
; TYPE:WALL-OUTER
G0 Z1.8
M400
M87 B7 D0
M78 B7 D1
M400
M86 B7 D1
G1 F112.8 X144.626 Y80.035
G1 X144.839 Y80.154
G1 X145.318 Y80.296
G1 X145.858 Y80.39
G1 X146.952 Y80.54
G1 X147.236 Y80.601
G1 X147.412 Y80.614
G1 X148.11 Y80.759
G1 X149.22 Y81.17
G1 X149.59 Y81.356
G1 X151.499 Y82.401
G1 X151.814 Y82.622
G1 X152.692 Y83.542
G1 X152.982 Y83.958
G1 X153.386 Y84.763
G1 X153.928 Y86.112
G1 X154.081 Y86.607
G1 X154.34 Y87.193
G1 X154.46 Y87.284
G1 X154.633 Y87.705
G1 X154.776 Y87.722
G1 X154.791 Y87.833
G1 X154.872 Y88.076
G1 X154.945 Y88.183
G1 X154.964 Y88.597
G1 X154.978 Y98.349
G1 X154.943 Y100.282
G1 X154.958 Y100.526
G1 X154.95 Y100.891
G1 X154.975 Y102.615
G1 X154.967 Y102.877
G1 X154.485 Y102.919
G1 X153.028 Y102.899
G1 X152.288 Y102.849
G1 X151.937 Y102.883
G1 X150.571 Y102.866
G1 X150.309 Y102.886
G1 X146.449 Y102.975
G1 X141.894 Y102.956
G1 X140.615 Y102.896
G1 X140.23 Y102.852
G1 X140.212 Y102.113
G1 X140.215 Y80.095
G1 X140.237 Y78.961
G1 X140.488 Y78.017
G1 X140.544 Y77.08
G1 X141.201 Y76.988
G1 X141.934 Y76.974
G1 X142.232 Y77.003
G1 X142.742 Y77.015
G1 X143.26 Y77.065
G1 X143.374 Y77.103
G1 X143.596 Y77.133
G1 X143.69 Y77.164
G1 X143.727 Y77.302
G1 X143.748 Y77.492
G1 X143.779 Y78.331
G1 X143.895 Y78.588
G1 X143.941 Y78.856
G1 X144.177 Y79.461
M400
M86 B7 D0
G0 F4800 X143.439 Y79.881
; TYPE:WALL-INNER
M400
M86 B7 D1
G1 F112.8 X144.068 Y80.685
G1 X144.511 Y80.933
G1 X145.127 Y81.115
G1 X145.729 Y81.22
G1 X146.806 Y81.368
G1 X147.117 Y81.434
G1 X147.309 Y81.46
G1 X147.863 Y81.564
G1 X148.883 Y81.941
G1 X150.268 Y82.678
G1 X151.054 Y83.115
G1 X151.263 Y83.261
G1 X152.042 Y84.078
G1 X152.257 Y84.386
G1 X152.624 Y85.117
G1 X153.133 Y86.385
G1 X153.292 Y86.902
G1 X153.659 Y87.73
G1 X153.77 Y87.814
G1 X154.045 Y88.482
G1 X154.118 Y88.491
G1 X154.138 Y98.334
G1 X154.102 Y100.299
G1 X154.117 Y100.55
G1 X154.127 Y102.074
G1 X153.06 Y102.059
G1 X152.276 Y102.006
G1 X151.903 Y102.042
G1 X150.543 Y102.025
G1 X150.274 Y102.047
G1 X146.433 Y102.135
G1 X141.915 Y102.116
G1 X141.052 Y102.076
G1 X141.055 Y80.111
G1 X141.075 Y79.079
G1 X141.321 Y78.152
G1 X141.341 Y77.823
G1 X141.897 Y77.814
G1 X142.183 Y77.842
G1 X142.674 Y77.853
G1 X142.923 Y77.886
G1 X142.946 Y78.525
G1 X143.086 Y78.838
G1 X143.128 Y79.083
G1 X143.439 Y79.881
M400
M86 B7 D0
G0 Z3.8
G0 F4800 X145.519 Y89.911
; TYPE:WALL-OUTER
G0 Z1.8
M400
M86 B7 D1
G1 F112.8 X146.139 Y89.846
G1 X146.229 Y89.807
G1 X146.612 Y89.729
G1 X146.951 Y89.6
G1 X147.695 Y89.14
G1 X148.52 Y88.784
G1 X148.919 Y88.575
G1 X149.499 Y88.411
G1 X149.8 Y88.35
G1 X150.128 Y88.254
G1 X150.377 Y88.08
G1 X150.658 Y87.823
G1 X150.876 Y87.581
G1 X151.439 Y86.772
G1 X151.606 Y86.41
G1 X151.747 Y85.74
G1 X151.632 Y85.414
G1 X151.584 Y85.131
G1 X151.206 Y84.504
G1 X150.359 Y83.905
G1 X149.941 Y83.793
G1 X149.359 Y83.753
G1 X148.248 Y83.766
G1 X146.714 Y83.842
G1 X146.546 Y83.879
G1 X146.296 Y83.896
G1 X146.168 Y83.945
G1 X145.95 Y83.919
G1 X145.474 Y83.983
G1 X145.147 Y83.988
G1 X144.773 Y83.853
G1 X143.64 Y83.618
G1 X143.311 Y83.687
G1 X143.153 Y83.76
G1 X142.896 Y83.946
G1 X142.739 Y84.123
G1 X142.627 Y84.753
G1 X142.681 Y85.365
G1 X142.867 Y86.222
G1 X142.972 Y87.063
G1 X143.04 Y87.791
G1 X143.198 Y88.439
G1 X143.42 Y88.94
G1 X143.797 Y89.5
G1 X144.034 Y89.657
G1 X144.534 Y89.791
G1 X145.106 Y89.9
G1 X145.519 Y89.911
M400
M86 B7 D0
G0 F4800 X145.552 Y90.752
; TYPE:WALL-INNER
M400
M86 B7 D1
G1 F112.8 X146.354 Y90.668
G1 X146.482 Y90.612
G1 X146.846 Y90.539
G1 X147.324 Y90.357
G1 X148.085 Y89.887
G1 X148.881 Y89.543
G1 X149.234 Y89.359
G1 X149.693 Y89.229
G1 X150.003 Y89.166
G1 X150.497 Y89.021
G1 X150.903 Y88.737
G1 X151.255 Y88.416
G1 X151.536 Y88.104
G1 X152.17 Y87.191
G1 X152.408 Y86.677
G1 X152.618 Y85.682
G1 X152.448 Y85.204
G1 X152.385 Y84.834
G1 X151.834 Y83.918
G1 X150.724 Y83.134
G1 X150.08 Y82.96
G1 X149.383 Y82.912
G1 X148.222 Y82.926
G1 X146.603 Y83.007
G1 X146.427 Y83.045
G1 X146.114 Y83.067
G1 X146.063 Y83.086
G1 X145.943 Y83.072
G1 X145.408 Y83.144
G1 X145.288 Y83.146
G1 X145.002 Y83.042
G1 X143.639 Y82.76
G1 X143.046 Y82.884
G1 X142.726 Y83.032
G1 X142.329 Y83.32
G1 X141.954 Y83.742
G1 X141.78 Y84.716
G1 X141.849 Y85.492
G1 X142.04 Y86.37
G1 X142.134 Y87.128
G1 X142.209 Y87.93
G1 X142.4 Y88.711
G1 X142.682 Y89.348
G1 X143.194 Y90.108
G1 X143.684 Y90.433
G1 X144.347 Y90.61
G1 X145.016 Y90.738
G1 X145.552 Y90.752
M400
M86 B7 D0
G0 Z3.8
G0 F4800 X148.126 Y96.257
; TYPE:WALL-OUTER
G0 Z1.8
M400
M86 B7 D1
G1 F112.8 X148.54 Y96.252
G1 X149.005 Y96.209
G1 X149.445 Y96.129
G1 X150.315 Y95.548
G1 X150.581 Y95.28
G1 X150.799 Y94.981
G1 X151.109 Y94.409
G1 X151.139 Y94.028
G1 X151.192 Y93.819
G1 X151.046 Y93.196
G1 X150.97 Y93.044
G1 X150.681 Y92.629
G1 X150.479 Y92.459
G1 X150.305 Y92.348
G1 X149.894 Y92.188
G1 X149.086 Y92.16
G1 X148.898 Y92.197
G1 X148.597 Y92.221
G1 X148.013 Y92.397
G1 X147.787 Y92.532
G1 X147.231 Y92.769
G1 X146.838 Y93.035
G1 X146.339 Y93.407
G1 X145.79 Y93.865
G1 X145.608 Y94.039
G1 X145.197 Y94.688
G1 X145.239 Y95.011
G1 X145.435 Y95.571
G1 X146.171 Y95.774
G1 X146.238 Y95.813
G1 X146.718 Y95.928
G1 X147.226 Y96.088
G1 X147.337 Y96.145
G1 X148.126 Y96.257
M400
M86 B7 D0
G0 F4800 X148.072 Y97.098
; TYPE:WALL-INNER
M400
M86 B7 D1
G1 F112.8 X148.585 Y97.091
G1 X149.119 Y97.042
G1 X149.766 Y96.924
G1 X150.852 Y96.199
G1 X151.222 Y95.826
G1 X151.511 Y95.43
G1 X151.932 Y94.653
G1 X151.97 Y94.169
G1 X152.057 Y93.826
G1 X151.841 Y92.907
G1 X151.693 Y92.613
G1 X151.307 Y92.058
G1 X150.977 Y91.78
G1 X150.687 Y91.595
G1 X150.066 Y91.353
G1 X149.019 Y91.317
G1 X148.782 Y91.364
G1 X148.441 Y91.391
G1 X147.672 Y91.622
G1 X147.408 Y91.78
G1 X146.826 Y92.028
G1 X146.351 Y92.35
G1 X145.818 Y92.748
G1 X145.229 Y93.239
G1 X144.953 Y93.504
G1 X144.324 Y94.495
G1 X144.418 Y95.206
G1 X144.787 Y96.264
G1 X145.843 Y96.556
G1 X145.921 Y96.601
G1 X146.499 Y96.74
G1 X146.907 Y96.869
G1 X147.079 Y96.957
G1 X148.072 Y97.098
M400
M86 B7 D0
G0 Z3.8
G0 F4800 X146.084 Y97.442
; TYPE:FILL
G0 Z1.8
M400
M86 B7 D1
G1 F112.8 X142.192 Y101.335
M400
M86 B7 D0
G0 F4800 X142.916 Y101.339
M400
M86 B7 D1
G1 F112.8 X141.831 Y100.253
M400
M86 B7 D0
G0 Z3.8
G0 F4800 X144.516 Y96.998
G0 Z1.8
M400
M86 B7 D1
G1 F112.8 X148.817 Y101.3
M400
M86 B7 D0
G0 F4800 X148.152 Y101.314
M400
M86 B7 D1
G1 F112.8 X153.353 Y96.114
M400
M86 B7 D0
G0 Z3.8
G0 F4800 X153.348 Y93.951
G0 Z1.8
M400
M86 B7 D1
G1 F112.8 X152.745 Y93.348
M400
M86 B7 D0
G0 Z3.8
G0 F4800 X151.933 Y91.594
G0 Z1.8
M400
M86 B7 D1
G1 F112.8 X153.341 Y90.186
M400
M86 B7 D0
G0 Z3.8
G0 F4800 X154.441 Y88.343
G0 Z1.8
M400
M86 B7 D1
G1 F112.8 X154.485 Y88.213
M400
M86 B7 D0
G0 F4800 X154.226 Y87.821
M400
M86 B7 D1
G1 F112.8 X154.219 Y87.783
M400
M86 B7 D0
G0 Z3.8
G0 F4800 X152.851 Y87.091
G0 Z1.8
M400
M86 B7 D1
G1 F112.8 X152.854 Y86.929
M400
M86 B7 D0
G0 F4800 X152.857 Y86.915
M400
M86 B7 D1
G1 F112.8 X152.889 Y87.009
M400
M86 B7 D0
G0 F4800 X152.775 Y86.877
M400
M86 B7 D1
G1 F112.8 X152.679 Y87.103
M400
M86 B7 D0
G0 Z3.8
G0 F4800 X149.497 Y90.1
G0 Z1.8
M400
M86 B7 D1
G1 F112.8 X149.966 Y90.569
M400
M86 B7 D0
G0 F4800 X148.565 Y90.576
M400
M86 B7 D1
G1 F112.8 X148.32 Y90.618
M400
M86 B7 D0
G0 F4800 X148.502 Y90.604
M400
M86 B7 D1
G1 F112.8 X148.191 Y90.698
G1 X147.579 Y90.963
G1 X147.419 Y91.018
M400
M86 B7 D0
G0 F4800 X147.492 Y90.996
M400
M86 B7 D1
G1 F112.8 X147.267 Y91.076
M400
M86 B7 D0
G0 F4800 X147.34 Y91.053
M400
M86 B7 D1
G1 F112.8 X147.232 Y91.089
G1 X146.921 Y91.205
M400
M86 B7 D0
G0 F4800 X146.786 Y90.979
M400
M86 B7 D1
G1 F112.8 X146.747 Y90.998
M400
M86 B7 D0
G0 F4800 X146.964 Y91.511
M400
M86 B7 D1
G1 F112.8 X147.031 Y91.483
M400
M86 B7 D0
G0 F4800 X146.997 Y91.498
M400
M86 B7 D1
G1 F112.8 X146.93 Y91.526
M400
M86 B7 D0
G0 F4800 X146.087 Y91.5
M400
M86 B7 D1
G1 F112.8 X145.775 Y91.812
M400
M86 B7 D0
G0 F4800 X145.482 Y92.025
M400
M86 B7 D1
G1 F112.8 X144.974 Y91.517
M400
M86 B7 D0
G0 Z3.8
G0 F4800 X143.932 Y93.655
G0 Z1.8
M400
M86 B7 D1
G1 F112.8 X141.832 Y95.755
M400
M86 B7 D0
G0 F4800 X141.832 Y94.314
M400
M86 B7 D1
G1 F112.8 X144.057 Y96.539
M400
M86 B7 D0
G0 Z3.8
G0 F4800 X150.697 Y97.239
G0 Z1.8
M400
M86 B7 D1
G1 F112.8 X153.329 Y99.871
M400
M86 B7 D0
G0 Z3.8
G0 F4800 X141.973 Y89.674
G0 Z1.8
M400
M86 B7 D1
G1 F112.8 X141.832 Y89.815
M400
M86 B7 D0
G0 F4800 X141.893 Y89.552
M400
M86 B7 D1
G1 F112.8 X141.736 Y88.847
G1 X141.633 Y87.999
G1 X141.594 Y87.166
M400
M86 B7 D0
G0 F4800 X141.594 Y86.805
M400
M86 B7 D1
G1 F112.8 X141.55 Y86.095
M400
M86 B7 D0
G0 F4800 X141.473 Y86.095
M400
M86 B7 D1
G1 F112.8 X141.549 Y86.805
M400
M86 B7 D0
G0 Z3.8
G0 F4800 X141.518 Y83.795
G0 Z1.8
M400
M86 B7 D1
G1 F112.8 X141.76 Y83.279
M400
M86 B7 D0
G0 F4800 X141.518 Y83.279
M400
M86 B7 D1
G1 F112.8 X141.474 Y83.795
M400
M86 B7 D0
G0 F4800 X141.995 Y82.598
M400
M86 B7 D1
G1 F112.8 X141.834 Y82.437
M400
M86 B7 D0
G0 Z3.8
G0 F4800 X143.727 Y81.981
G0 Z1.8
M400
M86 B7 D1
G1 F112.8 X144.106 Y81.601
M400
M86 B7 D0
G0 Z3.8
G0 F4800 X145.691 Y82.688
G0 Z1.8
M400
M86 B7 D1
G1 F112.8 X145.694 Y82.69
M400
M86 B7 D0
G0 F4800 X146.194 Y82.64
M400
M86 B7 D1
G1 F112.8 X146.279 Y82.623
M400
M86 B7 D0
G0 F4800 X146.76 Y82.18
M400
M86 B7 D1
G1 F112.8 X147.075 Y82.206
M400
M86 B7 D0
G0 F4800 X147.213 Y82.207
M400
M86 B7 D1
G1 F112.8 X147.452 Y82.2
G1 X147.715 Y82.237
G1 X147.974 Y82.236
G1 X148.522 Y82.341
M400
M86 B7 D0
G0 F4800 X148.461 Y82.416
M400
M86 B7 D1
G1 F112.8 X148.867 Y82.489
M400
M86 B7 D0
G0 F4800 X148.883 Y82.497
M400
M86 B7 D1
G1 F112.8 X148.613 Y82.492
M400
M86 B7 D0
G0 F4800 X148.688 Y82.339
M400
M86 B7 D1
G1 F112.8 X148.865 Y82.402
M400
M86 B7 D0
G0 Z3.8
G0 F4800 X147.421 Y81.903
G0 Z1.8
M400
M86 B7 D1
G1 F112.8 X147.398 Y81.908
M400
M86 B7 D0
G0 F4800 X146.919 Y81.815
M400
M86 B7 D1
G1 F112.8 X146.898 Y81.817
M400
M86 B7 D0
G0 F4800 X147.582 Y81.09
M400
M86 B7 D1
G1 F112.8 X147.583 Y81.076
M400
M86 B7 D0
G0 Z3.8
G0 F4800 X146.387 Y83.469
G0 Z1.8
M400
M86 B7 D1
G1 F112.8 X146.344 Y83.472
M400
M86 B7 D0
G0 F4800 X146.031 Y83.505
M400
M86 B7 D1
G1 F112.8 X145.825 Y83.523
M400
M86 B7 D0
G0 Z3.8
G0 F4800 X142.204 Y78.428
G0 Z1.8
M400
M86 B7 D1
G1 F112.8 X142.337 Y78.265
M400
M86 B7 D0
G0 F4800 X142.994 Y77.474
M400
M86 B7 D1
G1 F112.8 X143.078 Y77.476
; Layer Change GCode
; LAYER:5
M400
M86 B7 D0
M87 B7 D1
G0 Z3.8
G0 F4800 X144.892 Y80.083 Z4.2
; TYPE:WALL-OUTER
G0 Z2.2
M400
M87 B7 D0
M78 B7 D1
M400
M86 B7 D1
G1 F112.8 X145.552 Y80.246
G1 X146.219 Y80.372
G1 X146.494 Y80.453
G1 X146.986 Y80.54
G1 X148.496 Y80.935
G1 X149.213 Y81.194
G1 X150.658 Y81.82
G1 X151.106 Y82.057
G1 X151.643 Y82.373
G1 X151.974 Y82.614
G1 X152.539 Y83.132
G1 X152.76 Y83.392
G1 X153.172 Y83.978
G1 X153.461 Y84.483
G1 X153.813 Y85.305
G1 X154.165 Y86.464
G1 X154.456 Y87.896
G1 X154.574 Y88.39
G1 X154.748 Y88.891
G1 X154.761 Y88.968
G1 X154.925 Y89.376
G1 X154.961 Y89.776
G1 X154.949 Y90.171
G1 X154.958 Y90.909
G1 X154.927 Y91.228
G1 X154.954 Y91.799
G1 X154.955 Y93.013
G1 X154.943 Y93.167
G1 X154.9 Y93.333
G1 X154.839 Y94.057
G1 X154.881 Y94.914
G1 X154.944 Y95.042
G1 X154.977 Y97.413
G1 X154.969 Y99.95
G1 X154.935 Y101
G1 X154.957 Y101.395
G1 X154.973 Y102.301
G1 X154.959 Y102.877
G1 X154.099 Y102.957
G1 X152.804 Y102.929
G1 X150.005 Y102.937
G1 X146.054 Y103.011
G1 X142.115 Y102.979
G1 X140.72 Y102.906
G1 X140.228 Y102.859
G1 X140.21 Y81.18
G1 X140.231 Y78.184
G1 X140.25 Y77.452
G1 X140.328 Y77.138
G1 X140.832 Y77.035
G1 X141.639 Y76.995
G1 X141.831 Y76.966
G1 X142.179 Y76.984
G1 X142.713 Y77.06
G1 X142.806 Y77.101
G1 X143.07 Y77.172
G1 X143.137 Y77.164
G1 X143.371 Y77.2
G1 X143.433 Y77.193
G1 X143.61 Y77.239
G1 X143.765 Y77.233
G1 X143.867 Y77.337
G1 X143.993 Y77.355
G1 X144.057 Y77.433
G1 X144.188 Y77.504
G1 X144.28 Y77.714
G1 X144.267 Y78.01
G1 X144.192 Y78.785
G1 X144.352 Y79.144
G1 X144.356 Y79.38
G1 X144.892 Y80.083
M400
M86 B7 D0
G0 Z4.2
G0 F4800 X141.813 Y83.84
; TYPE:WALL-INNER
G0 Z2.2
M400
M86 B7 D1
G1 F112.8 X142.571 Y82.945
G1 X143.42 Y82.575
G1 X143.912 Y82.616
G1 X145.369 Y82.906
G1 X146.343 Y82.939
G1 X146.689 Y82.904
G1 X148.418 Y82.941
G1 X149.767 Y82.909
G1 X150.264 Y82.96
M400
M86 B7 D0
G0 F4800 X150.117 Y82.699
M400
M86 B7 D1
G1 F112.8 X150.344 Y82.777
G1 X150.767 Y82.912
M400
M86 B7 D0
G0 F4800 X150.812 Y82.949
M400
M86 B7 D1
G1 F112.8 X151.136 Y83.144
G1 X151.28 Y83.226
G1 X151.592 Y83.414
M400
M86 B7 D0
G0 F4800 X151.665 Y83.467
M400
M86 B7 D1
G1 F112.8 X151.34 Y83.269
M400
M86 B7 D0
G0 F4800 X151.413 Y83.323
M400
M86 B7 D1
G1 F112.8 X151.886 Y83.667
M400
M86 B7 D0
G0 F4800 X151.092 Y83.187
M400
M86 B7 D1
G1 F112.8 X151.001 Y83.114
M400
M86 B7 D0
G0 F4800 X149.97 Y82.438
M400
M86 B7 D1
G1 F112.8 X148.897 Y81.973
G1 X148.253 Y81.74
G1 X146.802 Y81.361
G1 X145.373 Y81.067
G1 X144.403 Y80.828
G1 X143.521 Y79.669
G1 X143.515 Y79.33
G1 X143.335 Y78.925
G1 X143.417 Y78.077
G1 X143.39 Y78.05
G1 X143.006 Y78.025
G1 X142.477 Y77.874
G1 X141.873 Y77.809
G1 X141.08 Y77.863
G1 X141.05 Y81.186
G1 X141.052 Y83.841
M400
M86 B7 D0
G0 F4800 X141.432 Y83.84
M400
M86 B7 D1
G1 F112.8 X141.432 Y84.877
M400
M86 B7 D0
G0 F4800 X141.052 Y84.878
M400
M86 B7 D1
G1 F112.8 X141.058 Y102.082
G1 X142.143 Y102.139
G1 X146.045 Y102.171
G1 X149.996 Y102.097
G1 X154.129 Y102.11
G1 X154.094 Y101.009
G1 X154.129 Y99.951
G1 X154.111 Y95.252
G1 X154.05 Y95.129
G1 X153.997 Y94.042
G1 X154.069 Y93.194
G1 X154.112 Y93.025
G1 X154.085 Y91.208
G1 X154.117 Y90.875
G1 X154.099 Y89.573
G1 X153.767 Y88.626
G1 X153.353 Y86.683
G1 X153.286 Y86.462
M400
M86 B7 D0
G0 F4800 X153.108 Y86.516
M400
M86 B7 D1
G1 F112.8 X153.009 Y85.676
M400
M86 B7 D0
G0 F4800 X153.044 Y85.665
M400
M86 B7 D1
G1 F112.8 X153.021 Y85.589
M400
M86 B7 D0
G0 F4800 X152.988 Y85.597
M400
M86 B7 D1
G1 F112.8 X152.875 Y85.249
M400
M86 B7 D0
G0 F4800 X152.915 Y85.427
M400
M86 B7 D1
G1 F112.8 X152.997 Y85.638
M400
M86 B7 D0
G0 F4800 X152.93 Y86.571
M400
M86 B7 D1
G1 F112.8 X152.604 Y87.381
G1 X152.076 Y88.202
G1 X151.42 Y88.972
G1 X150.669 Y89.403
G1 X149.982 Y89.657
G1 X149.116 Y89.804
G1 X148.732 Y89.986
G1 X148.12 Y90.204
G1 X147.567 Y90.467
G1 X146.936 Y90.683
G1 X146.16 Y90.822
G1 X145.556 Y90.84
G1 X144.972 Y90.77
G1 X143.736 Y90.4
G1 X143.303 Y89.996
G1 X142.831 Y89.352
G1 X142.566 Y88.657
G1 X142.398 Y87.938
G1 X142.236 Y86.562
G1 X141.93 Y85.542
G1 X141.813 Y84.877
M400
M86 B7 D0
G0 F4800 X142.653 Y84.148
; TYPE:WALL-OUTER
M400
M86 B7 D1
G1 F112.8 X142.653 Y84.804
G1 X142.747 Y85.335
G1 X142.896 Y85.781
G1 X143.063 Y86.403
G1 X143.227 Y87.793
G1 X143.371 Y88.41
G1 X143.576 Y88.947
G1 X143.934 Y89.436
G1 X144.165 Y89.651
G1 X145.144 Y89.945
G1 X145.593 Y89.999
G1 X146.073 Y89.984
G1 X146.725 Y89.868
G1 X147.25 Y89.688
G1 X147.795 Y89.428
G1 X148.411 Y89.209
G1 X148.842 Y89.005
G1 X149.468 Y88.862
G1 X149.541 Y88.869
G1 X149.778 Y88.837
G1 X150.312 Y88.64
G1 X150.867 Y88.321
G1 X151.272 Y87.824
G1 X151.415 Y87.677
G1 X151.855 Y86.994
G1 X152.098 Y86.388
G1 X152.129 Y85.76
G1 X151.983 Y85.114
G1 X151.606 Y84.565
G1 X151.419 Y84.368
G1 X150.742 Y83.979
G1 X150.628 Y83.89
G1 X150.25 Y83.803
G1 X149.734 Y83.75
G1 X148.423 Y83.782
G1 X146.895 Y83.766
G1 X146.708 Y83.749
G1 X146.525 Y83.775
G1 X146.334 Y83.78
G1 X145.529 Y83.737
G1 X145.336 Y83.751
G1 X144.895 Y83.683
G1 X143.789 Y83.449
G1 X143.561 Y83.43
G1 X143.086 Y83.637
G1 X142.653 Y84.148
M400
M86 B7 D0
G0 Z4.2
G0 F4800 X147.226 Y91.675
; TYPE:WALL-INNER
G0 Z2.2
M400
M86 B7 D1
G1 F112.8 X145.501 Y92.817
G1 X144.778 Y93.5
G1 X144.041 Y94.519
G1 X144.278 Y96.124
G1 X145.151 Y96.513
G1 X145.787 Y96.681
G1 X145.947 Y96.681
G1 X146.651 Y96.804
G1 X147.223 Y96.997
G1 X148.071 Y97.085
G1 X148.598 Y97.104
G1 X149.425 Y97.075
G1 X150.107 Y96.907
G1 X151.236 Y96.225
G1 X151.882 Y95.45
G1 X152.246 Y94.814
G1 X152.556 Y94.056
G1 X152.567 Y93.062
G1 X152.341 Y92.318
G1 X152.139 Y91.921
G1 X151.629 Y91.222
G1 X151.347 Y91.13
G1 X151.107 Y90.94
G1 X150.674 Y90.85
G1 X150.525 Y90.788
G1 X150.066 Y90.742
G1 X149.056 Y90.84
G1 X148.442 Y91.048
G1 X148.106 Y91.222
G1 X147.952 Y91.259
G1 X147.226 Y91.675
M400
M86 B7 D0
G0 Z4.2
G0 F4800 X148.599 Y96.263
; TYPE:WALL-OUTER
G0 Z2.2
M400
M86 B7 D1
G1 F112.8 X149.308 Y96.238
G1 X149.782 Y96.122
G1 X150.681 Y95.579
G1 X151.189 Y94.969
G1 X151.489 Y94.445
G1 X151.718 Y93.886
G1 X151.726 Y93.182
G1 X151.559 Y92.633
G1 X151.421 Y92.362
G1 X151.111 Y91.937
G1 X150.942 Y91.881
G1 X150.741 Y91.722
G1 X150.429 Y91.658
G1 X150.318 Y91.611
G1 X150.065 Y91.586
G1 X149.234 Y91.667
G1 X148.772 Y91.823
G1 X148.402 Y92.015
G1 X148.265 Y92.048
G1 X147.667 Y92.39
G1 X146.025 Y93.478
G1 X145.412 Y94.057
G1 X144.922 Y94.734
G1 X145.041 Y95.545
G1 X145.431 Y95.718
G1 X145.896 Y95.841
G1 X146.018 Y95.841
G1 X146.863 Y95.989
G1 X147.402 Y96.171
G1 X148.13 Y96.246
G1 X148.599 Y96.263
M400
M86 B7 D0
G0 Z4.2
G0 F4800 X150.835 Y97.377
; TYPE:FILL
G0 Z2.2
M400
M86 B7 D1
G1 F112.8 X153.348 Y99.891
M400
M86 B7 D0
G0 F4800 X153.682 Y101.351
M400
M86 B7 D1
G1 F112.8 X153.699 Y101.562
M400
M86 B7 D0
G0 Z4.2
G0 F4800 X148.855 Y101.338
G0 Z2.2
M400
M86 B7 D1
G1 F112.8 X144.669 Y97.151
M400
M86 B7 D0
G0 F4800 X146.039 Y97.488
M400
M86 B7 D1
G1 F112.8 X142.168 Y101.358
M400
M86 B7 D0
G0 F4800 X142.943 Y101.365
M400
M86 B7 D1
G1 F112.8 X141.836 Y100.258
M400
M86 B7 D0
G0 Z4.2
G0 F4800 X141.835 Y95.752
G0 Z2.2
M400
M86 B7 D1
G1 F112.8 X143.228 Y94.359
M400
M86 B7 D0
G0 F4800 X141.835 Y94.317
M400
M86 B7 D1
G1 F112.8 X143.462 Y95.944
M400
M86 B7 D0
G0 Z4.2
G0 F4800 X145.403 Y91.945
G0 Z2.2
M400
M86 B7 D1
G1 F112.8 X145.018 Y91.561
M400
M86 B7 D0
G0 Z4.2
G0 F4800 X146.604 Y91.278
G0 Z2.2
M400
M86 B7 D1
G1 F112.8 X147.049 Y91.174
G1 X147.394 Y90.991
M400
M86 B7 D0
G0 F4800 X147.418 Y90.978
M400
M86 B7 D1
G1 F112.8 X147.842 Y90.841
M400
M86 B7 D0
G0 F4800 X148.001 Y90.758
M400
M86 B7 D1
G1 F112.8 X148.04 Y90.742
M400
M86 B7 D0
G0 F4800 X148.027 Y90.746
M400
M86 B7 D1
G1 F112.8 X148.114 Y90.707
G1 X148.584 Y90.526
M400
M86 B7 D0
G0 F4800 X148.585 Y90.517
M400
M86 B7 D1
G1 F112.8 X148.12 Y90.709
M400
M86 B7 D0
G0 F4800 X148.609 Y90.548
M400
M86 B7 D1
G1 F112.8 X148.622 Y90.544
M400
M86 B7 D0
G0 F4800 X148.591 Y90.482
M400
M86 B7 D1
G1 F112.8 X148.587 Y90.483
M400
M86 B7 D0
G0 F4800 X149.083 Y90.324
M400
M86 B7 D1
G1 F112.8 X149.259 Y90.281
M400
M86 B7 D0
G0 F4800 X149.265 Y90.282
M400
M86 B7 D1
G1 F112.8 X149.234 Y90.29
M400
M86 B7 D0
G0 F4800 X149.222 Y90.255
M400
M86 B7 D1
G1 F112.8 X149.091 Y90.28
M400
M86 B7 D0
G0 F4800 X149.247 Y90.246
M400
M86 B7 D1
G1 F112.8 X149.401 Y90.17
M400
M86 B7 D0
G0 F4800 X149.814 Y90.228
M400
M86 B7 D1
G1 F112.8 X150.331 Y90.225
G1 X150.442 Y90.257
M400
M86 B7 D0
G0 F4800 X150.356 Y90.221
M400
M86 B7 D1
G1 F112.8 X150.631 Y90.187
M400
M86 B7 D0
G0 F4800 X150.609 Y90.128
M400
M86 B7 D1
G1 F112.8 X150.824 Y90.116
M400
M86 B7 D0
G0 F4800 X150.695 Y90.163
M400
M86 B7 D1
G1 F112.8 X150.546 Y90.152
M400
M86 B7 D0
G0 Z4.2
G0 F4800 X152.472 Y91.054
G0 Z2.2
M400
M86 B7 D1
G1 F112.8 X153.333 Y90.193
M400
M86 B7 D0
G0 Z4.2
G0 F4800 X153.102 Y87.869
G0 Z2.2
M400
M86 B7 D1
G1 F112.8 X153.086 Y87.453
M400
M86 B7 D0
G0 F4800 X153.023 Y87.465
M400
M86 B7 D1
G1 F112.8 X152.944 Y87.714
M400
M86 B7 D0
G0 Z4.2
G0 F4800 X152.7 Y84.756
G0 Z2.2
M400
M86 B7 D1
G1 F112.8 X152.497 Y84.429
G1 X152.251 Y84.075
G1 X152.131 Y83.922
M400
M86 B7 D0
G0 F4800 X152.178 Y83.971
M400
M86 B7 D1
G1 F112.8 X152.071 Y83.851
M400
M86 B7 D0
G0 F4800 X152.323 Y83.558
M400
M86 B7 D1
G1 F112.8 X152.326 Y83.531
M400
M86 B7 D0
G0 F4800 X152.362 Y83.573
M400
M86 B7 D1
G1 F112.8 X152.399 Y83.634
M400
M86 B7 D0
G0 F4800 X152.154 Y83.342
M400
M86 B7 D1
G1 F112.8 X152.01 Y83.224
M400
M86 B7 D0
G0 Z4.2
G0 F4800 X148.909 Y82.509
G0 Z2.2
M400
M86 B7 D1
G1 F112.8 X148.579 Y82.442
M400
M86 B7 D0
G0 F4800 X148.625 Y82.395
M400
M86 B7 D1
G1 F112.8 X148.907 Y82.434
M400
M86 B7 D0
G0 F4800 X148.787 Y82.391
M400
M86 B7 D1
G1 F112.8 X148.435 Y82.326
M400
M86 B7 D0
G0 F4800 X148.12 Y82.328
M400
M86 B7 D1
G1 F112.8 X147.245 Y82.214
G1 X147.02 Y82.189
M400
M86 B7 D0
G0 F4800 X147.137 Y82.186
M400
M86 B7 D1
G1 F112.8 X146.896 Y82.156
M400
M86 B7 D0
G0 F4800 X146.936 Y81.836
M400
M86 B7 D1
G1 F112.8 X146.912 Y81.823
M400
M86 B7 D0
G0 F4800 X146.978 Y81.84
M400
M86 B7 D1
G1 F112.8 X147.02 Y81.852
M400
M86 B7 D0
G0 F4800 X146.68 Y81.771
M400
M86 B7 D1
G1 F112.8 X146.638 Y81.758
M400
M86 B7 D0
G0 F4800 X146.614 Y81.754
M400
M86 B7 D1
G1 F112.8 X146.53 Y81.744
M400
M86 B7 D0
G0 F4800 X146.808 Y82.493
M400
M86 B7 D1
G1 F112.8 X146.793 Y82.508
M400
M86 B7 D0
G0 F4800 X146.804 Y83.336
M400
M86 B7 D1
G1 F112.8 X146.834 Y83.347
M400
M86 B7 D0
G0 Z4.2
G0 F4800 X144.14 Y81.567
G0 Z2.2
M400
M86 B7 D1
G1 F112.8 X143.877 Y81.83
M400
M86 B7 D0
G0 Z4.2
G0 F4800 X141.911 Y82.514
G0 Z2.2
M400
M86 B7 D1
G1 F112.8 X141.829 Y82.432
M400
M86 B7 D0
G0 Z4.2
G0 F4800 X141.472 Y85.502
G0 Z2.2
M400
M86 B7 D1
G1 F112.8 X141.497 Y85.897
G1 X141.581 Y86.397
M400
M86 B7 D0
G0 F4800 X141.581 Y86.149
M400
M86 B7 D1
G1 F112.8 X141.648 Y86.644
G1 X141.728 Y88.011
G1 X141.818 Y88.78
M400
M86 B7 D0
G0 F4800 X142.078 Y89.569
M400
M86 B7 D1
G1 F112.8 X141.832 Y89.815
M400
M86 B7 D0
G0 Z4.2
G0 F4800 X142.074 Y78.272
G0 Z2.2
M400
M86 B7 D1
G1 F112.8 X142.127 Y78.256
M400
M86 B7 D0
G0 F4800 X142.062 Y78.266
M400
M86 B7 D1
G1 F112.8 X141.979 Y78.235
M400
M86 B7 D0
G0 F4800 X142.259 Y77.443
M400
M86 B7 D1
G1 F112.8 X142.369 Y77.435
M400
M86 B7 D0
G0 F4800 X143.221 Y77.609
M400
M86 B7 D1
G1 F112.8 X143.247 Y77.606
M400
M86 B7 D0
G0 F4800 X143.363 Y77.624
M400
M86 B7 D1
G1 F112.8 X143.464 Y77.642
M400
M86 B7 D0
G0 F4800 X143.5 Y77.639
M400
M86 B7 D1
G1 F112.8 X143.516 Y77.678
M400
M86 B7 D0
G0 F4800 X143.594 Y77.69
M400
M86 B7 D1
G1 F112.8 X143.668 Y77.704
M400
M86 B7 D0
G0 F4800 X143.674 Y77.711
M400
M86 B7 D1
G1 F112.8 X143.684 Y77.703
M400
M86 B7 D0
G0 F4800 X143.761 Y77.766
M400
M86 B7 D1
G1 F112.8 X143.722 Y77.814
M400
M86 B7 D0
G0 Z4.2
G0 F4800 X140.784 Y77.823
G0 Z2.2
M400
M86 B7 D1
G1 F112.8 X140.791 Y77.479
M400
M86 B7 D0
G0 F4800 X140.793 Y77.478
M400
M86 B7 D1
G1 F112.8 X140.791 Y77.476
M400
M86 B7 D0
G0 Z4.2
G0 F4800 X153.341 Y92.981
G0 Z2.2
M400
M86 B7 D1
G1 F112.8 X153.32 Y93.12
G1 X153.276 Y94.032
G1 X153.277 Y94.124
M400
M86 B7 D0
G0 Z4.2
G0 F4800 X153.34 Y96.126
G0 Z2.2
M400
M86 B7 D1
G1 F112.8 X153.299 Y96.167
M400
M86 B7 D0
G0 F4800 X153.21 Y96.256
M400
M86 B7 D1
G1 F112.8 X148.114 Y101.352
M400
M86 B7 D0
G0 Z4.2
G0 F4800 X152.819 Y98.174
; TYPE:TOP-FILL
G0 Z2.2
M400
M86 B7 D1
G1 F112.8 X153.306 Y98.661
M400
M86 B7 D0
G0 F4800 X153.347 Y97.514
M400
M86 B7 D1
G1 F112.8 X152.876 Y97.043
M400
M86 B7 D0
G0 F4800 X153.342 Y96.321
M400
M86 B7 D1
G1 F112.8 X153.225 Y96.204
; Layer Change GCode
; LAYER:6
M400
M86 B7 D0
M87 B7 D1
G0 Z4.2
G0 F4800 X154.319 Y97.896 Z4.6
; TYPE:WALL-OUTER
G0 Z2.6
M400
M87 B7 D0
M78 B7 D1
M400
M86 B7 D1
G1 F112.8 X154.095 Y98.135
G1 X153.787 Y98.293
G1 X153.451 Y98.36
M400
M86 B7 D0
G0 F4800 X153.254 Y98.451
M400
M86 B7 D1
G1 F112.8 X153.126 Y98.689
M400
M86 B7 D0
G0 F4800 X153.16 Y98.763
M400
M86 B7 D1
G1 F112.8 X153.271 Y98.488
M400
M86 B7 D0
G0 F4800 X153.057 Y98.543
M400
M86 B7 D1
G1 F112.8 X152.701 Y97.776
G1 X152.816 Y97.498
G1 X152.904 Y97.134
G1 X152.995 Y96.92
G1 X153.029 Y96.642
G1 X153.265 Y96.287
G1 X153.437 Y95.699
G1 X153.719 Y95.133
G1 X154.151 Y93.928
G1 X154.606 Y92.379
G1 X154.605 Y92.153
G1 X154.797 Y90.707
G1 X154.819 Y89.845
G1 X154.783 Y89.688
G1 X154.742 Y88.889
G1 X154.67 Y88.262
G1 X154.451 Y87.028
G1 X154.251 Y86.333
G1 X153.944 Y85.319
G1 X153.583 Y84.448
G1 X153.295 Y83.912
G1 X152.795 Y83.224
G1 X152.444 Y82.811
G1 X151.681 Y82.247
G1 X150.622 Y81.689
G1 X149.103 Y81.14
G1 X148.524 Y80.964
G1 X146.865 Y80.604
G1 X145.897 Y80.125
G1 X145.706 Y80.084
G1 X145.424 Y79.679
G1 X145.266 Y79.368
G1 X145.326 Y78.682
G1 X145.427 Y78.351
G1 X145.568 Y77.31
G1 X145.45 Y76.799
G1 X145.211 Y76.53
G1 X144.824 Y76.376
G1 X144.558 Y76.362
G1 X144.017 Y76.509
G1 X143.569 Y76.693
G1 X143.368 Y76.854
G1 X142.814 Y77.042
G1 X142.729 Y76.97
G1 X142.397 Y76.947
G1 X141.741 Y77.03
G1 X140.481 Y77.091
G1 X140.403 Y77.415
G1 X140.254 Y77.82
G1 X140.211 Y87.542
G1 X140.234 Y102.508
G1 X140.43 Y102.878
G1 X142.232 Y102.977
G1 X146.62 Y103.036
G1 X150.237 Y102.975
G1 X153.783 Y102.989
G1 X154.941 Y102.888
G1 X154.965 Y102.616
G1 X154.927 Y101.721
G1 X154.98 Y99.668
G1 X154.964 Y97.89
G1 X154.961 Y97.55
M400
M86 B7 D0
G0 F4800 X154.864 Y97.551
M400
M86 B7 D1
G1 F112.8 X154.959 Y97.267
M400
M86 B7 D0
G0 F4800 X154.863 Y97.409
M400
M86 B7 D1
G1 F112.8 X154.64 Y97.723
M400
M86 B7 D0
G0 F4800 X154.135 Y99.059
; TYPE:WALL-INNER
M400
M86 B7 D1
G1 F112.8 X154.036 Y99.121
M400
M86 B7 D0
G0 F4800 X153.939 Y99.12
M400
M86 B7 D1
G1 F112.8 X153.003 Y100.418
G1 X151.784 Y97.795
G1 X152.014 Y97.239
G1 X152.175 Y96.7
G1 X152.214 Y96.381
G1 X152.47 Y95.951
G1 X152.507 Y95.888
M400
M86 B7 D0
G0 F4800 X152.09 Y95.858
M400
M86 B7 D1
G1 F112.8 X152.215 Y95.704
G1 X152.313 Y95.447
G1 X152.54 Y95.083
G1 X152.69 Y94.836
G1 X152.843 Y94.453
G1 X153.066 Y93.91
G1 X153.143 Y93.545
G1 X153.234 Y93.191
G1 X153.335 Y92.669
G1 X153.36 Y92.244
M400
M86 B7 D0
G0 F4800 X152.956 Y92.299
M400
M86 B7 D1
G1 F112.8 X152.82 Y91.68
G1 X152.611 Y91.095
G1 X152.167 Y90.283
M400
M86 B7 D0
G0 F4800 X151.972 Y89.998
M400
M86 B7 D1
G1 F112.8 X151.845 Y90.008
M400
M86 B7 D0
G0 F4800 X151.892 Y89.953
M400
M86 B7 D1
G1 F112.8 X151.74 Y89.767
M400
M86 B7 D0
G0 F4800 X151.737 Y89.764
M400
M86 B7 D1
G1 F112.8 X151.746 Y89.763
M400
M86 B7 D0
G0 F4800 X151.791 Y89.705
M400
M86 B7 D1
G1 F112.8 X152.201 Y89.439
G1 X152.674 Y88.65
G1 X152.906 Y88.14
G1 X153.275 Y87.091
M400
M86 B7 D0
G0 F4800 X153.418 Y87.025
M400
M86 B7 D1
G1 F112.8 X153.344 Y86.685
M400
M86 B7 D0
G0 F4800 X153.428 Y86.996
M400
M86 B7 D1
G1 F112.8 X153.393 Y86.338
M400
M86 B7 D0
G0 F4800 X153.561 Y86.96
M400
M86 B7 D1
G1 F112.8 X153.631 Y87.216
G1 X153.837 Y88.373
G1 X153.902 Y88.945
G1 X153.952 Y89.821
G1 X153.976 Y89.926
G1 X153.96 Y90.627
G1 X153.765 Y92.19
M400
M86 B7 D0
G0 Z4.6
G0 F4800 X151.674 Y95.828
G0 Z2.6
M400
M86 B7 D1
G1 F112.8 X151.182 Y96.308
G1 X150.429 Y96.687
G1 X149.699 Y96.977
G1 X149.236 Y97.047
G1 X147.653 Y96.951
G1 X147.336 Y96.807
G1 X146.718 Y96.679
G1 X145.818 Y96.766
G1 X145.333 Y96.728
G1 X144.72 Y96.58
G1 X143.767 Y95.723
G1 X144.053 Y94.219
G1 X144.713 Y93.431
G1 X145.574 Y92.706
G1 X146.517 Y92.16
G1 X147.696 Y91.195
M400
M86 B7 D0
G0 F4800 X147.518 Y90.979
M400
M86 B7 D1
G1 F112.8 X148.64 Y90.385
G1 X148.724 Y90.355
M400
M86 B7 D0
G0 F4800 X147.341 Y90.763
M400
M86 B7 D1
G1 F112.8 X146.612 Y90.933
G1 X145.914 Y90.978
G1 X145.326 Y90.917
G1 X144.466 Y90.606
G1 X143.796 Y90.311
G1 X143.434 Y89.931
G1 X142.998 Y89.346
G1 X142.733 Y88.587
G1 X142.586 Y87.737
G1 X142.527 Y86.934
G1 X142.322 Y86.191
G1 X142.191 Y85.926
G1 X141.912 Y85.187
G1 X141.726 Y84.166
G1 X142.111 Y83.295
G1 X142.765 Y82.607
G1 X143.592 Y82.434
G1 X144.369 Y82.517
G1 X145.667 Y82.79
G1 X147.915 Y83.026
G1 X148.206 Y83.02
G1 X148.557 Y83.071
G1 X149.902 Y82.934
G1 X150.254 Y82.956
M400
M86 B7 D0
G0 F4800 X150.175 Y82.674
M400
M86 B7 D1
G1 F112.8 X150.425 Y82.717
G1 X150.91 Y82.888
M400
M86 B7 D0
G0 F4800 X150.935 Y82.901
M400
M86 B7 D1
G1 F112.8 X151.392 Y83.142
G1 X151.519 Y83.221
G1 X151.849 Y83.451
M400
M86 B7 D0
G0 F4800 X151.825 Y83.444
M400
M86 B7 D1
G1 F112.8 X152.04 Y83.633
M400
M86 B7 D0
G0 F4800 X151.944 Y83.52
M400
M86 B7 D1
G1 F112.8 X151.73 Y83.375
M400
M86 B7 D0
G0 F4800 X151.154 Y83.116
M400
M86 B7 D1
G1 F112.8 X151.104 Y83.089
M400
M86 B7 D0
G0 F4800 X150.097 Y82.392
M400
M86 B7 D1
G1 F112.8 X148.826 Y81.933
G1 X148.308 Y81.776
G1 X146.573 Y81.401
G1 X145.61 Y80.922
G1 X145.206 Y80.835
G1 X144.701 Y80.111
G1 X144.408 Y79.533
G1 X144.497 Y78.521
G1 X144.605 Y78.169
G1 X144.695 Y77.52
G1 X144.719 Y77.34
G1 X144.702 Y77.267
M400
M86 B7 D0
G0 F4800 X144.695 Y77.233
M400
M86 B7 D1
G1 F112.8 X144.64 Y77.21
M400
M86 B7 D0
G0 F4800 X144.667 Y77.221
M400
M86 B7 D1
G1 F112.8 X144.35 Y77.346
M400
M86 B7 D0
G0 F4800 X143.998 Y77.425
M400
M86 B7 D1
G1 F112.8 X143.777 Y77.602
G1 X142.634 Y77.99
G1 X142.398 Y77.79
G1 X141.825 Y77.868
G1 X141.124 Y77.889
G1 X141.093 Y77.972
G1 X141.065 Y84.164
G1 X141.051 Y87.546
G1 X141.068 Y102.082
G1 X142.257 Y102.137
G1 X146.617 Y102.196
G1 X150.23 Y102.135
G1 X153.763 Y102.148
G1 X154.103 Y102.121
G1 X154.086 Y101.728
G1 X154.134 Y99.123
M400
M86 B7 D0
G0 Z4.6
G0 F4800 X149.192 Y96.204
; TYPE:WALL-OUTER
G0 Z2.6
M400
M86 B7 D1
G1 F112.8 X149.46 Y96.164
G1 X149.633 Y96.086
G1 X149.784 Y96.047
G1 X150.077 Y95.924
G1 X150.688 Y95.616
G1 X151.259 Y95.059
G1 X151.713 Y94.435
G1 X151.973 Y93.894
G1 X152.085 Y93.319
G1 X152.082 Y93.177
G1 X152.147 Y92.795
G1 X152.122 Y92.418
G1 X152.011 Y91.912
G1 X151.842 Y91.44
G1 X151.563 Y90.929
G1 X151.452 Y90.878
G1 X151.272 Y90.642
G1 X150.768 Y90.645
G1 X150.377 Y90.593
G1 X150.06 Y90.745
G1 X149.604 Y90.865
G1 X149.319 Y91.022
G1 X149.205 Y91.045
G1 X148.801 Y91.358
G1 X148.722 Y91.459
G1 X148.585 Y91.537
G1 X147.707 Y92.277
G1 X147.378 Y92.524
G1 X147.033 Y92.825
G1 X146.772 Y93.002
G1 X146.032 Y93.414
G1 X145.314 Y94.022
G1 X144.837 Y94.591
G1 X144.68 Y95.415
G1 X145.123 Y95.813
G1 X145.466 Y95.896
G1 X145.805 Y95.923
G1 X146.371 Y95.846
G1 X146.766 Y95.837
G1 X147.129 Y95.89
G1 X147.619 Y96.012
G1 X147.864 Y96.124
G1 X149.192 Y96.204
M400
M86 B7 D0
G0 Z4.6
G0 F4800 X143.193 Y83.376
G0 Z2.6
M400
M86 B7 D1
G1 F112.8 X142.82 Y83.768
G1 X142.599 Y84.269
G1 X142.719 Y84.932
G1 X142.794 Y85.093
G1 X142.968 Y85.603
G1 X143.102 Y85.872
G1 X143.242 Y86.303
G1 X143.36 Y86.81
G1 X143.421 Y87.634
G1 X143.549 Y88.376
G1 X143.749 Y88.947
G1 X144.077 Y89.388
G1 X144.289 Y89.61
G1 X144.779 Y89.826
G1 X145.515 Y90.092
G1 X145.93 Y90.135
G1 X146.488 Y90.099
G1 X147.117 Y89.952
G1 X148.469 Y89.533
G1 X148.624 Y89.52
G1 X148.868 Y89.451
G1 X149.153 Y89.442
G1 X149.438 Y89.364
G1 X149.612 Y89.418
G1 X149.82 Y89.425
G1 X150.073 Y89.501
G1 X150.345 Y89.549
G1 X150.538 Y89.473
G1 X150.845 Y89.41
G1 X151.104 Y89.211
G1 X151.205 Y89.083
G1 X151.581 Y88.84
G1 X151.929 Y88.259
G1 X152.117 Y87.845
G1 X152.237 Y87.446
G1 X152.298 Y87.335
G1 X152.476 Y86.832
G1 X152.556 Y86.257
G1 X152.435 Y85.553
G1 X152.199 Y85.025
G1 X151.838 Y84.502
G1 X151.174 Y84.076
G1 X150.815 Y83.886
G1 X150.453 Y83.81
G1 X149.913 Y83.776
G1 X149.327 Y83.827
G1 X149.135 Y83.861
G1 X148.76 Y83.889
G1 X148.688 Y83.914
G1 X148.501 Y83.912
G1 X148.153 Y83.861
G1 X147.883 Y83.867
G1 X147.511 Y83.818
G1 X147.233 Y83.799
G1 X146.846 Y83.744
G1 X146.562 Y83.732
G1 X146.325 Y83.695
G1 X145.538 Y83.621
G1 X144.238 Y83.348
G1 X143.635 Y83.283
G1 X143.193 Y83.376
M400
M86 B7 D0
G0 Z4.6
G0 F4800 X144.013 Y81.694
; TYPE:FILL
G0 Z2.6
M400
M86 B7 D1
G1 F112.8 X144.507 Y81.2
M400
M86 B7 D0
G0 Z4.6
G0 F4800 X146.247 Y82.035
G0 Z2.6
M400
M86 B7 D1
G1 F112.8 X146.453 Y82.122
M400
M86 B7 D0
G0 F4800 X146.782 Y82.162
M400
M86 B7 D1
G1 F112.8 X146.987 Y82.198
G1 X147.218 Y82.238
M400
M86 B7 D0
G0 F4800 X147.358 Y81.992
M400
M86 B7 D1
G1 F112.8 X147.435 Y82.011
M400
M86 B7 D0
G0 F4800 X147.582 Y82.043
M400
M86 B7 D1
G1 F112.8 X147.636 Y82.054
M400
M86 B7 D0
G0 F4800 X147.703 Y82.312
M400
M86 B7 D1
G1 F112.8 X148.001 Y82.345
M400
M86 B7 D0
G0 F4800 X148.069 Y82.157
M400
M86 B7 D1
G1 F112.8 X148.063 Y82.151
M400
M86 B7 D0
G0 F4800 X148.117 Y82.162
M400
M86 B7 D1
G1 F112.8 X148.135 Y82.172
M400
M86 B7 D0
G0 F4800 X148.366 Y82.238
M400
M86 B7 D1
G1 F112.8 X148.415 Y82.247
M400
M86 B7 D0
G0 F4800 X148.451 Y82.258
M400
M86 B7 D1
G1 F112.8 X148.487 Y82.268
M400
M86 B7 D0
G0 F4800 X148.661 Y82.417
M400
M86 B7 D1
G1 F112.8 X148.896 Y82.444
M400
M86 B7 D0
G0 F4800 X148.908 Y82.411
M400
M86 B7 D1
G1 F112.8 X148.866 Y82.394
M400
M86 B7 D0
G0 F4800 X148.932 Y82.455
M400
M86 B7 D1
G1 F112.8 X149.182 Y82.508
M400
M86 B7 D0
G0 F4800 X149.154 Y82.585
M400
M86 B7 D1
G1 F112.8 X148.955 Y82.569
M400
M86 B7 D0
G0 F4800 X148.878 Y82.541
M400
M86 B7 D1
G1 F112.8 X149.082 Y82.559
M400
M86 B7 D0
G0 F4800 X148.85 Y82.618
M400
M86 B7 D1
G1 F112.8 X148.846 Y82.61
M400
M86 B7 D0
G0 F4800 X148.625 Y82.635
M400
M86 B7 D1
G1 F112.8 X148.604 Y82.604
M400
M86 B7 D0
G0 F4800 X148.466 Y82.614
M400
M86 B7 D1
G1 F112.8 X148.38 Y82.621
M400
M86 B7 D0
G0 F4800 X148.068 Y82.602
M400
M86 B7 D1
G1 F112.8 X148.025 Y82.597
M400
M86 B7 D0
G0 F4800 X147.589 Y82.57
M400
M86 B7 D1
G1 F112.8 X147.545 Y82.561
M400
M86 B7 D0
G0 F4800 X147.324 Y82.527
M400
M86 B7 D1
G1 F112.8 X147.261 Y82.531
M400
M86 B7 D0
G0 F4800 X146.665 Y82.461
M400
M86 B7 D1
G1 F112.8 X146.585 Y82.46
M400
M86 B7 D0
G0 F4800 X146.832 Y81.883
M400
M86 B7 D1
G1 F112.8 X146.839 Y81.884
M400
M86 B7 D0
G0 Z4.6
G0 F4800 X147.795 Y83.436
G0 Z2.6
M400
M86 B7 D1
G1 F112.8 X147.874 Y83.421
M400
M86 B7 D0
G0 F4800 X148.261 Y83.469
M400
M86 B7 D1
G1 F112.8 X148.354 Y83.466
M400
M86 B7 D0
G0 F4800 X148.399 Y83.467
M400
M86 B7 D1
G1 F112.8 X148.289 Y83.46
M400
M86 B7 D0
G0 F4800 X148.878 Y83.458
M400
M86 B7 D1
G1 F112.8 X148.946 Y83.451
M400
M86 B7 D0
G0 Z4.6
G0 F4800 X152.302 Y83.84
G0 Z2.6
M400
M86 B7 D1
G1 F112.8 X152.528 Y84.16
G1 X152.752 Y84.476
G1 X152.871 Y84.704
M400
M86 B7 D0
G0 F4800 X152.852 Y84.664
M400
M86 B7 D1
G1 F112.8 X152.903 Y84.764
G1 X153.136 Y85.305
G1 X153.209 Y85.525
G1 X153.354 Y86.128
M400
M86 B7 D0
G0 Z4.6
G0 F4800 X153.376 Y88.179
G0 Z2.6
M400
M86 B7 D1
G1 F112.8 X153.36 Y88.359
M400
M86 B7 D0
G0 F4800 X153.313 Y88.224
M400
M86 B7 D1
G1 F112.8 X153.233 Y88.527
M400
M86 B7 D0
G0 F4800 X153.219 Y88.558
M400
M86 B7 D1
G1 F112.8 X153.181 Y88.726
M400
M86 B7 D0
G0 F4800 X153.234 Y88.638
M400
M86 B7 D1
G1 F112.8 X153.202 Y88.908
M400
M86 B7 D0
G0 F4800 X153.265 Y88.907
M400
M86 B7 D1
G1 F112.8 X153.213 Y89.184
M400
M86 B7 D0
G0 F4800 X153.212 Y88.995
M400
M86 B7 D1
G1 F112.8 X153.255 Y88.82
M400
M86 B7 D0
G0 F4800 X153.17 Y88.572
M400
M86 B7 D1
G1 F112.8 X153.173 Y88.566
M400
M86 B7 D0
G0 Z4.6
G0 F4800 X153.545 Y90.125
G0 Z2.6
M400
M86 B7 D1
G1 F112.8 X153.55 Y90.139
M400
M86 B7 D0
G0 F4800 X153.547 Y90.475
M400
M86 B7 D1
G1 F112.8 X153.517 Y90.649
M400
M86 B7 D0
G0 F4800 X153.267 Y90.629
M400
M86 B7 D1
G1 F112.8 X153.269 Y90.755
G1 X153.356 Y91.275
G1 X153.373 Y91.831
M400
M86 B7 D0
G0 F4800 X153.284 Y91.818
M400
M86 B7 D1
G1 F112.8 X153.203 Y91.255
M400
M86 B7 D0
G0 Z4.6
G0 F4800 X154.392 Y90.071
G0 Z2.6
M400
M86 B7 D1
G1 F112.8 X154.382 Y90.035
M400
M86 B7 D0
G0 Z4.6
G0 F4800 X151.636 Y90.413
G0 Z2.6
M400
M86 B7 D1
G1 F112.8 X151.601 Y90.38
M400
M86 B7 D0
G0 F4800 X151.1 Y90.042
M400
M86 B7 D1
G1 F112.8 X151.029 Y90.049
M400
M86 B7 D0
G0 F4800 X151.009 Y90.21
M400
M86 B7 D1
G1 F112.8 X150.912 Y90.224
M400
M86 B7 D0
G0 F4800 X150.704 Y90.213
M400
M86 B7 D1
G1 F112.8 X150.696 Y90.196
M400
M86 B7 D0
G0 F4800 X150.552 Y90.193
M400
M86 B7 D1
G1 F112.8 X150.488 Y90.185
M400
M86 B7 D0
G0 F4800 X150.293 Y90.056
M400
M86 B7 D1
G1 F112.8 X150.058 Y90.006
G1 X149.924 Y89.998
G1 X149.782 Y90.022
M400
M86 B7 D0
G0 F4800 X149.838 Y90.039
M400
M86 B7 D1
G1 F112.8 X149.703 Y90.059
G1 X149.591 Y90.097
M400
M86 B7 D0
G0 F4800 X149.623 Y89.878
M400
M86 B7 D1
G1 F112.8 X149.59 Y89.822
M400
M86 B7 D0
G0 F4800 X149.484 Y89.851
M400
M86 B7 D1
G1 F112.8 X149.405 Y89.84
M400
M86 B7 D0
G0 F4800 X149.379 Y89.848
M400
M86 B7 D1
G1 F112.8 X149.45 Y89.853
M400
M86 B7 D0
G0 F4800 X149.764 Y89.874
M400
M86 B7 D1
G1 F112.8 X149.864 Y89.877
M400
M86 B7 D0
G0 F4800 X149.999 Y90.284
M400
M86 B7 D1
G1 F112.8 X149.98 Y90.301
M400
M86 B7 D0
G0 F4800 X150.028 Y90.288
M400
M86 B7 D1
G1 F112.8 X150.097 Y90.258
M400
M86 B7 D0
G0 F4800 X150.138 Y90.259
M400
M86 B7 D1
G1 F112.8 X150.249 Y90.278
M400
M86 B7 D0
G0 F4800 X149.79 Y90.357
M400
M86 B7 D1
G1 F112.8 X149.786 Y90.375
M400
M86 B7 D0
G0 F4800 X149.235 Y90.562
M400
M86 B7 D1
G1 F112.8 X149.201 Y90.593
M400
M86 B7 D0
G0 F4800 X148.994 Y90.263
M400
M86 B7 D1
G1 F112.8 X148.896 Y90.287
M400
M86 B7 D0
G0 F4800 X148.862 Y90.294
M400
M86 B7 D1
G1 F112.8 X148.953 Y90.271
M400
M86 B7 D0
G0 F4800 X148.937 Y90.279
M400
M86 B7 D1
G1 F112.8 X149.061 Y90.226
M400
M86 B7 D0
G0 F4800 X149.015 Y89.882
M400
M86 B7 D1
G1 F112.8 X149.04 Y89.866
M400
M86 B7 D0
G0 F4800 X148.923 Y89.899
M400
M86 B7 D1
G1 F112.8 X148.905 Y89.886
M400
M86 B7 D0
G0 F4800 X148.678 Y89.926
M400
M86 B7 D1
G1 F112.8 X148.591 Y89.95
M400
M86 B7 D0
G0 Z4.6
G0 F4800 X150.748 Y89.86
G0 Z2.6
M400
M86 B7 D1
G1 F112.8 X150.838 Y89.84
M400
M86 B7 D0
G0 Z4.6
G0 F4800 X146.828 Y91.361
G0 Z2.6
M400
M86 B7 D1
G1 F112.8 X146.744 Y91.42
M400
M86 B7 D0
G0 F4800 X146.752 Y91.418
M400
M86 B7 D1
G1 F112.8 X146.82 Y91.367
M400
M86 B7 D0
G0 F4800 X146.819 Y91.363
M400
M86 B7 D1
G1 F112.8 X146.629 Y91.447
M400
M86 B7 D0
G0 F4800 X146.654 Y91.393
M400
M86 B7 D1
G1 F112.8 X146.789 Y91.326
M400
M86 B7 D0
G0 F4800 X146.739 Y91.33
M400
M86 B7 D1
G1 F112.8 X146.484 Y91.405
M400
M86 B7 D0
G0 F4800 X146.486 Y91.347
M400
M86 B7 D1
G1 F112.8 X146.321 Y91.415
M400
M86 B7 D0
G0 F4800 X146.402 Y91.41
M400
M86 B7 D1
G1 F112.8 X146.568 Y91.341
M400
M86 B7 D0
G0 F4800 X146.245 Y91.472
M400
M86 B7 D1
G1 F112.8 X146.088 Y91.608
M400
M86 B7 D0
G0 F4800 X146.183 Y91.879
M400
M86 B7 D1
G1 F112.8 X146.051 Y91.956
M400
M86 B7 D0
G0 F4800 X145.381 Y91.923
M400
M86 B7 D1
G1 F112.8 X145.135 Y91.677
M400
M86 B7 D0
G0 Z4.6
G0 F4800 X143.232 Y94.354
G0 Z2.6
M400
M86 B7 D1
G1 F112.8 X141.832 Y95.755
M400
M86 B7 D0
G0 F4800 X143.014 Y95.496
M400
M86 B7 D1
G1 F112.8 X141.832 Y94.314
M400
M86 B7 D0
G0 Z4.6
G0 F4800 X144.958 Y97.44
G0 Z2.6
M400
M86 B7 D1
G1 F112.8 X148.895 Y101.377
M400
M86 B7 D0
G0 F4800 X148.075 Y101.391
M400
M86 B7 D1
G1 F112.8 X151.16 Y98.306
M400
M86 B7 D0
G0 F4800 X151.03 Y97.573
M400
M86 B7 D1
G1 F112.8 X150.82 Y97.362
M400
M86 B7 D0
G0 F4800 X151.581 Y96.63
M400
M86 B7 D1
G1 F112.8 X151.615 Y96.472
M400
M86 B7 D0
G0 F4800 X151.664 Y96.424
M400
M86 B7 D1
G1 F112.8 X151.597 Y96.622
M400
M86 B7 D0
G0 F4800 X151.646 Y96.574
M400
M86 B7 D1
G1 F112.8 X151.717 Y96.372
M400
M86 B7 D0
G0 F4800 X151.784 Y96.44
M400
M86 B7 D1
G1 F112.8 X151.668 Y96.596
M400
M86 B7 D0
G0 Z4.6
G0 F4800 X154.238 Y98.584
G0 Z2.6
M400
M86 B7 D1
G1 F112.8 X154.449 Y98.371
M400
M86 B7 D0
G0 F4800 X154.548 Y98.37
M400
M86 B7 D1
G1 F112.8 X154.451 Y98.582
M400
M86 B7 D0
G0 Z4.6
G0 F4800 X154.97 Y97.096
G0 Z2.6
M400
M86 B7 D1
G1 F112.8 X155.02 Y96.808
M400
M86 B7 D0
G0 F4800 X154.961 Y96.605
M400
M86 B7 D1
G1 F112.8 X155.017 Y96.523
G1 X155.007 Y96.533
M400
M86 B7 D0
G0 Z4.6
G0 F4800 X146.838 Y97.154
G0 Z2.6
M400
M86 B7 D1
G1 F112.8 X146.792 Y97.113
M400
M86 B7 D0
G0 F4800 X146.586 Y97.102
M400
M86 B7 D1
G1 F112.8 X146.556 Y97.136
M400
M86 B7 D0
G0 F4800 X145.999 Y97.527
M400
M86 B7 D1
G1 F112.8 X142.175 Y101.351
M400
M86 B7 D0
G0 F4800 X142.943 Y101.365
M400
M86 B7 D1
G1 F112.8 X141.833 Y100.255
M400
M86 B7 D0
G0 Z4.6
G0 F4800 X141.83 Y89.817
G0 Z2.6
M400
M86 B7 D1
G1 F112.8 X142.204 Y89.443
M400
M86 B7 D0
G0 Z4.6
G0 F4800 X141.82 Y87.788
G0 Z2.6
M400
M86 B7 D1
G1 F112.8 X141.809 Y87.521
G1 X141.791 Y86.995
G1 X141.751 Y86.64
M400
M86 B7 D0
G0 F4800 X141.703 Y86.673
M400
M86 B7 D1
G1 F112.8 X141.638 Y86.363
G1 X141.55 Y85.959
G1 X141.492 Y85.701
G1 X141.48 Y85.368
M400
M86 B7 D0
G0 F4800 X141.704 Y86.496
M400
M86 B7 D1
G1 F112.8 X141.75 Y86.817
M400
M86 B7 D0
G0 Z4.6
G0 F4800 X144.007 Y78.217
G0 Z2.6
M400
M86 B7 D1
G1 F112.8 X144.087 Y78.027
M400
M86 B7 D0
G0 F4800 X144.067 Y78.001
M400
M86 B7 D1
G1 F112.8 X144.108 Y77.889
M400
M86 B7 D0
G0 F4800 X144.109 Y77.883
M400
M86 B7 D1
G1 F112.8 X144.131 Y77.857
M400
M86 B7 D0
G0 F4800 X144.203 Y77.904
M400
M86 B7 D1
G1 F112.8 X144.126 Y77.996
M400
M86 B7 D0
G0 F4800 X144.197 Y77.939
M400
M86 B7 D1
G1 F112.8 X144.22 Y77.899
M400
M86 B7 D0
G0 F4800 X143.88 Y77.063
M400
M86 B7 D1
G1 F112.8 X143.947 Y77.002
M400
M86 B7 D0
G0 F4800 X143.957 Y76.997
M400
M86 B7 D1
G1 F112.8 X143.99 Y76.975
M400
M86 B7 D0
G0 F4800 X144.399 Y76.84
M400
M86 B7 D1
G1 F112.8 X144.408 Y76.869
M400
M86 B7 D0
G0 F4800 X144.895 Y76.895
M400
M86 B7 D1
G1 F112.8 X144.877 Y77.049
M400
M86 B7 D0
G0 F4800 X145.109 Y77.16
M400
M86 B7 D1
G1 F112.8 X145.048 Y77.271
M400
M86 B7 D0
G0 Z4.6
G0 F4800 X142.478 Y77.375
G0 Z2.6
M400
M86 B7 D1
G1 F112.8 X142.456 Y77.447
M400
M86 B7 D0
G0 F4800 X142.289 Y77.373
M400
M86 B7 D1
G1 F112.8 X142.16 Y77.415
; Layer Change GCode
; LAYER:7
M400
M86 B7 D0
M87 B7 D1
G0 Z4.6
G0 F4800 X140.215 Y100.137 Z5
; TYPE:WALL-OUTER
G0 Z3
M400
M87 B7 D0
M78 B7 D1
M400
M86 B7 D1
G1 F112.8 X140.226 Y77.698
G1 X140.454 Y77.134
G1 X140.571 Y77.104
G1 X141.756 Y77.124
G1 X142.107 Y77.032
G1 X142.693 Y76.753
G1 X142.979 Y76.676
G1 X143.787 Y76.132
G1 X144.182 Y75.966
G1 X144.528 Y75.865
G1 X145.323 Y75.832
G1 X145.701 Y75.958
G1 X145.947 Y76.102
G1 X146.059 Y76.222
G1 X146.368 Y76.932
G1 X146.379 Y77.693
G1 X146.28 Y78.39
G1 X146.242 Y79.256
G1 X146.28 Y79.534
G1 X146.486 Y79.994
G1 X146.879 Y80.332
G1 X147.04 Y80.561
G1 X147.747 Y80.749
G1 X148.115 Y80.809
G1 X148.743 Y80.987
G1 X149.46 Y81.26
G1 X150.291 Y81.461
G1 X150.67 Y81.602
G1 X151.692 Y82.102
G1 X152.426 Y82.591
G1 X152.768 Y82.982
G1 X153.474 Y83.967
G1 X153.718 Y84.462
G1 X154.241 Y85.827
G1 X154.561 Y87.184
G1 X154.806 Y88.895
G1 X154.813 Y90.179
G1 X154.783 Y90.691
G1 X154.62 Y91.691
G1 X154.394 Y92.58
G1 X154.137 Y93.346
G1 X153.596 Y94.538
G1 X152.663 Y96.38
G1 X152.254 Y97.101
G1 X152.038 Y97.724
G1 X152.013 Y97.977
G1 X151.918 Y98.136
G1 X151.864 Y98.674
G1 X151.882 Y98.834
G1 X152.085 Y99.424
G1 X152.444 Y99.51
G1 X152.708 Y99.61
G1 X153.076 Y99.582
G1 X153.72 Y99.428
G1 X154.012 Y99.094
G1 X154.674 Y98.572
M400
M86 B7 D0
G0 F4800 X154.811 Y98.509
M400
M86 B7 D1
G1 F112.8 X154.916 Y98.41
M400
M86 B7 D0
G0 F4800 X154.917 Y98.448
M400
M86 B7 D1
G1 F112.8 X154.948 Y98.371
M400
M86 B7 D0
G0 F4800 X154.949 Y98.447
M400
M86 B7 D1
G1 F112.8 X154.951 Y98.567
G1 X154.981 Y100.328
G1 X154.932 Y102.682
G1 X154.868 Y102.804
G1 X154.855 Y102.911
G1 X153.895 Y103
G1 X147.002 Y103.058
G1 X140.794 Y102.909
G1 X140.528 Y102.883
G1 X140.3 Y102.666
G1 X140.215 Y100.137
M400
M86 B7 D0
G0 Z5
G0 F4800 X147.012 Y102.218
; TYPE:WALL-INNER
G0 Z3
M400
M86 B7 D1
G1 F112.8 X141.121 Y102.08
G1 X141.055 Y100.137
G1 X141.051 Y84.325
M400
M86 B7 D0
G0 F4800 X141.385 Y84.324
M400
M86 B7 D1
G1 F112.8 X141.431 Y83.853
G1 X141.456 Y83.154
M400
M86 B7 D0
G0 F4800 X141.051 Y83.155
M400
M86 B7 D1
G1 F112.8 X141.049 Y78.344
M400
M86 B7 D0
G0 F4800 X141.063 Y78.145
M400
M86 B7 D1
G1 F112.8 X141.059 Y77.954
M400
M86 B7 D0
G0 F4800 X141.068 Y77.954
M400
M86 B7 D1
G1 F112.8 X141.06 Y77.945
M400
M86 B7 D0
G0 F4800 X141.077 Y77.946
M400
M86 B7 D1
G1 F112.8 X141.455 Y77.974
G1 X141.877 Y77.961
G1 X142.415 Y77.819
G1 X143.012 Y77.536
G1 X143.332 Y77.451
G1 X144.188 Y76.875
G1 X144.666 Y76.7
G1 X145.209 Y76.678
G1 X145.353 Y76.727
G1 X145.513 Y77.034
G1 X145.549 Y77.167
G1 X145.54 Y77.626
G1 X145.443 Y78.313
G1 X145.399 Y79.295
G1 X145.464 Y79.767
G1 X145.795 Y80.508
G1 X146.252 Y80.901
G1 X146.529 Y81.294
G1 X147.57 Y81.571
G1 X147.933 Y81.63
G1 X148.46 Y81.78
G1 X149.233 Y82.069
G1 X150.05 Y82.267
M400
M86 B7 D0
G0 F4800 X150.043 Y82.636
M400
M86 B7 D1
G1 F112.8 X150.264 Y82.667
G1 X150.528 Y82.696
G1 X150.96 Y82.866
M400
M86 B7 D0
G0 F4800 X151.036 Y82.894
M400
M86 B7 D1
G1 F112.8 X151.308 Y83.009
G1 X151.528 Y83.126
M400
M86 B7 D0
G0 F4800 X151.365 Y83.037
M400
M86 B7 D1
G1 F112.8 X151.677 Y83.225
G1 X152.045 Y83.443
M400
M86 B7 D0
G0 F4800 X151.823 Y83.322
M400
M86 B7 D1
G1 F112.8 X152.219 Y83.653
M400
M86 B7 D0
G0 F4800 X151.175 Y83.137
M400
M86 B7 D1
G1 F112.8 X151.022 Y83.081
M400
M86 B7 D0
G0 F4800 X150.037 Y83.006
M400
M86 B7 D1
G1 F112.8 X149.946 Y83.004
G1 X149.323 Y83.104
G1 X148.482 Y83.419
G1 X148.222 Y83.394
G1 X147.928 Y83.236
G1 X147.385 Y83.023
G1 X147.07 Y83.001
G1 X145.627 Y82.714
G1 X144.999 Y82.511
G1 X143.922 Y82.355
G1 X143.535 Y82.344
G1 X142.764 Y82.515
G1 X141.862 Y83.154
M400
M86 B7 D0
G0 F4800 X141.72 Y84.324
M400
M86 B7 D1
G1 F112.8 X141.975 Y85.264
G1 X142.162 Y85.547
G1 X142.616 Y86.377
G1 X142.739 Y86.686
G1 X142.864 Y87.309
G1 X142.96 Y88.54
G1 X143.213 Y89.338
G1 X143.641 Y89.965
G1 X143.883 Y90.211
G1 X144.273 Y90.487
G1 X145.479 Y91.1
G1 X146.067 Y91.188
G1 X146.333 Y91.171
M400
M86 B7 D0
G0 F4800 X146.64 Y91.451
M400
M86 B7 D1
G1 F112.8 X146.778 Y91.423
M400
M86 B7 D0
G0 F4800 X146.947 Y91.188
M400
M86 B7 D1
G1 F112.8 X147.268 Y91.038
M400
M86 B7 D0
G0 F4800 X147.24 Y91.125
M400
M86 B7 D1
G1 F112.8 X147.373 Y91.016
M400
M86 B7 D0
G0 F4800 X147.418 Y91.006
M400
M86 B7 D1
G1 F112.8 X147.346 Y91.102
M400
M86 B7 D0
G0 F4800 X147.363 Y91.179
M400
M86 B7 D1
G1 F112.8 X147.202 Y91.454
G1 X147.025 Y91.648
M400
M86 B7 D0
G0 F4800 X146.948 Y91.732
M400
M86 B7 D1
G1 F112.8 X146.433 Y92.295
G1 X145 Y93.113
G1 X144.468 Y93.542
G1 X143.956 Y94.16
G1 X143.535 Y95.287
G1 X144.007 Y96.584
G1 X144.822 Y97.032
G1 X145.073 Y97
G1 X145.628 Y97.104
G1 X145.937 Y96.859
G1 X146.534 Y96.601
G1 X147.044 Y96.495
G1 X148.199 Y96.718
G1 X148.784 Y96.879
G1 X149.397 Y96.839
G1 X150.138 Y96.634
G1 X150.87 Y96.359
M400
M86 B7 D0
G0 F4800 X151.187 Y96.539
M400
M86 B7 D1
G1 F112.8 X151.515 Y96.147
M400
M86 B7 D0
G0 F4800 X151.55 Y96.084
M400
M86 B7 D1
G1 F112.8 X151.835 Y95.801
M400
M86 B7 D0
G0 F4800 X151.749 Y95.971
M400
M86 B7 D1
G1 F112.8 X151.934 Y95.723
G1 X152.199 Y95.347
M400
M86 B7 D0
G0 F4800 X152.056 Y95.628
M400
M86 B7 D1
G1 F112.8 X152.378 Y95.084
M400
M86 B7 D0
G0 F4800 X151.921 Y95.986
M400
M86 B7 D1
G1 F112.8 X151.85 Y96.111
M400
M86 B7 D0
G0 F4800 X151.505 Y96.719
M400
M86 B7 D1
G1 F112.8 X151.495 Y96.736
G1 X151.21 Y97.563
G1 X151.196 Y97.706
G1 X151.101 Y97.864
G1 X151.019 Y98.68
G1 X151.058 Y99.021
G1 X151.441 Y100.134
G1 X152.088 Y100.288
G1 X152.144 Y100.329
G1 X152.629 Y100.459
G1 X153.206 Y100.415
G1 X154.14 Y100.192
G1 X154.087 Y102.138
G1 X147.012 Y102.218
M400
M86 B7 D0
G0 Z5
G0 F4800 X145.564 Y96.082
; TYPE:WALL-OUTER
G0 Z3
M400
M86 B7 D1
G1 F112.8 X146.288 Y95.796
G1 X146.7 Y95.688
G1 X147.005 Y95.652
G1 X147.532 Y95.715
G1 X148.87 Y96.032
G1 X149.235 Y96.008
G1 X149.866 Y95.839
G1 X150.513 Y95.596
G1 X151.108 Y95.258
G1 X151.41 Y95.021
G1 X151.9 Y94.245
G1 X152.235 Y93.427
G1 X152.409 Y92.801
G1 X152.569 Y91.766
G1 X152.564 Y91.043
G1 X152.525 Y90.794
G1 X152.54 Y90.392
G1 X152.498 Y89.959
G1 X152.553 Y89.249
G1 X152.876 Y86.817
G1 X152.872 Y86.214
G1 X152.727 Y85.651
G1 X152.403 Y85.082
G1 X152.05 Y84.607
G1 X151.868 Y84.425
G1 X151.108 Y84.005
G1 X150.625 Y83.857
G1 X150.005 Y83.845
G1 X149.548 Y83.919
G1 X148.94 Y84.161
G1 X148.593 Y84.262
G1 X148.044 Y84.226
G1 X147.737 Y84.108
G1 X147.548 Y83.989
G1 X147.198 Y83.852
G1 X146.931 Y83.833
G1 X145.414 Y83.527
G1 X144.532 Y83.272
G1 X143.615 Y83.187
G1 X143.111 Y83.298
G1 X142.671 Y83.61
G1 X142.646 Y83.968
G1 X142.582 Y84.293
G1 X142.75 Y84.914
G1 X143.109 Y85.508
G1 X143.256 Y85.827
G1 X143.36 Y85.976
G1 X143.545 Y86.439
G1 X143.701 Y87.224
G1 X143.787 Y88.369
G1 X143.968 Y88.941
G1 X144.305 Y89.442
G1 X144.716 Y89.772
G1 X145.738 Y90.289
G1 X146.102 Y90.344
G1 X146.517 Y90.348
G1 X147.606 Y90.111
G1 X147.78 Y90.1
G1 X148.004 Y90.202
M400
M86 B7 D0
G0 F4800 X148.203 Y90.527
M400
M86 B7 D1
G1 F112.8 X148.473 Y90.436
G1 X148.496 Y90.313
M400
M86 B7 D0
G0 F4800 X148.539 Y90.273
M400
M86 B7 D1
G1 F112.8 X148.579 Y90.357
M400
M86 B7 D0
G0 F4800 X148.559 Y90.315
M400
M86 B7 D1
G1 F112.8 X148.484 Y90.436
M400
M86 B7 D0
G0 F4800 X148.402 Y90.853
M400
M86 B7 D1
G1 F112.8 X148.338 Y91.109
G1 X148.189 Y91.351
G1 X148.122 Y91.564
G1 X147.785 Y92.075
G1 X146.975 Y92.949
G1 X146.192 Y93.423
G1 X145.447 Y93.826
G1 X145.078 Y94.123
G1 X144.693 Y94.587
G1 X144.43 Y95.291
G1 X144.688 Y96
G1 X144.987 Y96.164
G1 X145.096 Y96.15
G1 X145.406 Y96.208
G1 X145.564 Y96.082
M400
M86 B7 D0
G0 Z5
G0 F4800 X153.031 Y93.7
; TYPE:WALL-INNER
G0 Z3
M400
M86 B7 D1
G1 F112.8 X153.288 Y93.019
M400
M86 B7 D0
G0 F4800 X153.292 Y93.011
M400
M86 B7 D1
G1 F112.8 X153.19 Y93.373
M400
M86 B7 D0
G0 F4800 X153.194 Y93.364
M400
M86 B7 D1
G1 F112.8 X153.407 Y92.67
M400
M86 B7 D0
G0 F4800 X153.408 Y92.667
M400
M86 B7 D1
G1 F112.8 X153.489 Y92.25
G1 X153.548 Y91.991
M400
M86 B7 D0
G0 F4800 X153.533 Y92.075
M400
M86 B7 D1
G1 F112.8 X153.59 Y91.827
M400
M86 B7 D0
G0 F4800 X153.604 Y91.645
M400
M86 B7 D1
G1 F112.8 X153.641 Y91.293
G1 X153.658 Y90.91
G1 X153.656 Y90.673
M400
M86 B7 D0
G0 F4800 X153.66 Y90.566
M400
M86 B7 D1
G1 F112.8 X153.676 Y90.797
M400
M86 B7 D0
G0 F4800 X153.663 Y90.486
M400
M86 B7 D1
G1 F112.8 X153.675 Y90.17
G1 X153.664 Y89.725
G1 X153.68 Y89.393
G1 X153.678 Y89.161
M400
M86 B7 D0
G0 F4800 X153.707 Y88.935
M400
M86 B7 D1
G1 F112.8 X153.695 Y87.356
G1 X153.678 Y87.157
M400
M86 B7 D0
G0 Z5
G0 F4800 X153.446 Y88.901
G0 Z3
M400
M86 B7 D1
G1 F112.8 X153.387 Y89.353
M400
M86 B7 D0
G0 F4800 X153.372 Y90.583
M400
M86 B7 D1
G1 F112.8 X153.367 Y90.743
M400
M86 B7 D0
G0 F4800 X153.411 Y91.771
M400
M86 B7 D1
G1 F112.8 X153.383 Y92.135
M400
M86 B7 D0
G0 F4800 X153.229 Y92.988
M400
M86 B7 D1
G1 F112.8 X153.227 Y92.993
M400
M86 B7 D0
G0 F4800 X152.998 Y93.78
; TYPE:FILL
M400
M86 B7 D1
G1 F112.8 X152.822 Y94.209
G1 X152.636 Y94.614
M400
M86 B7 D0
G0 Z5
G0 F4800 X150.954 Y96.776
G0 Z3
M400
M86 B7 D1
G1 F112.8 X150.761 Y96.955
M400
M86 B7 D0
G0 F4800 X150.742 Y96.962
M400
M86 B7 D1
G1 F112.8 X150.811 Y96.83
M400
M86 B7 D0
G0 F4800 X150.706 Y96.869
M400
M86 B7 D1
G1 F112.8 X150.725 Y96.862
G1 X150.607 Y97.012
M400
M86 B7 D0
G0 F4800 X150.873 Y97.008
M400
M86 B7 D1
G1 F112.8 X150.99 Y96.869
M400
M86 B7 D0
G0 F4800 X150.816 Y97.361
M400
M86 B7 D1
G1 F112.8 X150.831 Y97.39
M400
M86 B7 D0
G0 F4800 X151.621 Y97.634
M400
M86 B7 D1
G1 F112.8 X151.614 Y97.743
M400
M86 B7 D0
G0 Z5
G0 F4800 X150.289 Y99.177
G0 Z3
M400
M86 B7 D1
G1 F112.8 X148.042 Y101.424
M400
M86 B7 D0
G0 F4800 X148.93 Y101.413
M400
M86 B7 D1
G1 F112.8 X145.366 Y97.848
M400
M86 B7 D0
G0 F4800 X145.629 Y97.898
M400
M86 B7 D1
G1 F112.8 X142.194 Y101.332
M400
M86 B7 D0
G0 F4800 X142.926 Y101.348
M400
M86 B7 D1
G1 F112.8 X141.839 Y100.261
M400
M86 B7 D0
G0 Z5
G0 F4800 X141.832 Y95.754
G0 Z3
M400
M86 B7 D1
G1 F112.8 X142.941 Y94.646
M400
M86 B7 D0
G0 F4800 X142.73 Y95.212
M400
M86 B7 D1
G1 F112.8 X141.832 Y94.315
M400
M86 B7 D0
G0 Z5
G0 F4800 X145.323 Y91.865
G0 Z3
M400
M86 B7 D1
G1 F112.8 X145.441 Y91.983
M400
M86 B7 D0
G0 F4800 X145.561 Y91.854
M400
M86 B7 D1
G1 F112.8 X145.916 Y91.761
M400
M86 B7 D0
G0 F4800 X146.051 Y91.615
M400
M86 B7 D1
G1 F112.8 X146.273 Y91.614
M400
M86 B7 D0
G0 F4800 X146.245 Y91.61
M400
M86 B7 D1
G1 F112.8 X146.225 Y91.598
M400
M86 B7 D0
G0 F4800 X146.304 Y91.606
M400
M86 B7 D1
G1 F112.8 X146.316 Y91.611
M400
M86 B7 D0
G0 F4800 X146.332 Y91.61
M400
M86 B7 D1
G1 F112.8 X146.347 Y91.603
M400
M86 B7 D0
G0 F4800 X146.342 Y91.637
M400
M86 B7 D1
G1 F112.8 X146.406 Y91.605
M400
M86 B7 D0
G0 F4800 X146.401 Y91.722
M400
M86 B7 D1
G1 F112.8 X146.356 Y91.738
M400
M86 B7 D0
G0 F4800 X146.366 Y91.755
M400
M86 B7 D1
G1 F112.8 X146.351 Y91.772
M400
M86 B7 D0
G0 F4800 X146.373 Y91.718
M400
M86 B7 D1
G1 F112.8 X146.293 Y91.729
M400
M86 B7 D0
G0 F4800 X146.233 Y91.898
M400
M86 B7 D1
G1 F112.8 X146.099 Y91.944
M400
M86 B7 D0
G0 F4800 X145.967 Y92.086
M400
M86 B7 D1
G1 F112.8 X145.872 Y92.136
M400
M86 B7 D0
G0 F4800 X147.299 Y91.988
M400
M86 B7 D1
G1 F112.8 X147.303 Y91.963
M400
M86 B7 D0
G0 F4800 X147.382 Y91.849
M400
M86 B7 D1
G1 F112.8 X147.514 Y91.735
M400
M86 B7 D0
G0 F4800 X147.684 Y91.45
M400
M86 B7 D1
G1 F112.8 X147.687 Y91.419
M400
M86 B7 D0
G0 F4800 X147.865 Y91.072
M400
M86 B7 D1
G1 F112.8 X147.875 Y91.059
M400
M86 B7 D0
G0 F4800 X147.967 Y90.858
M400
M86 B7 D1
G1 F112.8 X147.966 Y90.835
M400
M86 B7 D0
G0 F4800 X147.972 Y90.806
M400
M86 B7 D1
G1 F112.8 X147.994 Y90.789
M400
M86 B7 D0
G0 F4800 X147.983 Y90.787
M400
M86 B7 D1
G1 F112.8 X147.962 Y90.804
M400
M86 B7 D0
G0 F4800 X147.973 Y90.785
M400
M86 B7 D1
G1 F112.8 X147.912 Y90.796
M400
M86 B7 D0
G0 F4800 X147.909 Y90.774
M400
M86 B7 D1
G1 F112.8 X147.945 Y90.691
M400
M86 B7 D0
G0 F4800 X147.958 Y90.62
M400
M86 B7 D1
G1 F112.8 X147.925 Y90.644
G1 X147.86 Y90.648
M400
M86 B7 D0
G0 F4800 X147.831 Y90.577
M400
M86 B7 D1
G1 F112.8 X147.816 Y90.567
M400
M86 B7 D0
G0 F4800 X147.751 Y90.564
M400
M86 B7 D1
G1 F112.8 X147.586 Y90.603
M400
M86 B7 D0
G0 Z5
G0 F4800 X142.373 Y89.274
G0 Z3
M400
M86 B7 D1
G1 F112.8 X141.831 Y89.816
M400
M86 B7 D0
G0 F4800 X142.207 Y88.75
M400
M86 B7 D1
G1 F112.8 X141.831 Y88.374
M400
M86 B7 D0
G0 F4800 X142.376 Y86.978
M400
M86 B7 D1
G1 F112.8 X142.344 Y86.962
M400
M86 B7 D0
G0 F4800 X142.286 Y86.799
M400
M86 B7 D1
G1 F112.8 X142.291 Y86.696
M400
M86 B7 D0
G0 F4800 X142.087 Y86.301
M400
M86 B7 D1
G1 F112.8 X142.082 Y86.296
M400
M86 B7 D0
G0 F4800 X141.743 Y86.301
M400
M86 B7 D1
G1 F112.8 X141.815 Y86.517
M400
M86 B7 D0
G0 F4800 X141.696 Y86.297
M400
M86 B7 D1
G1 F112.8 X141.633 Y86.105
M400
M86 B7 D0
G0 F4800 X141.857 Y85.884
M400
M86 B7 D1
G1 F112.8 X141.801 Y85.792
M400
M86 B7 D0
G0 F4800 X141.529 Y85.727
M400
M86 B7 D1
G1 F112.8 X141.471 Y85.382
M400
M86 B7 D0
G0 F4800 X141.471 Y85.224
M400
M86 B7 D1
G1 F112.8 X141.529 Y85.596
M400
M86 B7 D0
G0 F4800 X142.553 Y85.404
M400
M86 B7 D1
G1 F112.8 X142.586 Y85.46
M400
M86 B7 D0
G0 F4800 X142.817 Y85.878
M400
M86 B7 D1
G1 F112.8 X142.816 Y85.879
M400
M86 B7 D0
G0 Z5
G0 F4800 X144.116 Y81.592
G0 Z3
M400
M86 B7 D1
G1 F112.8 X145.02 Y80.687
M400
M86 B7 D0
G0 F4800 X144.617 Y79.28
M400
M86 B7 D1
G1 F112.8 X143.539 Y78.203
M400
M86 B7 D0
G0 F4800 X142.914 Y78.049
M400
M86 B7 D1
G1 F112.8 X142.87 Y78.07
M400
M86 B7 D0
G0 F4800 X142.572 Y77.279
M400
M86 B7 D1
G1 F112.8 X142.557 Y77.284
M400
M86 B7 D0
G0 Z5
G0 F4800 X144.758 Y77.253
G0 Z3
M400
M86 B7 D1
G1 F112.8 X144.867 Y77.181
G1 X144.898 Y77.111
M400
M86 B7 D0
G0 F4800 X144.835 Y77.129
M400
M86 B7 D1
G1 F112.8 X144.758 Y77.227
M400
M86 B7 D0
G0 F4800 X144.866 Y77.207
M400
M86 B7 D1
G1 F112.8 X144.754 Y77.422
M400
M86 B7 D0
G0 F4800 X145.88 Y76.915
M400
M86 B7 D1
G1 F112.8 X145.925 Y76.939
M400
M86 B7 D0
G0 F4800 X145.873 Y76.854
M400
M86 B7 D1
G1 F112.8 X145.834 Y76.8
M400
M86 B7 D0
G0 F4800 X145.787 Y76.641
M400
M86 B7 D1
G1 F112.8 X145.744 Y76.566
M400
M86 B7 D0
G0 F4800 X145.735 Y76.556
M400
M86 B7 D1
G1 F112.8 X145.71 Y76.596
M400
M86 B7 D0
G0 Z5
G0 F4800 X146.188 Y82.026
G0 Z3
M400
M86 B7 D1
G1 F112.8 X146.395 Y82.078
G1 X147.022 Y82.207
M400
M86 B7 D0
G0 F4800 X147.293 Y82.245
M400
M86 B7 D1
G1 F112.8 X147.455 Y82.296
M400
M86 B7 D0
G0 F4800 X147.48 Y82.295
M400
M86 B7 D1
G1 F112.8 X147.59 Y82.327
M400
M86 B7 D0
G0 F4800 X147.542 Y82.32
M400
M86 B7 D1
G1 F112.8 X147.393 Y82.272
M400
M86 B7 D0
G0 F4800 X147.287 Y82.595
M400
M86 B7 D1
G1 F112.8 X147.207 Y82.569
M400
M86 B7 D0
G0 F4800 X147.798 Y82.734
M400
M86 B7 D1
G1 F112.8 X147.832 Y82.747
M400
M86 B7 D0
G0 F4800 X148.188 Y82.909
M400
M86 B7 D1
G1 F112.8 X148.21 Y82.917
M400
M86 B7 D0
G0 F4800 X148.216 Y82.92
M400
M86 B7 D1
G1 F112.8 X148.26 Y82.913
M400
M86 B7 D0
G0 F4800 X148.288 Y82.924
M400
M86 B7 D1
G1 F112.8 X148.295 Y82.903
M400
M86 B7 D0
G0 F4800 X148.421 Y82.974
M400
M86 B7 D1
G1 F112.8 X148.462 Y82.952
M400
M86 B7 D0
G0 F4800 X148.54 Y82.959
M400
M86 B7 D1
G1 F112.8 X148.605 Y82.9
M400
M86 B7 D0
G0 F4800 X148.759 Y82.875
M400
M86 B7 D1
G1 F112.8 X148.869 Y82.832
M400
M86 B7 D0
G0 F4800 X149.165 Y82.585
M400
M86 B7 D1
G1 F112.8 X149.483 Y82.561
M400
M86 B7 D0
G0 F4800 X149.415 Y82.545
M400
M86 B7 D1
G1 F112.8 X148.968 Y82.522
G1 X148.958 Y82.519
G1 X148.908 Y82.497
G1 X148.902 Y82.495
G1 X148.646 Y82.515
M400
M86 B7 D0
G0 F4800 X148.495 Y82.251
M400
M86 B7 D1
G1 F112.8 X148.463 Y82.238
M400
M86 B7 D0
G0 F4800 X148.46 Y82.237
M400
M86 B7 D1
G1 F112.8 X148.458 Y82.235
M400
M86 B7 D0
G0 F4800 X148.454 Y82.234
M400
M86 B7 D1
G1 F112.8 X148.226 Y82.17
M400
M86 B7 D0
G0 F4800 X148.08 Y82.108
M400
M86 B7 D1
G1 F112.8 X147.949 Y82.087
M400
M86 B7 D0
G0 F4800 X149.233 Y82.601
M400
M86 B7 D1
G1 F112.8 X149.46 Y82.656
M400
M86 B7 D0
G0 Z5
G0 F4800 X148.306 Y83.828
G0 Z3
M400
M86 B7 D1
G1 F112.8 X148.223 Y83.787
M400
M86 B7 D0
G0 F4800 X148.203 Y83.789
M400
M86 B7 D1
G1 F112.8 X148.248 Y83.817
M400
M86 B7 D0
G0 F4800 X148.051 Y83.718
M400
M86 B7 D1
G1 F112.8 X148.029 Y83.77
M400
M86 B7 D0
G0 Z5
G0 F4800 X152.468 Y84.466
G0 Z3
M400
M86 B7 D1
G1 F112.8 X152.562 Y84.591
M400
M86 B7 D0
G0 F4800 X152.934 Y84.516
M400
M86 B7 D1
G1 F112.8 X153.053 Y84.752
M400
M86 B7 D0
G0 F4800 X153.063 Y84.773
M400
M86 B7 D1
G1 F112.8 X153.358 Y85.388
M400
M86 B7 D0
G0 F4800 X153.723 Y85.636
M400
M86 B7 D1
G1 F112.8 X153.722 Y85.645
M400
M86 B7 D0
G0 F4800 X153.73 Y85.667
M400
M86 B7 D1
G1 F112.8 X153.785 Y85.806
M400
M86 B7 D0
G0 F4800 X153.51 Y85.9
M400
M86 B7 D1
G1 F112.8 X153.57 Y86.216
M400
M86 B7 D0
G0 F4800 X153.563 Y86.045
M400
M86 B7 D1
G1 F112.8 X153.579 Y86.253
G1 X153.611 Y86.603
G1 X153.644 Y86.806
M400
M86 B7 D0
G0 F4800 X153.649 Y86.772
M400
M86 B7 D1
G1 F112.8 X153.681 Y86.971
M400
M86 B7 D0
G0 F4800 X153.918 Y86.316
M400
M86 B7 D1
G1 F112.8 X153.883 Y86.153
M400
M86 B7 D0
G0 F4800 X153.242 Y85.991
M400
M86 B7 D1
G1 F112.8 X153.206 Y85.819
M400
M86 B7 D0
G0 F4800 X153.458 Y84.95
M400
M86 B7 D1
G1 F112.8 X153.46 Y84.949
M400
M86 B7 D0
G0 F4800 X153.21 Y84.38
M400
M86 B7 D1
G1 F112.8 X153.142 Y84.282
M400
M86 B7 D0
G0 F4800 X153.123 Y84.249
M400
M86 B7 D1
G1 F112.8 X153.033 Y84.062
M400
M86 B7 D0
G0 F4800 X153.025 Y84.05
M400
M86 B7 D1
G1 F112.8 X153.121 Y84.246
M400
M86 B7 D0
G0 F4800 X152.748 Y84.252
M400
M86 B7 D1
G1 F112.8 X152.555 Y83.993
M400
M86 B7 D0
G0 F4800 X152.835 Y83.779
M400
M86 B7 D1
G1 F112.8 X152.694 Y83.588
M400
M86 B7 D0
G0 Z5
G0 F4800 X146.897 Y96.087
G0 Z3
M400
M86 B7 D1
G1 F112.8 X146.754 Y96.136
M400
M86 B7 D0
G0 F4800 X146.634 Y96.165
M400
M86 B7 D1
G1 F112.8 X146.598 Y96.148
M400
M86 B7 D0
G0 F4800 X146.44 Y96.219
M400
M86 B7 D1
G1 F112.8 X146.335 Y96.226
M400
M86 B7 D0
G0 F4800 X146.113 Y96.313
M400
M86 B7 D1
G1 F112.8 X146.117 Y96.326
M400
M86 B7 D0
G0 F4800 X145.862 Y96.42
M400
M86 B7 D1
G1 F112.8 X145.809 Y96.496
M400
M86 B7 D0
G0 F4800 X146.399 Y97.119
M400
M86 B7 D1
G1 F112.8 X146.44 Y97.091
M400
M86 B7 D0
G0 F4800 X146.721 Y97.021
M400
M86 B7 D1
G1 F112.8 X146.764 Y96.977
M400
M86 B7 D0
G0 F4800 X146.798 Y96.965
M400
M86 B7 D1
G1 F112.8 X146.815 Y96.971
M400
M86 B7 D0
G0 Z5
G0 F4800 X154.126 Y99.602
G0 Z3
M400
M86 B7 D1
G1 F112.8 X154.237 Y99.527
M400
M86 B7 D0
G0 F4800 X154.255 Y99.51
M400
M86 B7 D1
G1 F112.8 X154.408 Y99.331
M400
M86 B7 D0
G0 F4800 X154.551 Y99.318
M400
M86 B7 D1
G1 F112.8 X154.54 Y99.524
M400
M86 B7 D0
G0 Z5
G0 F4800 X154.982 Y98.103
G0 Z3
M400
M86 B7 D1
G1 F112.8 X155.083 Y97.782
; Layer Change GCode
; LAYER:8
M400
M86 B7 D0
M87 B7 D1
G0 Z5
G0 F4800 X154.947 Y99.526 Z5.4
; TYPE:WALL-OUTER
G0 Z3.4
M400
M87 B7 D0
M78 B7 D1
M400
M86 B7 D1
G1 F112.8 X154.729 Y99.842
M400
M86 B7 D0
G0 F4800 X154.505 Y99.848
M400
M86 B7 D1
G1 F112.8 X154.004 Y100.103
G1 X153.814 Y100.268
G1 X153.268 Y100.504
G1 X152.515 Y100.677
G1 X152.286 Y100.633
G1 X151.688 Y100.377
G1 X151.446 Y100.323
G1 X151.086 Y99.847
G1 X151.199 Y99.171
