; generated by Slic3r 1.3.0 on 2021-08-03 at 18:27:12

; external perimeters extrusion width = 0.55mm (4.37mm^3/s)
; perimeters extrusion width = 0.70mm (11.44mm^3/s)
; infill extrusion width = 0.63mm (13.45mm^3/s)
; solid infill extrusion width = 0.70mm (3.81mm^3/s)
; top infill extrusion width = 0.70mm (2.86mm^3/s)

M107
M104 S200 ; set temperature
G28 ; home all axes
G1 Z5 F5000 ; lift nozzle

; Filament gcode

; Filament gcode

M109 S200 ; set temperature and wait for it to be reached
G21 ; set units to millimeters
G90 ; use absolute coordinates
M82 ; use absolute distances for extrusion
G92 E0
G1 Z0.350 F7800.000
G1 E-2.00000 F2400.00000
G92 E0
G1 X79.054 Y93.966 F7800.000
G1 E2.00000 F2400.00000
G1 F1800
G1 X79.424 Y93.663 E2.01482
G1 X79.813 Y93.383 E2.02962
G1 X80.219 Y93.128 E2.04446
G1 X80.640 Y92.899 E2.05929
G1 X81.073 Y92.697 E2.07410
G1 X81.460 Y92.544 E2.08696
G1 X81.915 Y92.394 E2.10179
G1 X82.378 Y92.273 E2.11660
G1 X82.849 Y92.181 E2.13143
G1 X106.244 Y88.863 E2.86257
G1 X106.989 Y88.792 E2.88570
G1 X107.480 Y88.773 E2.90091
G1 X121.638 Y88.750 E3.33897
G1 X123.406 Y88.988 E3.39416
G1 X124.852 Y89.386 E3.44057
G1 X127.427 Y90.761 E3.53091
G1 X127.782 Y91.087 E3.54581
G1 X128.881 Y92.172 E3.59360
G1 X130.277 Y94.187 E3.66946
G1 X130.595 Y94.901 E3.69362
G1 X131.122 Y96.802 E3.75466
G1 X131.198 Y97.791 E3.78535
G1 X131.204 Y98.417 E3.80472
G1 X131.140 Y100.150 E3.85839
G1 X129.680 Y126.296 E4.66864
G1 X129.564 Y127.152 E4.69536
G1 X129.376 Y128.079 E4.72463
G1 X129.198 Y128.767 E4.74662
G1 X129.048 Y129.238 E4.76191
G1 X128.384 Y130.692 E4.81138
G1 X128.077 Y131.164 E4.82878
G1 X127.054 Y132.603 E4.88342
G1 X126.429 Y133.358 E4.91374
G1 X125.817 Y133.994 E4.94104
G1 X125.057 Y134.673 E4.97258
G1 X124.386 Y135.141 E4.99789
G1 X124.012 Y135.368 E5.01145
G1 X122.694 Y135.984 E5.05647
G1 X122.382 Y136.090 E5.06664
G1 X121.843 Y136.248 E5.08403
G1 X121.298 Y136.362 E5.10125
G1 X120.465 Y136.460 E5.12721
G1 X119.836 Y136.489 E5.14669
G1 X108.980 Y136.486 E5.48259
G1 X107.879 Y136.394 E5.51677
G1 X107.093 Y136.239 E5.54158
G1 X105.796 Y135.786 E5.58407
G1 X105.439 Y135.619 E5.59627
G1 X104.609 Y135.164 E5.62555
G1 X103.678 Y134.503 E5.66088
G1 X103.059 Y133.943 E5.68671
G1 X102.474 Y133.328 E5.71297
G1 X78.240 Y104.617 E6.87548
G1 X77.785 Y104.019 E6.89875
G1 X77.526 Y103.615 E6.91359
G1 X77.265 Y103.140 E6.93036
G1 X77.083 Y102.754 E6.94355
G1 X76.909 Y102.319 E6.95804
G1 X76.760 Y101.864 E6.97287
G1 X76.625 Y101.339 E6.98964
G1 X76.545 Y100.919 E7.00285
G1 X76.485 Y100.456 E7.01732
G1 X76.452 Y99.966 E7.03249
G1 X76.453 Y99.436 E7.04891
G1 X76.479 Y99.020 E7.06179
G1 X76.537 Y98.545 E7.07661
G1 X76.636 Y98.023 E7.09303
G1 X76.760 Y97.549 E7.10821
G1 X76.909 Y97.094 E7.12302
G1 X77.063 Y96.707 E7.13589
G1 X77.293 Y96.217 E7.15265
G1 X77.526 Y95.799 E7.16747
G1 X77.749 Y95.447 E7.18036
G1 X78.029 Y95.058 E7.19517
G1 X78.374 Y94.641 E7.21195
G1 X78.659 Y94.338 E7.22481
G1 X78.998 Y94.016 E7.23926
G1 E5.23926 F2400.00000
G92 E0
G1 X119.949 Y128.219 F7800.000
G1 E2.00000 F2400.00000
G1 F1800
G1 X119.572 Y128.016 E2.01326
G1 X119.367 Y127.968 E2.01979
G1 X119.227 Y127.869 E2.02508
G1 X119.125 Y127.839 E2.02838
G1 X118.999 Y127.649 E2.03542
G1 X118.958 Y127.520 E2.03961
G1 X118.786 Y127.380 E2.04647
G1 X118.761 Y127.305 E2.04890
G1 X118.396 Y126.791 E2.06841
G1 X118.324 Y126.229 E2.08593
G1 X118.330 Y125.801 E2.09918
G1 X118.424 Y125.157 E2.11930
G1 X118.513 Y124.283 E2.14649
G1 X118.715 Y124.111 E2.15471
G1 X118.890 Y124.088 E2.16015
G1 X119.387 Y124.309 E2.17697
G1 X120.644 Y124.497 E2.21630
G1 X120.676 Y124.799 E2.22570
G1 X121.461 Y125.001 E2.25078
G1 X121.486 Y125.430 E2.26407
G1 X121.435 Y125.532 E2.26759
G1 X121.316 Y126.411 E2.29506
G1 X121.278 Y126.533 E2.29899
G1 X121.020 Y126.715 E2.30877
G1 X120.446 Y127.670 E2.34324
G1 X120.381 Y127.719 E2.34576
G1 X119.998 Y128.162 E2.36387
G1 E0.36387 F2400.00000
G92 E0
G1 X121.251 Y124.302 F7800.000
G1 E2.00000 F2400.00000
G1 F1800
G1 X122.081 Y124.515 E2.02651
G1 X122.111 Y125.576 E2.05935
G1 X122.041 Y125.718 E2.06425
G1 X121.928 Y126.549 E2.09020
G1 X121.852 Y126.789 E2.09799
G1 X121.698 Y127.000 E2.10609
G1 X121.489 Y127.149 E2.11404
G1 X120.918 Y128.098 E2.14830
G1 X120.809 Y128.179 E2.15250
G1 X120.388 Y128.667 E2.17244
G1 X120.197 Y128.761 E2.17904
G1 X120.099 Y128.838 E2.18288
G1 X119.901 Y128.878 E2.18912
G1 X119.823 Y128.860 E2.19163
G1 X119.349 Y128.606 E2.20827
G1 X119.105 Y128.548 E2.21602
G1 X118.950 Y128.439 E2.22189
G1 X118.862 Y128.413 E2.22473
G1 X118.693 Y128.319 E2.23073
G1 X118.587 Y128.159 E2.23665
G1 X118.487 Y128.096 E2.24031
G1 X118.420 Y127.887 E2.24710
G1 X118.252 Y127.750 E2.25380
G1 X118.199 Y127.592 E2.25894
G1 X117.869 Y127.127 E2.27660
G1 X117.797 Y126.972 E2.28187
G1 X117.701 Y126.281 E2.30347
G1 X117.691 Y126.019 E2.31159
G1 X117.708 Y125.737 E2.32032
G1 X117.804 Y125.081 E2.34084
G1 X117.929 Y123.848 E2.37918
G1 X118.090 Y123.823 E2.38421
G1 X118.451 Y123.516 E2.39888
G1 X119.053 Y123.436 E2.41767
G1 X119.243 Y123.562 E2.42473
G1 X119.563 Y123.704 E2.43554
G1 X120.415 Y123.831 E2.46219
G1 X121.151 Y123.366 E2.48914
G1 X121.243 Y124.227 E2.51596
G1 X122.760 Y124.120 F7800.000
G1 F1800
G1 X122.704 Y124.348 E2.52322
G1 X122.712 Y125.102 E2.54657
G1 X122.744 Y125.476 E2.55816
G1 X122.726 Y125.743 E2.56644
G1 X122.646 Y125.904 E2.57201
G1 X122.540 Y126.686 E2.59643
G1 X122.417 Y127.074 E2.60903
G1 X122.144 Y127.450 E2.62342
G1 X121.957 Y127.583 E2.63051
G1 X121.390 Y128.526 E2.66454
G1 X121.237 Y128.639 E2.67043
G1 X120.799 Y129.147 E2.69119
G1 X120.531 Y129.293 E2.70065
G1 X120.398 Y129.397 E2.70585
G1 X120.136 Y129.483 E2.71439
G1 X119.861 Y129.510 E2.72294
G1 X119.600 Y129.450 E2.73122
G1 X119.125 Y129.195 E2.74790
G1 X118.843 Y129.129 E2.75686
G1 X118.673 Y129.008 E2.76333
G1 X118.560 Y128.974 E2.76698
G1 X118.485 Y128.912 E2.76999
G1 X118.267 Y128.808 E2.77747
G1 X118.140 Y128.616 E2.78461
G1 X117.962 Y128.504 E2.79111
G1 X117.882 Y128.254 E2.79923
G1 X117.718 Y128.120 E2.80576
G1 X117.636 Y127.880 E2.81362
G1 X117.413 Y127.564 E2.82558
G1 X117.273 Y127.460 E2.83099
G1 X117.250 Y127.279 E2.83663
G1 X117.201 Y127.172 E2.84026
G1 X117.162 Y126.994 E2.84591
G1 X117.078 Y126.332 E2.86655
G1 X117.066 Y126.012 E2.87647
G1 X117.086 Y125.673 E2.88697
G1 X117.184 Y125.004 E2.90788
G1 X117.289 Y123.967 E2.94014
G1 X117.257 Y123.612 E2.95116
G1 X117.271 Y123.533 E2.95365
G1 X117.502 Y123.282 E2.96421
G1 X117.820 Y123.233 E2.97415
G1 X118.116 Y122.981 E2.98619
G1 X118.226 Y122.916 E2.99015
G1 X118.635 Y122.861 E3.00291
G1 X118.728 Y122.501 E3.01440
G1 X118.942 Y122.654 E3.02254
G1 X119.111 Y122.726 E3.02821
G1 X119.544 Y123.011 E3.04428
G1 X119.739 Y123.098 E3.05088
G1 X120.277 Y123.179 E3.06771
G1 X120.727 Y122.894 E3.08419
G1 X121.556 Y122.789 E3.11004
G1 X121.561 Y122.901 E3.11350
G1 X121.712 Y122.981 E3.11878
G1 X121.732 Y123.317 E3.12920
G1 X121.784 Y123.411 E3.13252
G1 X121.826 Y123.804 E3.14477
G1 X122.235 Y123.909 E3.15783
G1 X122.294 Y123.945 E3.15996
G1 X122.571 Y123.996 E3.16868
G1 X122.697 Y124.079 E3.17335
G1 X122.591 Y124.283 F7800.000
G1 E1.17335 F2400.00000
G92 E0
G1 X119.038 Y124.536 F7800.000
G1 E2.00000 F2400.00000
G1 F1800
G1 X118.867 Y124.486 E2.00040
G1 X118.831 Y124.423 E2.00057
G1 X118.790 Y125.491 F7800.000
G1 F1800
G1 X119.276 Y125.005 E2.02426
G1 X119.690 Y125.125 E2.03910
G1 X119.806 Y124.724 E2.05350
G1 X120.317 Y124.801 E2.07128
G1 X120.331 Y124.935 E2.07592
G1 X118.721 Y126.545 E2.15442
G1 X118.753 Y126.800 E2.16327
G1 X119.043 Y127.208 E2.18051
G1 X121.022 Y125.228 E2.27701
G1 X121.055 Y125.236 E2.27817
G1 X120.962 Y125.920 E2.30194
G1 X120.795 Y126.039 E2.30901
G1 X120.217 Y127.000 E2.34766
G1 X119.560 Y127.674 E2.38012
G1 E0.38012 F2400.00000
G92 E0
G1 X110.478 Y124.431 F7800.000
G1 E2.00000 F2400.00000
G1 F1800
G1 X110.538 Y125.165 E2.02279
G1 X110.641 Y125.387 E2.03037
G1 X110.677 Y125.844 E2.04455
G1 X110.556 Y126.093 E2.05311
G1 X110.572 Y126.781 E2.07440
G1 X110.599 Y126.886 E2.07775
G1 X110.440 Y127.073 E2.08534
G1 X110.280 Y127.361 E2.09554
G1 X110.007 Y127.608 E2.10693
G1 X109.864 Y127.858 E2.11584
G1 X109.613 Y127.964 E2.12429
G1 X109.504 Y128.034 E2.12828
G1 X109.033 Y128.233 E2.14413
G1 X108.910 Y128.064 E2.15060
G1 X108.788 Y127.978 E2.15521
G1 X108.728 Y127.856 E2.15941
G1 X108.573 Y127.713 E2.16594
G1 X108.271 Y127.102 E2.18705
G1 X108.067 Y126.960 E2.19472
G1 X107.928 Y126.673 E2.20459
G1 X107.785 Y126.579 E2.20990
G1 X107.624 Y126.337 E2.21888
G1 X107.569 Y125.984 E2.22994
G1 X107.553 Y125.738 E2.23757
G1 X107.642 Y125.314 E2.25096
G1 X107.578 Y124.777 E2.26769
G1 X108.009 Y124.342 E2.28661
G1 X109.260 Y124.419 E2.32540
G1 X109.418 Y124.352 E2.33070
G1 X110.404 Y124.425 E2.36129
G1 X110.000 Y123.769 F7800.000
G1 F1800
G1 X111.015 Y123.844 E2.39277
G1 X111.072 Y124.014 E2.39832
G1 X111.152 Y125.003 E2.42901
G1 X111.256 Y125.226 E2.43664
G1 X111.306 Y125.977 E2.45992
G1 X111.184 Y126.230 E2.46860
G1 X111.195 Y126.695 E2.48300
G1 X111.256 Y126.932 E2.49057
G1 X111.072 Y127.294 E2.50313
G1 X110.956 Y127.431 E2.50868
G1 X110.775 Y127.755 E2.52019
G1 X110.500 Y128.004 E2.53165
G1 X110.370 Y128.233 E2.53979
G1 X110.273 Y128.336 E2.54418
G1 X109.798 Y128.589 E2.56085
G1 X109.149 Y128.862 E2.58261
G1 X108.983 Y128.880 E2.58780
G1 X108.574 Y128.665 E2.60210
G1 X108.465 Y128.514 E2.60786
G1 X108.300 Y128.398 E2.61411
G1 X108.220 Y128.238 E2.61965
G1 X108.064 Y128.095 E2.62621
G1 X107.781 Y127.522 E2.64597
G1 X107.576 Y127.378 E2.65372
G1 X107.442 Y127.101 E2.66325
G1 X107.261 Y126.983 E2.66992
G1 X107.203 Y126.832 E2.67493
G1 X107.048 Y126.598 E2.68363
G1 X106.987 Y126.373 E2.69083
G1 X106.924 Y125.693 E2.71196
G1 X107.009 Y125.286 E2.72484
G1 X106.943 Y124.721 E2.74245
G1 X106.954 Y124.520 E2.74868
G1 X107.698 Y123.768 E2.78141
G1 X107.779 Y123.310 E2.79579
G1 X108.184 Y123.727 E2.81378
G1 X109.152 Y123.786 E2.84377
G1 X109.958 Y123.444 E2.87088
G1 X109.991 Y123.694 E2.87868
G1 X111.606 Y123.424 F7800.000
G1 F1800
G1 X111.658 Y123.797 E2.89031
G1 X111.688 Y123.888 E2.89329
G1 X111.766 Y124.841 E2.92287
G1 X111.870 Y125.065 E2.93053
G1 X111.931 Y125.850 E2.95489
G1 X111.932 Y126.119 E2.96320
G1 X111.812 Y126.366 E2.97169
G1 X111.818 Y126.608 E2.97920
G1 X111.901 Y126.928 E2.98942
G1 X111.811 Y127.251 E2.99978
G1 X111.589 Y127.651 E3.01392
G1 X111.473 Y127.788 E3.01949
G1 X111.252 Y128.167 E3.03307
G1 X110.994 Y128.400 E3.04382
G1 X110.877 Y128.607 E3.05118
G1 X110.675 Y128.820 E3.06028
G1 X110.437 Y128.973 E3.06903
G1 X110.199 Y129.073 E3.07700
G1 X110.091 Y129.143 E3.08099
G1 X109.308 Y129.474 E3.10728
G1 X108.993 Y129.508 E3.11708
G1 X108.790 Y129.473 E3.12347
G1 X108.427 Y129.313 E3.13572
G1 X108.335 Y129.245 E3.13928
G1 X108.156 Y129.155 E3.14546
G1 X108.019 Y128.965 E3.15271
G1 X107.811 Y128.819 E3.16060
G1 X107.712 Y128.620 E3.16747
G1 X107.579 Y128.498 E3.17304
G1 X107.518 Y128.401 E3.17658
G1 X107.292 Y127.942 E3.19243
G1 X107.084 Y127.797 E3.20025
G1 X106.955 Y127.530 E3.20944
G1 X106.750 Y127.396 E3.21700
G1 X106.644 Y127.120 E3.22615
G1 X106.471 Y126.859 E3.23585
G1 X106.372 Y126.493 E3.24758
G1 X106.294 Y125.649 E3.27381
G1 X106.377 Y125.257 E3.28618
G1 X106.315 Y124.739 E3.30232
G1 X106.332 Y124.458 E3.31103
G1 X106.316 Y124.375 E3.31367
G1 X106.356 Y123.999 E3.32536
G1 X106.604 Y123.985 E3.33305
G1 X107.117 Y123.467 E3.35560
G1 X107.152 Y123.267 E3.36187
G1 X107.260 Y122.960 E3.37194
G1 X107.338 Y122.830 E3.37662
G1 X107.642 Y122.797 E3.38610
G1 X107.968 Y122.832 E3.39624
G1 X108.054 Y122.786 E3.39926
G1 X108.108 Y122.843 E3.40168
G1 X108.196 Y122.843 E3.40440
G1 X108.464 Y123.118 E3.41628
G1 X109.043 Y123.154 E3.43424
G1 X109.492 Y122.963 E3.44933
G1 X110.133 Y122.638 E3.47157
G1 X110.184 Y122.882 E3.47927
G1 X110.517 Y122.888 E3.48957
G1 X110.555 Y123.183 E3.49879
G1 X111.110 Y123.224 E3.51602
G1 X111.373 Y123.272 E3.52429
G1 X111.543 Y123.383 E3.53057
G1 X111.407 Y123.743 F7800.000
G1 E1.53057 F2400.00000
G92 E0
G1 X108.497 Y124.740 F7800.000
G1 E2.00000 F2400.00000
G1 F1800
G1 X107.991 Y125.246 E2.02222
G1 X108.032 Y125.586 E2.03287
G1 X107.939 Y126.025 E2.04684
G1 X107.951 Y126.175 E2.05151
G1 X109.334 Y124.792 E2.11236
G1 X109.612 Y124.809 E2.12101
G1 X109.765 Y124.743 E2.12620
G1 X110.142 Y124.771 E2.13795
G1 X110.149 Y124.864 E2.14085
G1 X108.288 Y126.726 E2.22275
G1 X108.316 Y126.784 E2.22475
G1 X108.517 Y126.925 E2.23239
G1 X108.669 Y127.233 E2.24308
G1 X110.172 Y125.731 E2.30918
G1 X110.188 Y126.449 E2.33152
G1 X110.027 Y126.723 E2.34141
G1 X109.756 Y126.969 E2.35279
G1 X109.669 Y127.122 E2.35827
G1 X109.183 Y127.608 E2.37967
G1 E0.37967 F2400.00000
G92 E0
G1 X108.014 Y98.344 F7800.000
G1 E2.00000 F2400.00000
G1 F1800
G1 X109.242 Y98.251 E2.03809
G1 X109.357 Y98.334 E2.04250
G1 X109.698 Y98.322 E2.05305
G1 X109.866 Y99.213 E2.08111
G1 X109.985 Y99.450 E2.08932
G1 X110.052 Y100.027 E2.10730
G1 X110.016 Y100.518 E2.12251
G1 X110.038 Y100.748 E2.12968
G1 X110.012 Y101.008 E2.13777
G1 X110.041 Y101.262 E2.14567
G1 X109.985 Y102.027 E2.16940
G1 X109.939 Y102.324 E2.17868
G1 X109.844 Y102.522 E2.18550
G1 X109.553 Y102.877 E2.19971
G1 X109.437 Y103.121 E2.20806
G1 X109.389 Y103.170 E2.21017
G1 X108.998 Y103.437 E2.22484
G1 X108.651 Y103.548 E2.23610
G1 X108.354 Y103.562 E2.24529
G1 X108.021 Y103.519 E2.25569
G1 X107.722 Y103.414 E2.26550
G1 X107.559 Y103.208 E2.27362
G1 X107.333 Y103.149 E2.28085
G1 X107.239 Y103.022 E2.28573
G1 X106.975 Y102.888 E2.29491
G1 X106.865 Y102.610 E2.30416
G1 X106.778 Y102.537 E2.30767
G1 X106.738 Y102.383 E2.31260
G1 X106.558 Y102.100 E2.32299
G1 X106.444 Y101.681 E2.33642
G1 X106.394 Y101.318 E2.34777
G1 X106.230 Y100.907 E2.36143
G1 X106.165 Y100.543 E2.37288
G1 X106.104 Y99.920 E2.39225
G1 X106.085 Y99.423 E2.40764
G1 X106.116 Y98.696 E2.43015
G1 X106.086 Y98.558 E2.43453
G1 X106.114 Y98.361 E2.44068
G1 X106.373 Y98.081 E2.45248
G1 X108.014 Y98.009 E2.50332
G1 X108.014 Y98.269 E2.51136
G1 X108.639 Y97.670 F7800.000
G1 F1800
G1 X109.423 Y97.610 E2.53568
G1 X109.550 Y97.702 E2.54052
G1 X110.061 Y97.683 E2.55634
G1 X110.229 Y97.792 E2.56255
G1 X110.235 Y97.854 E2.56446
G1 X110.268 Y97.919 E2.56672
G1 X110.463 Y99.011 E2.60106
G1 X110.593 Y99.269 E2.60999
G1 X110.678 Y99.931 E2.63066
G1 X110.643 Y100.513 E2.64868
G1 X110.666 Y100.750 E2.65605
G1 X110.640 Y101.005 E2.66397
G1 X110.668 Y101.250 E2.67160
G1 X110.606 Y102.097 E2.69790
G1 X110.543 Y102.510 E2.71080
G1 X110.376 Y102.860 E2.72282
G1 X110.084 Y103.215 E2.73702
G1 X109.957 Y103.482 E2.74619
G1 X109.794 Y103.651 E2.75343
G1 X109.274 Y104.005 E2.77289
G1 X108.780 Y104.162 E2.78894
G1 X108.317 Y104.187 E2.80330
G1 X107.876 Y104.131 E2.81704
G1 X107.515 Y104.004 E2.82889
G1 X107.390 Y104.003 E2.83274
G1 X107.198 Y103.759 E2.84235
G1 X106.962 Y103.697 E2.84991
G1 X106.846 Y103.540 E2.85595
G1 X106.720 Y103.492 E2.86010
G1 X106.686 Y103.442 E2.86196
G1 X106.531 Y103.361 E2.86737
G1 X106.444 Y103.247 E2.87180
G1 X106.342 Y102.987 E2.88047
G1 X106.224 Y102.888 E2.88524
G1 X106.158 Y102.635 E2.89331
G1 X105.980 Y102.355 E2.90358
G1 X105.830 Y101.806 E2.92121
G1 X105.785 Y101.478 E2.93143
G1 X105.626 Y101.080 E2.94470
G1 X105.545 Y100.629 E2.95889
G1 X105.480 Y99.963 E2.97960
G1 X105.460 Y99.422 E2.99634
G1 X105.488 Y98.750 E3.01715
G1 X105.459 Y98.615 E3.02143
G1 X105.465 Y98.438 E3.02690
G1 X105.514 Y98.166 E3.03545
G1 X105.484 Y97.798 E3.04689
G1 X105.771 Y97.812 E3.05579
G1 X106.624 Y96.890 E3.09464
G1 X106.981 Y96.924 E3.10575
G1 X106.940 Y97.431 E3.12150
G1 X108.639 Y97.356 E3.17414
G1 X108.639 Y97.595 E3.18153
G1 X107.621 Y96.775 F7800.000
G1 F1800
G1 X108.415 Y96.740 E3.20615
G1 X108.815 Y96.316 E3.22418
G1 X109.053 Y96.398 E3.23197
G1 X109.127 Y96.698 E3.24153
G1 X109.264 Y96.757 E3.24616
G1 X109.264 Y96.996 E3.25354
G1 X109.605 Y96.970 E3.26410
G1 X109.742 Y97.070 E3.26936
G1 X110.164 Y97.054 E3.28242
G1 X110.219 Y97.024 E3.28435
G1 X110.588 Y97.102 E3.29603
G1 X110.633 Y97.309 E3.30256
G1 X110.824 Y97.432 E3.30958
G1 X110.846 Y97.676 E3.31717
G1 X110.877 Y97.735 E3.31923
G1 X110.902 Y97.963 E3.32632
G1 X111.061 Y98.809 E3.35296
G1 X111.204 Y99.115 E3.36340
