; generated by Slic3r 1.3.0 on 2021-09-23 at 16:30:55

; external perimeters extrusion width = 0.55mm (7.28mm^3/s)
; perimeters extrusion width = 0.70mm (11.44mm^3/s)
; infill extrusion width = 0.63mm (13.45mm^3/s)
; solid infill extrusion width = 0.70mm (3.81mm^3/s)
; top infill extrusion width = 0.70mm (2.86mm^3/s)

M107
M104 S200 ; set temperature
G28 ; home all axes
G1 Z5 F5000 ; lift nozzle

; Filament gcode

M109 S200 ; set temperature and wait for it to be reached
G21 ; set units to millimeters
G90 ; use absolute coordinates
M82 ; use absolute distances for extrusion
G92 E0
G1 Z0.350 F7800.000
G1 E-2.00000 F2400.00000
G92 E0
G1 X76.252 Y70.052 F7800.000
G1 E2.00000 F2400.00000
G1 F1800
G1 X79.943 Y66.079 E2.15063
G1 X84.136 Y62.085 E2.31148
G1 X86.645 Y59.848 E2.40487
G1 X90.546 Y56.729 E2.54361
G1 X95.680 Y53.084 E2.71849
G1 X97.744 Y52.110 E2.78189
G1 X99.129 Y51.888 E2.82085
G1 X99.534 Y51.867 E2.83213
G1 X101.799 Y52.147 E2.89553
G1 X103.315 Y52.833 E2.94175
G1 X105.051 Y53.919 E2.99862
G1 X110.666 Y57.915 E3.19007
G1 X114.733 Y61.164 E3.33467
G1 X118.087 Y64.170 E3.45978
G1 X118.414 Y64.484 E3.47236
G1 X123.144 Y69.352 E3.66090
G1 X126.365 Y73.090 E3.79797
G1 X129.497 Y77.208 E3.94168
G1 X131.615 Y80.376 E4.04752
G1 X133.295 Y83.091 E4.13621
G1 X133.542 Y83.527 E4.15015
G1 X135.750 Y87.793 E4.28358
G1 X137.167 Y90.926 E4.37908
G1 X137.380 Y91.462 E4.39511
G1 X139.230 Y96.795 E4.55191
G1 X140.010 Y99.497 E4.63003
G1 X140.470 Y101.528 E4.68787
G1 X140.557 Y101.986 E4.70084
G1 X141.476 Y108.003 E4.86992
G1 X141.527 Y108.424 E4.88168
G1 X141.716 Y110.727 E4.94588
G1 X141.772 Y112.829 E5.00429
G1 X141.779 Y141.579 E5.80290
G1 X141.383 Y143.827 E5.86630
G1 X140.241 Y145.803 E5.92969
G1 X138.491 Y147.268 E5.99309
G1 X135.219 Y148.142 E6.08718
G1 X64.804 Y148.142 E8.04312
G1 X62.557 Y147.745 E8.10652
G1 X60.581 Y146.602 E8.16991
G1 X59.117 Y144.852 E8.23331
G1 X58.244 Y141.586 E8.32720
G1 X58.221 Y114.015 E9.09307
G1 X58.389 Y109.836 E9.20926
G1 X58.632 Y107.255 E9.28126
G1 X59.314 Y102.874 E9.40443
G1 X59.404 Y102.413 E9.41747
G1 X60.247 Y98.792 E9.52074
G1 X60.378 Y98.313 E9.53453
G1 X61.493 Y94.764 E9.63786
G1 X61.636 Y94.357 E9.64987
G1 X63.103 Y90.578 E9.76247
G1 X63.288 Y90.147 E9.77550
G1 X65.191 Y86.150 E9.89847
G1 X67.044 Y82.751 E10.00601
G1 X67.300 Y82.321 E10.01988
G1 X70.456 Y77.454 E10.18101
G1 X73.137 Y73.796 E10.30700
G1 X76.203 Y70.108 E10.44022
G1 E8.44022 F2400.00000
G92 E0
G1 X125.267 Y131.359 F7800.000
G1 E2.00000 F2400.00000
G1 F1800
G1 X123.864 Y131.394 E2.03898
G1 X122.474 Y130.994 E2.07915
G1 X121.304 Y130.885 E2.11180
G1 X117.837 Y130.879 E2.20812
G1 X116.823 Y130.767 E2.23643
G1 X116.154 Y130.373 E2.25801
G1 X115.545 Y130.841 E2.27936
G1 X114.774 Y131.019 E2.30134
G1 X110.545 Y130.962 E2.41882
G1 X108.056 Y131.514 E2.48964
G1 X107.137 Y131.006 E2.51880
G1 X107.033 Y131.165 E2.52409
G1 X106.438 Y130.738 E2.54444
G1 X105.065 Y131.116 E2.58401
G1 X103.905 Y130.785 E2.61750
G1 X103.218 Y129.793 E2.65103
G1 X102.987 Y128.133 E2.69759
G1 X102.968 Y127.145 E2.72502
G1 X101.660 Y126.965 E2.76170
G1 X100.539 Y126.506 E2.79534
G1 X99.951 Y125.581 E2.82579
G1 X99.995 Y124.209 E2.86393
G1 X100.651 Y123.340 E2.89416
G1 X101.779 Y122.969 E2.92713
G1 X102.972 Y122.879 E2.96039
G1 X102.968 Y117.162 E3.11919
G1 X102.852 Y115.373 E3.16900
G1 X101.963 Y115.264 E3.19388
G1 X100.729 Y114.860 E3.22996
G1 X100.049 Y113.710 E3.26708
G1 X100.096 Y112.722 E3.29456
G1 X100.466 Y111.943 E3.31851
G1 X101.138 Y111.420 E3.34216
G1 X101.871 Y111.189 E3.36350
G1 X103.029 Y111.109 E3.39575
G1 X103.055 Y111.069 E3.39710
G1 X103.098 Y110.783 E3.40510
G1 X103.104 Y109.061 E3.45295
G1 X103.245 Y108.331 E3.47361
G1 X103.712 Y107.610 E3.49746
G1 X104.415 Y107.113 E3.52138
G1 X105.142 Y106.945 E3.54210
G1 X107.188 Y106.871 E3.59898
G1 X108.574 Y106.934 E3.63751
G1 X111.047 Y106.935 E3.70622
G1 X111.051 Y106.750 E3.71136
G1 X114.355 Y106.968 E3.80333
G1 X115.111 Y106.243 E3.83242
G1 X116.179 Y106.076 E3.86246
G1 X117.741 Y106.303 E3.90631
G1 X118.051 Y106.937 E3.92591
G1 X123.698 Y106.872 E4.08277
G1 X127.507 Y106.944 E4.18861
G1 X128.489 Y107.444 E4.21922
G1 X129.124 Y108.377 E4.25058
G1 X129.390 Y111.242 E4.33049
G1 X130.436 Y111.244 E4.35955
G1 X131.116 Y111.376 E4.37878
G1 X131.804 Y111.780 E4.40095
G1 X132.359 Y112.523 E4.42671
G1 X132.498 Y113.865 E4.46419
G1 X131.944 Y114.838 E4.49529
G1 X130.767 Y115.332 E4.53075
G1 X129.530 Y115.413 E4.56519
G1 X129.471 Y115.714 E4.57370
G1 X129.396 Y116.579 E4.59782
G1 X129.511 Y118.747 E4.65813
G1 X129.519 Y121.523 E4.73525
G1 X129.572 Y121.962 E4.74753
G1 X129.540 Y122.830 E4.77165
G1 X130.887 Y122.976 E4.80928
G1 X131.574 Y123.212 E4.82947
G1 X132.268 Y123.944 E4.85746
G1 X132.355 Y125.286 E4.89483
G1 X131.890 Y126.408 E4.92857
G1 X130.875 Y126.955 E4.96060
G1 X129.530 Y127.102 E4.99818
G1 X129.586 Y128.493 E5.03686
G1 X129.481 Y129.349 E5.06082
G1 X129.019 Y130.227 E5.08838
G1 X128.158 Y130.778 E5.11678
G1 X127.048 Y130.920 E5.14788
G1 X126.383 Y130.622 E5.16811
G1 X126.192 Y130.802 E5.17541
G1 X125.514 Y130.773 E5.19428
G1 X125.296 Y131.290 E5.20985
G1 X124.891 Y130.807 F7800.000
G1 F1800
G1 X123.937 Y130.831 E5.23636
G1 X122.579 Y130.441 E5.27560
G1 X121.331 Y130.324 E5.31042
G1 X117.868 Y130.318 E5.40660
G1 X117.005 Y130.223 E5.43074
G1 X116.155 Y129.722 E5.45813
G1 X115.997 Y129.499 E5.46572
G1 X115.854 Y129.896 E5.47744
G1 X115.300 Y130.322 E5.49684
G1 X114.714 Y130.457 E5.51356
G1 X110.487 Y130.400 E5.63097
G1 X108.141 Y130.920 E5.69771
G1 X107.256 Y130.430 E5.72583
G1 X107.132 Y129.982 E5.73875
G1 X106.883 Y130.367 E5.75149
G1 X106.547 Y130.126 E5.76295
G1 X105.067 Y130.534 E5.80558
G1 X104.252 Y130.301 E5.82914
G1 X103.755 Y129.583 E5.85338
G1 X103.548 Y128.089 E5.89530
G1 X103.523 Y126.834 E5.93017
G1 X103.482 Y126.681 E5.93455
G1 X103.392 Y126.637 E5.93735
G1 X101.807 Y126.419 E5.98179
G1 X100.917 Y126.054 E6.00850
G1 X100.517 Y125.426 E6.02919
G1 X100.550 Y124.405 E6.05757
G1 X100.993 Y123.818 E6.07799
G1 X101.887 Y123.524 E6.10414
G1 X102.984 Y123.447 E6.13468
G1 X103.305 Y123.388 E6.14375
G1 X103.444 Y123.319 E6.14804
G1 X103.485 Y123.263 E6.14997
G1 X103.534 Y122.942 E6.15899
G1 X103.529 Y117.144 E6.32005
G1 X103.396 Y115.091 E6.37721
G1 X103.328 Y114.870 E6.38361
G1 X103.309 Y114.863 E6.38419
G1 X102.086 Y114.714 E6.41842
G1 X101.104 Y114.393 E6.44710
G1 X100.617 Y113.569 E6.47368
G1 X100.651 Y112.861 E6.49337
G1 X100.916 Y112.304 E6.51051
G1 X101.403 Y111.925 E6.52766
G1 X101.975 Y111.744 E6.54433
G1 X103.094 Y111.668 E6.57546
G1 X103.309 Y111.625 E6.58157
G1 X103.401 Y111.567 E6.58460
G1 X103.592 Y111.271 E6.59437
G1 X103.659 Y110.826 E6.60688
G1 X103.665 Y109.116 E6.65439
G1 X103.775 Y108.544 E6.67055
G1 X104.124 Y108.006 E6.68838
G1 X104.649 Y107.635 E6.70623
G1 X105.216 Y107.503 E6.72240
G1 X107.185 Y107.432 E6.77714
G1 X108.561 Y107.495 E6.81539
G1 X111.597 Y107.496 E6.89972
G1 X111.600 Y107.348 E6.90383
G1 X114.215 Y107.521 E6.97663
G1 X114.589 Y107.733 E6.98858
G1 X114.741 Y107.374 E6.99941
G1 X115.372 Y106.770 E7.02366
G1 X116.182 Y106.643 E7.04645
G1 X117.367 Y106.816 E7.07971
G1 X117.736 Y107.570 E7.10305
G1 X118.082 Y107.498 E7.11286
G1 X123.695 Y107.433 E7.26881
G1 X127.368 Y107.503 E7.37083
G1 X128.106 Y107.879 E7.39386
G1 X128.579 Y108.573 E7.41719
G1 X128.867 Y111.682 E7.50392
G1 X128.912 Y111.776 E7.50682
G1 X128.966 Y111.802 E7.50847
G1 X130.381 Y111.805 E7.54779
G1 X130.915 Y111.908 E7.56288
G1 X131.422 Y112.206 E7.57923
G1 X131.817 Y112.735 E7.59754
G1 X131.921 Y113.744 E7.62573
G1 X131.551 Y114.395 E7.64653
G1 X130.637 Y114.779 E7.67407
G1 X129.292 Y114.867 E7.71152
G1 X129.058 Y114.906 E7.71809
G1 X128.915 Y115.635 E7.73875
G1 X128.833 Y116.569 E7.76479
G1 X128.950 Y118.763 E7.82581
G1 X128.958 Y121.558 E7.90345
G1 X129.010 Y121.986 E7.91542
G1 X128.962 Y123.288 E7.95163
G1 X128.986 Y123.334 E7.95307
G1 X130.764 Y123.527 E8.00275
G1 X131.262 Y123.698 E8.01737
G1 X131.721 Y124.182 E8.03590
G1 X131.787 Y125.192 E8.06401
G1 X131.448 Y126.009 E8.08858
G1 X130.705 Y126.410 E8.11201
G1 X129.190 Y126.575 E8.15436
G1 X129.080 Y126.640 E8.15791
G1 X129.011 Y126.755 E8.16162
G1 X128.962 Y127.115 E8.17173
G1 X129.024 Y128.471 E8.20945
G1 X128.937 Y129.179 E8.22924
G1 X128.592 Y129.835 E8.24984
G1 X127.962 Y130.238 E8.27060
G1 X127.133 Y130.344 E8.29381
G1 X126.271 Y129.956 E8.32007
G1 X125.979 Y130.232 E8.33122
G1 X125.148 Y130.196 E8.35434
G1 X124.920 Y130.738 E8.37068
G1 E6.37068 F2400.00000
G92 E0
G1 X115.547 Y111.237 F7800.000
G1 E2.00000 F2400.00000
G1 F1800
G1 X115.673 Y111.715 E2.01163
G1 X115.804 Y117.265 E2.14215
G1 X115.743 Y118.980 E2.18252
G1 X115.822 Y125.515 E2.33618
G1 X115.878 Y127.099 E2.37345
G1 X115.730 Y128.712 E2.41155
G1 X115.418 Y129.578 E2.43319
G1 X115.074 Y129.843 E2.44340
G1 X114.658 Y129.938 E2.45343
G1 X110.434 Y129.881 E2.55277
G1 X108.220 Y130.372 E2.60608
G1 X107.697 Y130.083 E2.62014
G1 X107.504 Y129.381 E2.63726
G1 X107.431 Y122.903 E2.78958
G1 X107.500 Y114.697 E2.98256
G1 X107.596 Y114.693 E2.98482
G1 X107.434 Y112.992 E3.02499
G1 X107.432 Y112.460 E3.03751
G1 X107.559 Y111.991 E3.04894
G1 X107.902 Y111.627 E3.06068
G1 X108.444 Y111.414 E3.07439
G1 X109.094 Y111.294 E3.08993
G1 X110.698 Y111.198 E3.12771
G1 X111.475 Y111.260 E3.14603
G1 X115.064 Y111.116 E3.23050
G1 X115.475 Y111.219 E3.24045
G1 X116.039 Y111.185 F7800.000
G1 X116.133 Y110.910 F7800.000
G1 F1800
G1 X116.508 Y110.822 E3.24951
G1 X117.756 Y111.162 E3.27992
G1 X118.665 Y111.193 E3.30131
G1 X120.802 Y111.126 E3.35160
G1 X123.181 Y111.198 E3.40755
G1 X124.031 Y111.360 E3.42790
G1 X124.469 Y111.653 E3.44029
G1 X124.634 Y112.168 E3.45301
G1 X124.765 Y121.106 E3.66320
G1 X124.702 Y128.457 E3.83607
G1 X124.766 Y129.767 E3.86690
G1 X124.543 Y130.297 E3.88043
G1 X124.003 Y130.311 E3.89313
G1 X122.675 Y129.929 E3.92562
G1 X121.355 Y129.806 E3.95679
G1 X117.897 Y129.800 E4.03811
G1 X117.172 Y129.720 E4.05527
G1 X116.513 Y129.332 E4.07324
G1 X116.271 Y128.990 E4.08310
G1 X116.178 Y128.646 E4.09148
G1 X116.108 Y126.544 E4.14094
G1 X116.034 Y117.515 E4.35324
G1 X116.092 Y114.057 E4.43458
G1 X115.899 Y111.622 E4.49200
G1 X115.926 Y111.235 E4.50112
G1 X116.092 Y110.973 E4.50843
G1 X116.115 Y110.525 F7800.000
G1 E2.50843 F2400.00000
G92 E0
G1 X126.191 Y110.042 F7800.000
G1 E2.00000 F2400.00000
G1 F1800
G1 X126.064 Y110.355 E2.00793
G1 X125.614 Y110.909 E2.02471
G1 X125.031 Y111.258 E2.04070
G1 X124.347 Y111.270 E2.05679
G1 X121.674 Y110.908 E2.12021
G1 X117.939 Y110.956 E2.20804
G1 X116.885 Y110.702 E2.23352
G1 X116.652 Y110.267 E2.24513
G1 X116.860 Y109.645 E2.26056
G1 X117.412 Y109.428 E2.27451
G1 X125.591 Y109.428 E2.46682
G1 X126.129 Y109.655 E2.48054
G1 X126.179 Y109.968 E2.48801
G1 X126.483 Y110.211 F7800.000
G1 X126.297 Y110.665 F7800.000
G1 F1800
G1 X126.660 Y111.045 E2.50037
G1 X126.700 Y111.489 E2.51085
G1 X126.680 Y110.219 E2.54073
G1 X126.630 Y109.921 E2.54784
G1 X126.514 Y109.679 E2.55415
G1 X126.303 Y109.467 E2.56118
G1 X126.067 Y109.360 E2.56727
G1 X123.464 Y109.277 E2.62850
G1 X118.993 Y109.411 E2.73368
G1 X117.964 Y109.197 E2.75840
G1 X117.608 Y108.969 E2.76835
G1 X117.501 Y108.522 E2.77915
G1 X117.736 Y108.100 E2.79052
G1 X118.138 Y108.015 E2.80018
G1 X123.694 Y107.951 E2.93081
G1 X127.239 Y108.018 E3.01419
G1 X127.753 Y108.280 E3.02776
G1 X128.076 Y108.754 E3.04124
G1 X128.360 Y111.822 E3.11368
G1 X128.524 Y112.166 E3.12266
G1 X128.849 Y112.319 E3.13111
G1 X130.331 Y112.323 E3.16595
G1 X130.729 Y112.400 E3.17548
G1 X131.070 Y112.600 E3.18476
G1 X131.316 Y112.930 E3.19445
G1 X131.389 Y113.632 E3.21105
G1 X131.188 Y113.985 E3.22060
G1 X130.516 Y114.267 E3.23774
G1 X129.232 Y114.352 E3.26800
G1 X128.762 Y114.430 E3.27920
G1 X128.655 Y114.493 E3.28213
G1 X128.589 Y114.606 E3.28521
G1 X128.401 Y115.563 E3.30812
G1 X128.314 Y116.561 E3.33168
G1 X128.432 Y118.777 E3.38388
G1 X128.440 Y121.590 E3.45001
G1 X128.491 Y122.007 E3.45990
G1 X128.440 Y123.379 E3.49217
G1 X128.554 Y123.662 E3.49934
G1 X128.796 Y123.834 E3.50633
G1 X130.651 Y124.036 E3.55020
G1 X130.974 Y124.147 E3.55823
G1 X131.216 Y124.403 E3.56653
G1 X131.262 Y125.105 E3.58308
G1 X131.040 Y125.641 E3.59671
G1 X130.549 Y125.906 E3.60983
G1 X129.021 Y126.072 E3.64597
G1 X128.703 Y126.262 E3.65467
G1 X128.512 Y126.578 E3.66337
G1 X128.442 Y127.091 E3.67554
G1 X128.504 Y128.452 E3.70756
G1 X128.434 Y129.022 E3.72106
G1 X128.197 Y129.472 E3.73304
G1 X127.781 Y129.739 E3.74466
G1 X127.212 Y129.812 E3.75813
G1 X126.618 Y129.544 E3.77346
G1 X126.524 Y128.921 E3.78829
G1 X126.817 Y127.843 E3.81454
G1 X126.826 Y119.269 E4.01616
G1 X126.716 Y112.471 E4.17603
G1 X126.680 Y113.324 E4.19612
G1 X126.740 Y115.107 E4.23807
G1 X126.680 Y117.211 E4.28755
G1 X126.811 Y123.493 E4.43530
G1 X126.754 Y127.519 E4.52998
G1 X126.644 Y128.401 E4.55088
G1 X126.275 Y129.240 E4.57243
G1 X125.783 Y129.705 E4.58835
G1 X125.184 Y129.679 E4.60243
G1 X124.927 Y129.180 E4.61564
G1 X124.923 Y124.623 E4.72279
G1 X124.857 Y122.274 E4.77805
G1 X124.857 Y112.377 E5.01077
G1 X124.926 Y111.913 E5.02178
G1 X125.121 Y111.484 E5.03287
G1 X125.743 Y110.809 E5.05445
G1 X126.224 Y110.684 E5.06614
G1 X126.676 Y110.339 F7800.000
G1 E3.06614 F2400.00000
G92 E0
G1 X117.022 Y107.289 F7800.000
G1 E2.00000 F2400.00000
G1 F1800
G1 X117.368 Y107.997 E2.01853
G1 X117.416 Y108.536 E2.03125
G1 X117.268 Y109.037 E2.04353
G1 X116.998 Y109.450 E2.05515
G1 X116.656 Y109.758 E2.06596
G1 X115.940 Y110.005 E2.08377
G1 X115.526 Y109.839 E2.09428
G1 X115.225 Y109.473 E2.10542
G1 X114.923 Y108.791 E2.12294
G1 X114.945 Y108.221 E2.13636
G1 X115.176 Y107.675 E2.15032
G1 X115.613 Y107.257 E2.16452
G1 X116.185 Y107.167 E2.17815
G1 X116.948 Y107.278 E2.19627
G1 X117.500 Y107.143 F7800.000
G1 E0.19627 F2400.00000
G92 E0
G1 X114.683 Y108.678 F7800.000
G1 E2.00000 F2400.00000
G1 F1800
G1 X114.544 Y109.047 E2.00927
G1 X113.947 Y109.331 E2.02482
G1 X112.400 Y109.478 E2.06135
G1 X106.293 Y109.554 E2.20497
G1 X106.037 Y109.609 E2.21113
G1 X105.817 Y109.748 E2.21724
G1 X105.655 Y109.941 E2.22317
G1 X105.579 Y110.170 E2.22884
G1 X105.511 Y111.275 E2.25488
G1 X105.529 Y127.470 E2.63570
G1 X105.674 Y128.187 E2.65288
G1 X105.599 Y127.543 E2.66812
G1 X105.640 Y114.321 E2.97902
G1 X105.599 Y111.167 E3.05319
G1 X105.853 Y110.576 E3.06833
G1 X106.371 Y110.591 E3.08052
G1 X106.655 Y110.737 E3.08803
G1 X106.517 Y110.564 E3.09322
G1 X106.514 Y109.985 E3.10685
G1 X106.931 Y109.612 E3.12001
G1 X107.391 Y109.569 E3.13087
G1 X112.516 Y109.569 E3.25137
G1 X112.517 Y109.624 E3.25267
G1 X114.544 Y109.368 E3.30070
G1 X114.955 Y109.396 E3.31041
G1 X115.214 Y109.587 E3.31796
G1 X115.322 Y109.921 E3.32622
G1 X115.220 Y110.580 E3.34190
G1 X114.705 Y110.882 E3.35594
G1 X113.394 Y111.028 E3.38697
G1 X110.629 Y110.982 E3.45198
G1 X107.917 Y111.338 E3.51631
G1 X107.315 Y111.299 E3.53049
G1 X106.836 Y110.963 E3.54424
G1 X106.773 Y110.885 E3.54661
G1 X107.024 Y111.314 E3.55829
G1 X107.182 Y111.863 E3.57173
G1 X107.276 Y122.078 E3.81192
G1 X107.336 Y124.357 E3.86555
G1 X107.250 Y126.306 E3.91142
G1 X107.358 Y126.314 E3.91396
G1 X107.116 Y129.054 E3.97865
G1 X106.743 Y129.629 E3.99477
G1 X106.219 Y129.253 E4.00995
G1 X105.894 Y128.864 E4.02187
G1 X105.856 Y128.777 E4.02410
G1 X105.996 Y129.192 E4.03440
G1 X106.041 Y129.729 E4.04706
G1 X105.070 Y129.996 E4.07072
G1 X104.572 Y129.853 E4.08289
G1 X104.251 Y129.390 E4.09616
G1 X104.065 Y128.048 E4.12802
G1 X104.040 Y126.783 E4.15777
G1 X103.997 Y126.540 E4.16357
G1 X103.891 Y126.351 E4.16865
G1 X103.735 Y126.213 E4.17355
G1 X103.520 Y126.132 E4.17895
G1 X101.942 Y125.915 E4.21640
G1 X101.265 Y125.637 E4.23361
